<?xml version="1.0"?>
<VTKFile type="StructuredGrid">
<StructuredGrid WholeExtent="0 47 0 47 0 23">
<Piece Extent="0 47 0 47 0 23">
<Points>
<DataArray type="Float32" NumberOfComponents="3" format="ascii">
-2.91938e-09 -2.91938e-09 0
-2.91938e-09 -2.79515e-09 0
-2.91938e-09 -2.67092e-09 0
-2.91938e-09 -2.54669e-09 0
-2.91938e-09 -2.42246e-09 0
-2.91938e-09 -2.29823e-09 0
-2.91938e-09 -2.174e-09 0
-2.91938e-09 -2.04977e-09 0
-2.91938e-09 -1.92555e-09 0
-2.91938e-09 -1.80132e-09 0
-2.91938e-09 -1.67709e-09 0
-2.91938e-09 -1.55286e-09 0
-2.91938e-09 -1.42863e-09 0
-2.91938e-09 -1.3044e-09 0
-2.91938e-09 -1.18017e-09 0
-2.91938e-09 -1.05594e-09 0
-2.91938e-09 -9.31715e-10 0
-2.91938e-09 -8.07487e-10 0
-2.91938e-09 -6.83258e-10 0
-2.91938e-09 -5.59029e-10 0
-2.91938e-09 -4.34801e-10 0
-2.91938e-09 -3.10572e-10 0
-2.91938e-09 -1.86343e-10 0
-2.91938e-09 -6.21144e-11 0
-2.91938e-09 6.21144e-11 0
-2.91938e-09 1.86343e-10 0
-2.91938e-09 3.10572e-10 0
-2.91938e-09 4.34801e-10 0
-2.91938e-09 5.59029e-10 0
-2.91938e-09 6.83258e-10 0
-2.91938e-09 8.07487e-10 0
-2.91938e-09 9.31715e-10 0
-2.91938e-09 1.05594e-09 0
-2.91938e-09 1.18017e-09 0
-2.91938e-09 1.3044e-09 0
-2.91938e-09 1.42863e-09 0
-2.91938e-09 1.55286e-09 0
-2.91938e-09 1.67709e-09 0
-2.91938e-09 1.80132e-09 0
-2.91938e-09 1.92555e-09 0
-2.91938e-09 2.04977e-09 0
-2.91938e-09 2.174e-09 0
-2.91938e-09 2.29823e-09 0
-2.91938e-09 2.42246e-09 0
-2.91938e-09 2.54669e-09 0
-2.91938e-09 2.67092e-09 0
-2.91938e-09 2.79515e-09 0
-2.91938e-09 2.91938e-09 0
-2.79515e-09 -2.91938e-09 0
-2.79515e-09 -2.79515e-09 0
-2.79515e-09 -2.67092e-09 0
-2.79515e-09 -2.54669e-09 0
-2.79515e-09 -2.42246e-09 0
-2.79515e-09 -2.29823e-09 0
-2.79515e-09 -2.174e-09 0
-2.79515e-09 -2.04977e-09 0
-2.79515e-09 -1.92555e-09 0
-2.79515e-09 -1.80132e-09 0
-2.79515e-09 -1.67709e-09 0
-2.79515e-09 -1.55286e-09 0
-2.79515e-09 -1.42863e-09 0
-2.79515e-09 -1.3044e-09 0
-2.79515e-09 -1.18017e-09 0
-2.79515e-09 -1.05594e-09 0
-2.79515e-09 -9.31715e-10 0
-2.79515e-09 -8.07487e-10 0
-2.79515e-09 -6.83258e-10 0
-2.79515e-09 -5.59029e-10 0
-2.79515e-09 -4.34801e-10 0
-2.79515e-09 -3.10572e-10 0
-2.79515e-09 -1.86343e-10 0
-2.79515e-09 -6.21144e-11 0
-2.79515e-09 6.21144e-11 0
-2.79515e-09 1.86343e-10 0
-2.79515e-09 3.10572e-10 0
-2.79515e-09 4.34801e-10 0
-2.79515e-09 5.59029e-10 0
-2.79515e-09 6.83258e-10 0
-2.79515e-09 8.07487e-10 0
-2.79515e-09 9.31715e-10 0
-2.79515e-09 1.05594e-09 0
-2.79515e-09 1.18017e-09 0
-2.79515e-09 1.3044e-09 0
-2.79515e-09 1.42863e-09 0
-2.79515e-09 1.55286e-09 0
-2.79515e-09 1.67709e-09 0
-2.79515e-09 1.80132e-09 0
-2.79515e-09 1.92555e-09 0
-2.79515e-09 2.04977e-09 0
-2.79515e-09 2.174e-09 0
-2.79515e-09 2.29823e-09 0
-2.79515e-09 2.42246e-09 0
-2.79515e-09 2.54669e-09 0
-2.79515e-09 2.67092e-09 0
-2.79515e-09 2.79515e-09 0
-2.79515e-09 2.91938e-09 0
-2.67092e-09 -2.91938e-09 0
-2.67092e-09 -2.79515e-09 0
-2.67092e-09 -2.67092e-09 0
-2.67092e-09 -2.54669e-09 0
-2.67092e-09 -2.42246e-09 0
-2.67092e-09 -2.29823e-09 0
-2.67092e-09 -2.174e-09 0
-2.67092e-09 -2.04977e-09 0
-2.67092e-09 -1.92555e-09 0
-2.67092e-09 -1.80132e-09 0
-2.67092e-09 -1.67709e-09 0
-2.67092e-09 -1.55286e-09 0
-2.67092e-09 -1.42863e-09 0
-2.67092e-09 -1.3044e-09 0
-2.67092e-09 -1.18017e-09 0
-2.67092e-09 -1.05594e-09 0
-2.67092e-09 -9.31715e-10 0
-2.67092e-09 -8.07487e-10 0
-2.67092e-09 -6.83258e-10 0
-2.67092e-09 -5.59029e-10 0
-2.67092e-09 -4.34801e-10 0
-2.67092e-09 -3.10572e-10 0
-2.67092e-09 -1.86343e-10 0
-2.67092e-09 -6.21144e-11 0
-2.67092e-09 6.21144e-11 0
-2.67092e-09 1.86343e-10 0
-2.67092e-09 3.10572e-10 0
-2.67092e-09 4.34801e-10 0
-2.67092e-09 5.59029e-10 0
-2.67092e-09 6.83258e-10 0
-2.67092e-09 8.07487e-10 0
-2.67092e-09 9.31715e-10 0
-2.67092e-09 1.05594e-09 0
-2.67092e-09 1.18017e-09 0
-2.67092e-09 1.3044e-09 0
-2.67092e-09 1.42863e-09 0
-2.67092e-09 1.55286e-09 0
-2.67092e-09 1.67709e-09 0
-2.67092e-09 1.80132e-09 0
-2.67092e-09 1.92555e-09 0
-2.67092e-09 2.04977e-09 0
-2.67092e-09 2.174e-09 0
-2.67092e-09 2.29823e-09 0
-2.67092e-09 2.42246e-09 0
-2.67092e-09 2.54669e-09 0
-2.67092e-09 2.67092e-09 0
-2.67092e-09 2.79515e-09 0
-2.67092e-09 2.91938e-09 0
-2.54669e-09 -2.91938e-09 0
-2.54669e-09 -2.79515e-09 0
-2.54669e-09 -2.67092e-09 0
-2.54669e-09 -2.54669e-09 0
-2.54669e-09 -2.42246e-09 0
-2.54669e-09 -2.29823e-09 0
-2.54669e-09 -2.174e-09 0
-2.54669e-09 -2.04977e-09 0
-2.54669e-09 -1.92555e-09 0
-2.54669e-09 -1.80132e-09 0
-2.54669e-09 -1.67709e-09 0
-2.54669e-09 -1.55286e-09 0
-2.54669e-09 -1.42863e-09 0
-2.54669e-09 -1.3044e-09 0
-2.54669e-09 -1.18017e-09 0
-2.54669e-09 -1.05594e-09 0
-2.54669e-09 -9.31715e-10 0
-2.54669e-09 -8.07487e-10 0
-2.54669e-09 -6.83258e-10 0
-2.54669e-09 -5.59029e-10 0
-2.54669e-09 -4.34801e-10 0
-2.54669e-09 -3.10572e-10 0
-2.54669e-09 -1.86343e-10 0
-2.54669e-09 -6.21144e-11 0
-2.54669e-09 6.21144e-11 0
-2.54669e-09 1.86343e-10 0
-2.54669e-09 3.10572e-10 0
-2.54669e-09 4.34801e-10 0
-2.54669e-09 5.59029e-10 0
-2.54669e-09 6.83258e-10 0
-2.54669e-09 8.07487e-10 0
-2.54669e-09 9.31715e-10 0
-2.54669e-09 1.05594e-09 0
-2.54669e-09 1.18017e-09 0
-2.54669e-09 1.3044e-09 0
-2.54669e-09 1.42863e-09 0
-2.54669e-09 1.55286e-09 0
-2.54669e-09 1.67709e-09 0
-2.54669e-09 1.80132e-09 0
-2.54669e-09 1.92555e-09 0
-2.54669e-09 2.04977e-09 0
-2.54669e-09 2.174e-09 0
-2.54669e-09 2.29823e-09 0
-2.54669e-09 2.42246e-09 0
-2.54669e-09 2.54669e-09 0
-2.54669e-09 2.67092e-09 0
-2.54669e-09 2.79515e-09 0
-2.54669e-09 2.91938e-09 0
-2.42246e-09 -2.91938e-09 0
-2.42246e-09 -2.79515e-09 0
-2.42246e-09 -2.67092e-09 0
-2.42246e-09 -2.54669e-09 0
-2.42246e-09 -2.42246e-09 0
-2.42246e-09 -2.29823e-09 0
-2.42246e-09 -2.174e-09 0
-2.42246e-09 -2.04977e-09 0
-2.42246e-09 -1.92555e-09 0
-2.42246e-09 -1.80132e-09 0
-2.42246e-09 -1.67709e-09 0
-2.42246e-09 -1.55286e-09 0
-2.42246e-09 -1.42863e-09 0
-2.42246e-09 -1.3044e-09 0
-2.42246e-09 -1.18017e-09 0
-2.42246e-09 -1.05594e-09 0
-2.42246e-09 -9.31715e-10 0
-2.42246e-09 -8.07487e-10 0
-2.42246e-09 -6.83258e-10 0
-2.42246e-09 -5.59029e-10 0
-2.42246e-09 -4.34801e-10 0
-2.42246e-09 -3.10572e-10 0
-2.42246e-09 -1.86343e-10 0
-2.42246e-09 -6.21144e-11 0
-2.42246e-09 6.21144e-11 0
-2.42246e-09 1.86343e-10 0
-2.42246e-09 3.10572e-10 0
-2.42246e-09 4.34801e-10 0
-2.42246e-09 5.59029e-10 0
-2.42246e-09 6.83258e-10 0
-2.42246e-09 8.07487e-10 0
-2.42246e-09 9.31715e-10 0
-2.42246e-09 1.05594e-09 0
-2.42246e-09 1.18017e-09 0
-2.42246e-09 1.3044e-09 0
-2.42246e-09 1.42863e-09 0
-2.42246e-09 1.55286e-09 0
-2.42246e-09 1.67709e-09 0
-2.42246e-09 1.80132e-09 0
-2.42246e-09 1.92555e-09 0
-2.42246e-09 2.04977e-09 0
-2.42246e-09 2.174e-09 0
-2.42246e-09 2.29823e-09 0
-2.42246e-09 2.42246e-09 0
-2.42246e-09 2.54669e-09 0
-2.42246e-09 2.67092e-09 0
-2.42246e-09 2.79515e-09 0
-2.42246e-09 2.91938e-09 0
-2.29823e-09 -2.91938e-09 0
-2.29823e-09 -2.79515e-09 0
-2.29823e-09 -2.67092e-09 0
-2.29823e-09 -2.54669e-09 0
-2.29823e-09 -2.42246e-09 0
-2.29823e-09 -2.29823e-09 0
-2.29823e-09 -2.174e-09 0
-2.29823e-09 -2.04977e-09 0
-2.29823e-09 -1.92555e-09 0
-2.29823e-09 -1.80132e-09 0
-2.29823e-09 -1.67709e-09 0
-2.29823e-09 -1.55286e-09 0
-2.29823e-09 -1.42863e-09 0
-2.29823e-09 -1.3044e-09 0
-2.29823e-09 -1.18017e-09 0
-2.29823e-09 -1.05594e-09 0
-2.29823e-09 -9.31715e-10 0
-2.29823e-09 -8.07487e-10 0
-2.29823e-09 -6.83258e-10 0
-2.29823e-09 -5.59029e-10 0
-2.29823e-09 -4.34801e-10 0
-2.29823e-09 -3.10572e-10 0
-2.29823e-09 -1.86343e-10 0
-2.29823e-09 -6.21144e-11 0
-2.29823e-09 6.21144e-11 0
-2.29823e-09 1.86343e-10 0
-2.29823e-09 3.10572e-10 0
-2.29823e-09 4.34801e-10 0
-2.29823e-09 5.59029e-10 0
-2.29823e-09 6.83258e-10 0
-2.29823e-09 8.07487e-10 0
-2.29823e-09 9.31715e-10 0
-2.29823e-09 1.05594e-09 0
-2.29823e-09 1.18017e-09 0
-2.29823e-09 1.3044e-09 0
-2.29823e-09 1.42863e-09 0
-2.29823e-09 1.55286e-09 0
-2.29823e-09 1.67709e-09 0
-2.29823e-09 1.80132e-09 0
-2.29823e-09 1.92555e-09 0
-2.29823e-09 2.04977e-09 0
-2.29823e-09 2.174e-09 0
-2.29823e-09 2.29823e-09 0
-2.29823e-09 2.42246e-09 0
-2.29823e-09 2.54669e-09 0
-2.29823e-09 2.67092e-09 0
-2.29823e-09 2.79515e-09 0
-2.29823e-09 2.91938e-09 0
-2.174e-09 -2.91938e-09 0
-2.174e-09 -2.79515e-09 0
-2.174e-09 -2.67092e-09 0
-2.174e-09 -2.54669e-09 0
-2.174e-09 -2.42246e-09 0
-2.174e-09 -2.29823e-09 0
-2.174e-09 -2.174e-09 0
-2.174e-09 -2.04977e-09 0
-2.174e-09 -1.92555e-09 0
-2.174e-09 -1.80132e-09 0
-2.174e-09 -1.67709e-09 0
-2.174e-09 -1.55286e-09 0
-2.174e-09 -1.42863e-09 0
-2.174e-09 -1.3044e-09 0
-2.174e-09 -1.18017e-09 0
-2.174e-09 -1.05594e-09 0
-2.174e-09 -9.31715e-10 0
-2.174e-09 -8.07487e-10 0
-2.174e-09 -6.83258e-10 0
-2.174e-09 -5.59029e-10 0
-2.174e-09 -4.34801e-10 0
-2.174e-09 -3.10572e-10 0
-2.174e-09 -1.86343e-10 0
-2.174e-09 -6.21144e-11 0
-2.174e-09 6.21144e-11 0
-2.174e-09 1.86343e-10 0
-2.174e-09 3.10572e-10 0
-2.174e-09 4.34801e-10 0
-2.174e-09 5.59029e-10 0
-2.174e-09 6.83258e-10 0
-2.174e-09 8.07487e-10 0
-2.174e-09 9.31715e-10 0
-2.174e-09 1.05594e-09 0
-2.174e-09 1.18017e-09 0
-2.174e-09 1.3044e-09 0
-2.174e-09 1.42863e-09 0
-2.174e-09 1.55286e-09 0
-2.174e-09 1.67709e-09 0
-2.174e-09 1.80132e-09 0
-2.174e-09 1.92555e-09 0
-2.174e-09 2.04977e-09 0
-2.174e-09 2.174e-09 0
-2.174e-09 2.29823e-09 0
-2.174e-09 2.42246e-09 0
-2.174e-09 2.54669e-09 0
-2.174e-09 2.67092e-09 0
-2.174e-09 2.79515e-09 0
-2.174e-09 2.91938e-09 0
-2.04977e-09 -2.91938e-09 0
-2.04977e-09 -2.79515e-09 0
-2.04977e-09 -2.67092e-09 0
-2.04977e-09 -2.54669e-09 0
-2.04977e-09 -2.42246e-09 0
-2.04977e-09 -2.29823e-09 0
-2.04977e-09 -2.174e-09 0
-2.04977e-09 -2.04977e-09 0
-2.04977e-09 -1.92555e-09 0
-2.04977e-09 -1.80132e-09 0
-2.04977e-09 -1.67709e-09 0
-2.04977e-09 -1.55286e-09 0
-2.04977e-09 -1.42863e-09 0
-2.04977e-09 -1.3044e-09 0
-2.04977e-09 -1.18017e-09 0
-2.04977e-09 -1.05594e-09 0
-2.04977e-09 -9.31715e-10 0
-2.04977e-09 -8.07487e-10 0
-2.04977e-09 -6.83258e-10 0
-2.04977e-09 -5.59029e-10 0
-2.04977e-09 -4.34801e-10 0
-2.04977e-09 -3.10572e-10 0
-2.04977e-09 -1.86343e-10 0
-2.04977e-09 -6.21144e-11 0
-2.04977e-09 6.21144e-11 0
-2.04977e-09 1.86343e-10 0
-2.04977e-09 3.10572e-10 0
-2.04977e-09 4.34801e-10 0
-2.04977e-09 5.59029e-10 0
-2.04977e-09 6.83258e-10 0
-2.04977e-09 8.07487e-10 0
-2.04977e-09 9.31715e-10 0
-2.04977e-09 1.05594e-09 0
-2.04977e-09 1.18017e-09 0
-2.04977e-09 1.3044e-09 0
-2.04977e-09 1.42863e-09 0
-2.04977e-09 1.55286e-09 0
-2.04977e-09 1.67709e-09 0
-2.04977e-09 1.80132e-09 0
-2.04977e-09 1.92555e-09 0
-2.04977e-09 2.04977e-09 0
-2.04977e-09 2.174e-09 0
-2.04977e-09 2.29823e-09 0
-2.04977e-09 2.42246e-09 0
-2.04977e-09 2.54669e-09 0
-2.04977e-09 2.67092e-09 0
-2.04977e-09 2.79515e-09 0
-2.04977e-09 2.91938e-09 0
-1.92555e-09 -2.91938e-09 0
-1.92555e-09 -2.79515e-09 0
-1.92555e-09 -2.67092e-09 0
-1.92555e-09 -2.54669e-09 0
-1.92555e-09 -2.42246e-09 0
-1.92555e-09 -2.29823e-09 0
-1.92555e-09 -2.174e-09 0
-1.92555e-09 -2.04977e-09 0
-1.92555e-09 -1.92555e-09 0
-1.92555e-09 -1.80132e-09 0
-1.92555e-09 -1.67709e-09 0
-1.92555e-09 -1.55286e-09 0
-1.92555e-09 -1.42863e-09 0
-1.92555e-09 -1.3044e-09 0
-1.92555e-09 -1.18017e-09 0
-1.92555e-09 -1.05594e-09 0
-1.92555e-09 -9.31715e-10 0
-1.92555e-09 -8.07487e-10 0
-1.92555e-09 -6.83258e-10 0
-1.92555e-09 -5.59029e-10 0
-1.92555e-09 -4.34801e-10 0
-1.92555e-09 -3.10572e-10 0
-1.92555e-09 -1.86343e-10 0
-1.92555e-09 -6.21144e-11 0
-1.92555e-09 6.21144e-11 0
-1.92555e-09 1.86343e-10 0
-1.92555e-09 3.10572e-10 0
-1.92555e-09 4.34801e-10 0
-1.92555e-09 5.59029e-10 0
-1.92555e-09 6.83258e-10 0
-1.92555e-09 8.07487e-10 0
-1.92555e-09 9.31715e-10 0
-1.92555e-09 1.05594e-09 0
-1.92555e-09 1.18017e-09 0
-1.92555e-09 1.3044e-09 0
-1.92555e-09 1.42863e-09 0
-1.92555e-09 1.55286e-09 0
-1.92555e-09 1.67709e-09 0
-1.92555e-09 1.80132e-09 0
-1.92555e-09 1.92555e-09 0
-1.92555e-09 2.04977e-09 0
-1.92555e-09 2.174e-09 0
-1.92555e-09 2.29823e-09 0
-1.92555e-09 2.42246e-09 0
-1.92555e-09 2.54669e-09 0
-1.92555e-09 2.67092e-09 0
-1.92555e-09 2.79515e-09 0
-1.92555e-09 2.91938e-09 0
-1.80132e-09 -2.91938e-09 0
-1.80132e-09 -2.79515e-09 0
-1.80132e-09 -2.67092e-09 0
-1.80132e-09 -2.54669e-09 0
-1.80132e-09 -2.42246e-09 0
-1.80132e-09 -2.29823e-09 0
-1.80132e-09 -2.174e-09 0
-1.80132e-09 -2.04977e-09 0
-1.80132e-09 -1.92555e-09 0
-1.80132e-09 -1.80132e-09 0
-1.80132e-09 -1.67709e-09 0
-1.80132e-09 -1.55286e-09 0
-1.80132e-09 -1.42863e-09 0
-1.80132e-09 -1.3044e-09 0
-1.80132e-09 -1.18017e-09 0
-1.80132e-09 -1.05594e-09 0
-1.80132e-09 -9.31715e-10 0
-1.80132e-09 -8.07487e-10 0
-1.80132e-09 -6.83258e-10 0
-1.80132e-09 -5.59029e-10 0
-1.80132e-09 -4.34801e-10 0
-1.80132e-09 -3.10572e-10 0
-1.80132e-09 -1.86343e-10 0
-1.80132e-09 -6.21144e-11 0
-1.80132e-09 6.21144e-11 0
-1.80132e-09 1.86343e-10 0
-1.80132e-09 3.10572e-10 0
-1.80132e-09 4.34801e-10 0
-1.80132e-09 5.59029e-10 0
-1.80132e-09 6.83258e-10 0
-1.80132e-09 8.07487e-10 0
-1.80132e-09 9.31715e-10 0
-1.80132e-09 1.05594e-09 0
-1.80132e-09 1.18017e-09 0
-1.80132e-09 1.3044e-09 0
-1.80132e-09 1.42863e-09 0
-1.80132e-09 1.55286e-09 0
-1.80132e-09 1.67709e-09 0
-1.80132e-09 1.80132e-09 0
-1.80132e-09 1.92555e-09 0
-1.80132e-09 2.04977e-09 0
-1.80132e-09 2.174e-09 0
-1.80132e-09 2.29823e-09 0
-1.80132e-09 2.42246e-09 0
-1.80132e-09 2.54669e-09 0
-1.80132e-09 2.67092e-09 0
-1.80132e-09 2.79515e-09 0
-1.80132e-09 2.91938e-09 0
-1.67709e-09 -2.91938e-09 0
-1.67709e-09 -2.79515e-09 0
-1.67709e-09 -2.67092e-09 0
-1.67709e-09 -2.54669e-09 0
-1.67709e-09 -2.42246e-09 0
-1.67709e-09 -2.29823e-09 0
-1.67709e-09 -2.174e-09 0
-1.67709e-09 -2.04977e-09 0
-1.67709e-09 -1.92555e-09 0
-1.67709e-09 -1.80132e-09 0
-1.67709e-09 -1.67709e-09 0
-1.67709e-09 -1.55286e-09 0
-1.67709e-09 -1.42863e-09 0
-1.67709e-09 -1.3044e-09 0
-1.67709e-09 -1.18017e-09 0
-1.67709e-09 -1.05594e-09 0
-1.67709e-09 -9.31715e-10 0
-1.67709e-09 -8.07487e-10 0
-1.67709e-09 -6.83258e-10 0
-1.67709e-09 -5.59029e-10 0
-1.67709e-09 -4.34801e-10 0
-1.67709e-09 -3.10572e-10 0
-1.67709e-09 -1.86343e-10 0
-1.67709e-09 -6.21144e-11 0
-1.67709e-09 6.21144e-11 0
-1.67709e-09 1.86343e-10 0
-1.67709e-09 3.10572e-10 0
-1.67709e-09 4.34801e-10 0
-1.67709e-09 5.59029e-10 0
-1.67709e-09 6.83258e-10 0
-1.67709e-09 8.07487e-10 0
-1.67709e-09 9.31715e-10 0
-1.67709e-09 1.05594e-09 0
-1.67709e-09 1.18017e-09 0
-1.67709e-09 1.3044e-09 0
-1.67709e-09 1.42863e-09 0
-1.67709e-09 1.55286e-09 0
-1.67709e-09 1.67709e-09 0
-1.67709e-09 1.80132e-09 0
-1.67709e-09 1.92555e-09 0
-1.67709e-09 2.04977e-09 0
-1.67709e-09 2.174e-09 0
-1.67709e-09 2.29823e-09 0
-1.67709e-09 2.42246e-09 0
-1.67709e-09 2.54669e-09 0
-1.67709e-09 2.67092e-09 0
-1.67709e-09 2.79515e-09 0
-1.67709e-09 2.91938e-09 0
-1.55286e-09 -2.91938e-09 0
-1.55286e-09 -2.79515e-09 0
-1.55286e-09 -2.67092e-09 0
-1.55286e-09 -2.54669e-09 0
-1.55286e-09 -2.42246e-09 0
-1.55286e-09 -2.29823e-09 0
-1.55286e-09 -2.174e-09 0
-1.55286e-09 -2.04977e-09 0
-1.55286e-09 -1.92555e-09 0
-1.55286e-09 -1.80132e-09 0
-1.55286e-09 -1.67709e-09 0
-1.55286e-09 -1.55286e-09 0
-1.55286e-09 -1.42863e-09 0
-1.55286e-09 -1.3044e-09 0
-1.55286e-09 -1.18017e-09 0
-1.55286e-09 -1.05594e-09 0
-1.55286e-09 -9.31715e-10 0
-1.55286e-09 -8.07487e-10 0
-1.55286e-09 -6.83258e-10 0
-1.55286e-09 -5.59029e-10 0
-1.55286e-09 -4.34801e-10 0
-1.55286e-09 -3.10572e-10 0
-1.55286e-09 -1.86343e-10 0
-1.55286e-09 -6.21144e-11 0
-1.55286e-09 6.21144e-11 0
-1.55286e-09 1.86343e-10 0
-1.55286e-09 3.10572e-10 0
-1.55286e-09 4.34801e-10 0
-1.55286e-09 5.59029e-10 0
-1.55286e-09 6.83258e-10 0
-1.55286e-09 8.07487e-10 0
-1.55286e-09 9.31715e-10 0
-1.55286e-09 1.05594e-09 0
-1.55286e-09 1.18017e-09 0
-1.55286e-09 1.3044e-09 0
-1.55286e-09 1.42863e-09 0
-1.55286e-09 1.55286e-09 0
-1.55286e-09 1.67709e-09 0
-1.55286e-09 1.80132e-09 0
-1.55286e-09 1.92555e-09 0
-1.55286e-09 2.04977e-09 0
-1.55286e-09 2.174e-09 0
-1.55286e-09 2.29823e-09 0
-1.55286e-09 2.42246e-09 0
-1.55286e-09 2.54669e-09 0
-1.55286e-09 2.67092e-09 0
-1.55286e-09 2.79515e-09 0
-1.55286e-09 2.91938e-09 0
-1.42863e-09 -2.91938e-09 0
-1.42863e-09 -2.79515e-09 0
-1.42863e-09 -2.67092e-09 0
-1.42863e-09 -2.54669e-09 0
-1.42863e-09 -2.42246e-09 0
-1.42863e-09 -2.29823e-09 0
-1.42863e-09 -2.174e-09 0
-1.42863e-09 -2.04977e-09 0
-1.42863e-09 -1.92555e-09 0
-1.42863e-09 -1.80132e-09 0
-1.42863e-09 -1.67709e-09 0
-1.42863e-09 -1.55286e-09 0
-1.42863e-09 -1.42863e-09 0
-1.42863e-09 -1.3044e-09 0
-1.42863e-09 -1.18017e-09 0
-1.42863e-09 -1.05594e-09 0
-1.42863e-09 -9.31715e-10 0
-1.42863e-09 -8.07487e-10 0
-1.42863e-09 -6.83258e-10 0
-1.42863e-09 -5.59029e-10 0
-1.42863e-09 -4.34801e-10 0
-1.42863e-09 -3.10572e-10 0
-1.42863e-09 -1.86343e-10 0
-1.42863e-09 -6.21144e-11 0
-1.42863e-09 6.21144e-11 0
-1.42863e-09 1.86343e-10 0
-1.42863e-09 3.10572e-10 0
-1.42863e-09 4.34801e-10 0
-1.42863e-09 5.59029e-10 0
-1.42863e-09 6.83258e-10 0
-1.42863e-09 8.07487e-10 0
-1.42863e-09 9.31715e-10 0
-1.42863e-09 1.05594e-09 0
-1.42863e-09 1.18017e-09 0
-1.42863e-09 1.3044e-09 0
-1.42863e-09 1.42863e-09 0
-1.42863e-09 1.55286e-09 0
-1.42863e-09 1.67709e-09 0
-1.42863e-09 1.80132e-09 0
-1.42863e-09 1.92555e-09 0
-1.42863e-09 2.04977e-09 0
-1.42863e-09 2.174e-09 0
-1.42863e-09 2.29823e-09 0
-1.42863e-09 2.42246e-09 0
-1.42863e-09 2.54669e-09 0
-1.42863e-09 2.67092e-09 0
-1.42863e-09 2.79515e-09 0
-1.42863e-09 2.91938e-09 0
-1.3044e-09 -2.91938e-09 0
-1.3044e-09 -2.79515e-09 0
-1.3044e-09 -2.67092e-09 0
-1.3044e-09 -2.54669e-09 0
-1.3044e-09 -2.42246e-09 0
-1.3044e-09 -2.29823e-09 0
-1.3044e-09 -2.174e-09 0
-1.3044e-09 -2.04977e-09 0
-1.3044e-09 -1.92555e-09 0
-1.3044e-09 -1.80132e-09 0
-1.3044e-09 -1.67709e-09 0
-1.3044e-09 -1.55286e-09 0
-1.3044e-09 -1.42863e-09 0
-1.3044e-09 -1.3044e-09 0
-1.3044e-09 -1.18017e-09 0
-1.3044e-09 -1.05594e-09 0
-1.3044e-09 -9.31715e-10 0
-1.3044e-09 -8.07487e-10 0
-1.3044e-09 -6.83258e-10 0
-1.3044e-09 -5.59029e-10 0
-1.3044e-09 -4.34801e-10 0
-1.3044e-09 -3.10572e-10 0
-1.3044e-09 -1.86343e-10 0
-1.3044e-09 -6.21144e-11 0
-1.3044e-09 6.21144e-11 0
-1.3044e-09 1.86343e-10 0
-1.3044e-09 3.10572e-10 0
-1.3044e-09 4.34801e-10 0
-1.3044e-09 5.59029e-10 0
-1.3044e-09 6.83258e-10 0
-1.3044e-09 8.07487e-10 0
-1.3044e-09 9.31715e-10 0
-1.3044e-09 1.05594e-09 0
-1.3044e-09 1.18017e-09 0
-1.3044e-09 1.3044e-09 0
-1.3044e-09 1.42863e-09 0
-1.3044e-09 1.55286e-09 0
-1.3044e-09 1.67709e-09 0
-1.3044e-09 1.80132e-09 0
-1.3044e-09 1.92555e-09 0
-1.3044e-09 2.04977e-09 0
-1.3044e-09 2.174e-09 0
-1.3044e-09 2.29823e-09 0
-1.3044e-09 2.42246e-09 0
-1.3044e-09 2.54669e-09 0
-1.3044e-09 2.67092e-09 0
-1.3044e-09 2.79515e-09 0
-1.3044e-09 2.91938e-09 0
-1.18017e-09 -2.91938e-09 0
-1.18017e-09 -2.79515e-09 0
-1.18017e-09 -2.67092e-09 0
-1.18017e-09 -2.54669e-09 0
-1.18017e-09 -2.42246e-09 0
-1.18017e-09 -2.29823e-09 0
-1.18017e-09 -2.174e-09 0
-1.18017e-09 -2.04977e-09 0
-1.18017e-09 -1.92555e-09 0
-1.18017e-09 -1.80132e-09 0
-1.18017e-09 -1.67709e-09 0
-1.18017e-09 -1.55286e-09 0
-1.18017e-09 -1.42863e-09 0
-1.18017e-09 -1.3044e-09 0
-1.18017e-09 -1.18017e-09 0
-1.18017e-09 -1.05594e-09 0
-1.18017e-09 -9.31715e-10 0
-1.18017e-09 -8.07487e-10 0
-1.18017e-09 -6.83258e-10 0
-1.18017e-09 -5.59029e-10 0
-1.18017e-09 -4.34801e-10 0
-1.18017e-09 -3.10572e-10 0
-1.18017e-09 -1.86343e-10 0
-1.18017e-09 -6.21144e-11 0
-1.18017e-09 6.21144e-11 0
-1.18017e-09 1.86343e-10 0
-1.18017e-09 3.10572e-10 0
-1.18017e-09 4.34801e-10 0
-1.18017e-09 5.59029e-10 0
-1.18017e-09 6.83258e-10 0
-1.18017e-09 8.07487e-10 0
-1.18017e-09 9.31715e-10 0
-1.18017e-09 1.05594e-09 0
-1.18017e-09 1.18017e-09 0
-1.18017e-09 1.3044e-09 0
-1.18017e-09 1.42863e-09 0
-1.18017e-09 1.55286e-09 0
-1.18017e-09 1.67709e-09 0
-1.18017e-09 1.80132e-09 0
-1.18017e-09 1.92555e-09 0
-1.18017e-09 2.04977e-09 0
-1.18017e-09 2.174e-09 0
-1.18017e-09 2.29823e-09 0
-1.18017e-09 2.42246e-09 0
-1.18017e-09 2.54669e-09 0
-1.18017e-09 2.67092e-09 0
-1.18017e-09 2.79515e-09 0
-1.18017e-09 2.91938e-09 0
-1.05594e-09 -2.91938e-09 0
-1.05594e-09 -2.79515e-09 0
-1.05594e-09 -2.67092e-09 0
-1.05594e-09 -2.54669e-09 0
-1.05594e-09 -2.42246e-09 0
-1.05594e-09 -2.29823e-09 0
-1.05594e-09 -2.174e-09 0
-1.05594e-09 -2.04977e-09 0
-1.05594e-09 -1.92555e-09 0
-1.05594e-09 -1.80132e-09 0
-1.05594e-09 -1.67709e-09 0
-1.05594e-09 -1.55286e-09 0
-1.05594e-09 -1.42863e-09 0
-1.05594e-09 -1.3044e-09 0
-1.05594e-09 -1.18017e-09 0
-1.05594e-09 -1.05594e-09 0
-1.05594e-09 -9.31715e-10 0
-1.05594e-09 -8.07487e-10 0
-1.05594e-09 -6.83258e-10 0
-1.05594e-09 -5.59029e-10 0
-1.05594e-09 -4.34801e-10 0
-1.05594e-09 -3.10572e-10 0
-1.05594e-09 -1.86343e-10 0
-1.05594e-09 -6.21144e-11 0
-1.05594e-09 6.21144e-11 0
-1.05594e-09 1.86343e-10 0
-1.05594e-09 3.10572e-10 0
-1.05594e-09 4.34801e-10 0
-1.05594e-09 5.59029e-10 0
-1.05594e-09 6.83258e-10 0
-1.05594e-09 8.07487e-10 0
-1.05594e-09 9.31715e-10 0
-1.05594e-09 1.05594e-09 0
-1.05594e-09 1.18017e-09 0
-1.05594e-09 1.3044e-09 0
-1.05594e-09 1.42863e-09 0
-1.05594e-09 1.55286e-09 0
-1.05594e-09 1.67709e-09 0
-1.05594e-09 1.80132e-09 0
-1.05594e-09 1.92555e-09 0
-1.05594e-09 2.04977e-09 0
-1.05594e-09 2.174e-09 0
-1.05594e-09 2.29823e-09 0
-1.05594e-09 2.42246e-09 0
-1.05594e-09 2.54669e-09 0
-1.05594e-09 2.67092e-09 0
-1.05594e-09 2.79515e-09 0
-1.05594e-09 2.91938e-09 0
-9.31715e-10 -2.91938e-09 0
-9.31715e-10 -2.79515e-09 0
-9.31715e-10 -2.67092e-09 0
-9.31715e-10 -2.54669e-09 0
-9.31715e-10 -2.42246e-09 0
-9.31715e-10 -2.29823e-09 0
-9.31715e-10 -2.174e-09 0
-9.31715e-10 -2.04977e-09 0
-9.31715e-10 -1.92555e-09 0
-9.31715e-10 -1.80132e-09 0
-9.31715e-10 -1.67709e-09 0
-9.31715e-10 -1.55286e-09 0
-9.31715e-10 -1.42863e-09 0
-9.31715e-10 -1.3044e-09 0
-9.31715e-10 -1.18017e-09 0
-9.31715e-10 -1.05594e-09 0
-9.31715e-10 -9.31715e-10 0
-9.31715e-10 -8.07487e-10 0
-9.31715e-10 -6.83258e-10 0
-9.31715e-10 -5.59029e-10 0
-9.31715e-10 -4.34801e-10 0
-9.31715e-10 -3.10572e-10 0
-9.31715e-10 -1.86343e-10 0
-9.31715e-10 -6.21144e-11 0
-9.31715e-10 6.21144e-11 0
-9.31715e-10 1.86343e-10 0
-9.31715e-10 3.10572e-10 0
-9.31715e-10 4.34801e-10 0
-9.31715e-10 5.59029e-10 0
-9.31715e-10 6.83258e-10 0
-9.31715e-10 8.07487e-10 0
-9.31715e-10 9.31715e-10 0
-9.31715e-10 1.05594e-09 0
-9.31715e-10 1.18017e-09 0
-9.31715e-10 1.3044e-09 0
-9.31715e-10 1.42863e-09 0
-9.31715e-10 1.55286e-09 0
-9.31715e-10 1.67709e-09 0
-9.31715e-10 1.80132e-09 0
-9.31715e-10 1.92555e-09 0
-9.31715e-10 2.04977e-09 0
-9.31715e-10 2.174e-09 0
-9.31715e-10 2.29823e-09 0
-9.31715e-10 2.42246e-09 0
-9.31715e-10 2.54669e-09 0
-9.31715e-10 2.67092e-09 0
-9.31715e-10 2.79515e-09 0
-9.31715e-10 2.91938e-09 0
-8.07487e-10 -2.91938e-09 0
-8.07487e-10 -2.79515e-09 0
-8.07487e-10 -2.67092e-09 0
-8.07487e-10 -2.54669e-09 0
-8.07487e-10 -2.42246e-09 0
-8.07487e-10 -2.29823e-09 0
-8.07487e-10 -2.174e-09 0
-8.07487e-10 -2.04977e-09 0
-8.07487e-10 -1.92555e-09 0
-8.07487e-10 -1.80132e-09 0
-8.07487e-10 -1.67709e-09 0
-8.07487e-10 -1.55286e-09 0
-8.07487e-10 -1.42863e-09 0
-8.07487e-10 -1.3044e-09 0
-8.07487e-10 -1.18017e-09 0
-8.07487e-10 -1.05594e-09 0
-8.07487e-10 -9.31715e-10 0
-8.07487e-10 -8.07487e-10 0
-8.07487e-10 -6.83258e-10 0
-8.07487e-10 -5.59029e-10 0
-8.07487e-10 -4.34801e-10 0
-8.07487e-10 -3.10572e-10 0
-8.07487e-10 -1.86343e-10 0
-8.07487e-10 -6.21144e-11 0
-8.07487e-10 6.21144e-11 0
-8.07487e-10 1.86343e-10 0
-8.07487e-10 3.10572e-10 0
-8.07487e-10 4.34801e-10 0
-8.07487e-10 5.59029e-10 0
-8.07487e-10 6.83258e-10 0
-8.07487e-10 8.07487e-10 0
-8.07487e-10 9.31715e-10 0
-8.07487e-10 1.05594e-09 0
-8.07487e-10 1.18017e-09 0
-8.07487e-10 1.3044e-09 0
-8.07487e-10 1.42863e-09 0
-8.07487e-10 1.55286e-09 0
-8.07487e-10 1.67709e-09 0
-8.07487e-10 1.80132e-09 0
-8.07487e-10 1.92555e-09 0
-8.07487e-10 2.04977e-09 0
-8.07487e-10 2.174e-09 0
-8.07487e-10 2.29823e-09 0
-8.07487e-10 2.42246e-09 0
-8.07487e-10 2.54669e-09 0
-8.07487e-10 2.67092e-09 0
-8.07487e-10 2.79515e-09 0
-8.07487e-10 2.91938e-09 0
-6.83258e-10 -2.91938e-09 0
-6.83258e-10 -2.79515e-09 0
-6.83258e-10 -2.67092e-09 0
-6.83258e-10 -2.54669e-09 0
-6.83258e-10 -2.42246e-09 0
-6.83258e-10 -2.29823e-09 0
-6.83258e-10 -2.174e-09 0
-6.83258e-10 -2.04977e-09 0
-6.83258e-10 -1.92555e-09 0
-6.83258e-10 -1.80132e-09 0
-6.83258e-10 -1.67709e-09 0
-6.83258e-10 -1.55286e-09 0
-6.83258e-10 -1.42863e-09 0
-6.83258e-10 -1.3044e-09 0
-6.83258e-10 -1.18017e-09 0
-6.83258e-10 -1.05594e-09 0
-6.83258e-10 -9.31715e-10 0
-6.83258e-10 -8.07487e-10 0
-6.83258e-10 -6.83258e-10 0
-6.83258e-10 -5.59029e-10 0
-6.83258e-10 -4.34801e-10 0
-6.83258e-10 -3.10572e-10 0
-6.83258e-10 -1.86343e-10 0
-6.83258e-10 -6.21144e-11 0
-6.83258e-10 6.21144e-11 0
-6.83258e-10 1.86343e-10 0
-6.83258e-10 3.10572e-10 0
-6.83258e-10 4.34801e-10 0
-6.83258e-10 5.59029e-10 0
-6.83258e-10 6.83258e-10 0
-6.83258e-10 8.07487e-10 0
-6.83258e-10 9.31715e-10 0
-6.83258e-10 1.05594e-09 0
-6.83258e-10 1.18017e-09 0
-6.83258e-10 1.3044e-09 0
-6.83258e-10 1.42863e-09 0
-6.83258e-10 1.55286e-09 0
-6.83258e-10 1.67709e-09 0
-6.83258e-10 1.80132e-09 0
-6.83258e-10 1.92555e-09 0
-6.83258e-10 2.04977e-09 0
-6.83258e-10 2.174e-09 0
-6.83258e-10 2.29823e-09 0
-6.83258e-10 2.42246e-09 0
-6.83258e-10 2.54669e-09 0
-6.83258e-10 2.67092e-09 0
-6.83258e-10 2.79515e-09 0
-6.83258e-10 2.91938e-09 0
-5.59029e-10 -2.91938e-09 0
-5.59029e-10 -2.79515e-09 0
-5.59029e-10 -2.67092e-09 0
-5.59029e-10 -2.54669e-09 0
-5.59029e-10 -2.42246e-09 0
-5.59029e-10 -2.29823e-09 0
-5.59029e-10 -2.174e-09 0
-5.59029e-10 -2.04977e-09 0
-5.59029e-10 -1.92555e-09 0
-5.59029e-10 -1.80132e-09 0
-5.59029e-10 -1.67709e-09 0
-5.59029e-10 -1.55286e-09 0
-5.59029e-10 -1.42863e-09 0
-5.59029e-10 -1.3044e-09 0
-5.59029e-10 -1.18017e-09 0
-5.59029e-10 -1.05594e-09 0
-5.59029e-10 -9.31715e-10 0
-5.59029e-10 -8.07487e-10 0
-5.59029e-10 -6.83258e-10 0
-5.59029e-10 -5.59029e-10 0
-5.59029e-10 -4.34801e-10 0
-5.59029e-10 -3.10572e-10 0
-5.59029e-10 -1.86343e-10 0
-5.59029e-10 -6.21144e-11 0
-5.59029e-10 6.21144e-11 0
-5.59029e-10 1.86343e-10 0
-5.59029e-10 3.10572e-10 0
-5.59029e-10 4.34801e-10 0
-5.59029e-10 5.59029e-10 0
-5.59029e-10 6.83258e-10 0
-5.59029e-10 8.07487e-10 0
-5.59029e-10 9.31715e-10 0
-5.59029e-10 1.05594e-09 0
-5.59029e-10 1.18017e-09 0
-5.59029e-10 1.3044e-09 0
-5.59029e-10 1.42863e-09 0
-5.59029e-10 1.55286e-09 0
-5.59029e-10 1.67709e-09 0
-5.59029e-10 1.80132e-09 0
-5.59029e-10 1.92555e-09 0
-5.59029e-10 2.04977e-09 0
-5.59029e-10 2.174e-09 0
-5.59029e-10 2.29823e-09 0
-5.59029e-10 2.42246e-09 0
-5.59029e-10 2.54669e-09 0
-5.59029e-10 2.67092e-09 0
-5.59029e-10 2.79515e-09 0
-5.59029e-10 2.91938e-09 0
-4.34801e-10 -2.91938e-09 0
-4.34801e-10 -2.79515e-09 0
-4.34801e-10 -2.67092e-09 0
-4.34801e-10 -2.54669e-09 0
-4.34801e-10 -2.42246e-09 0
-4.34801e-10 -2.29823e-09 0
-4.34801e-10 -2.174e-09 0
-4.34801e-10 -2.04977e-09 0
-4.34801e-10 -1.92555e-09 0
-4.34801e-10 -1.80132e-09 0
-4.34801e-10 -1.67709e-09 0
-4.34801e-10 -1.55286e-09 0
-4.34801e-10 -1.42863e-09 0
-4.34801e-10 -1.3044e-09 0
-4.34801e-10 -1.18017e-09 0
-4.34801e-10 -1.05594e-09 0
-4.34801e-10 -9.31715e-10 0
-4.34801e-10 -8.07487e-10 0
-4.34801e-10 -6.83258e-10 0
-4.34801e-10 -5.59029e-10 0
-4.34801e-10 -4.34801e-10 0
-4.34801e-10 -3.10572e-10 0
-4.34801e-10 -1.86343e-10 0
-4.34801e-10 -6.21144e-11 0
-4.34801e-10 6.21144e-11 0
-4.34801e-10 1.86343e-10 0
-4.34801e-10 3.10572e-10 0
-4.34801e-10 4.34801e-10 0
-4.34801e-10 5.59029e-10 0
-4.34801e-10 6.83258e-10 0
-4.34801e-10 8.07487e-10 0
-4.34801e-10 9.31715e-10 0
-4.34801e-10 1.05594e-09 0
-4.34801e-10 1.18017e-09 0
-4.34801e-10 1.3044e-09 0
-4.34801e-10 1.42863e-09 0
-4.34801e-10 1.55286e-09 0
-4.34801e-10 1.67709e-09 0
-4.34801e-10 1.80132e-09 0
-4.34801e-10 1.92555e-09 0
-4.34801e-10 2.04977e-09 0
-4.34801e-10 2.174e-09 0
-4.34801e-10 2.29823e-09 0
-4.34801e-10 2.42246e-09 0
-4.34801e-10 2.54669e-09 0
-4.34801e-10 2.67092e-09 0
-4.34801e-10 2.79515e-09 0
-4.34801e-10 2.91938e-09 0
-3.10572e-10 -2.91938e-09 0
-3.10572e-10 -2.79515e-09 0
-3.10572e-10 -2.67092e-09 0
-3.10572e-10 -2.54669e-09 0
-3.10572e-10 -2.42246e-09 0
-3.10572e-10 -2.29823e-09 0
-3.10572e-10 -2.174e-09 0
-3.10572e-10 -2.04977e-09 0
-3.10572e-10 -1.92555e-09 0
-3.10572e-10 -1.80132e-09 0
-3.10572e-10 -1.67709e-09 0
-3.10572e-10 -1.55286e-09 0
-3.10572e-10 -1.42863e-09 0
-3.10572e-10 -1.3044e-09 0
-3.10572e-10 -1.18017e-09 0
-3.10572e-10 -1.05594e-09 0
-3.10572e-10 -9.31715e-10 0
-3.10572e-10 -8.07487e-10 0
-3.10572e-10 -6.83258e-10 0
-3.10572e-10 -5.59029e-10 0
-3.10572e-10 -4.34801e-10 0
-3.10572e-10 -3.10572e-10 0
-3.10572e-10 -1.86343e-10 0
-3.10572e-10 -6.21144e-11 0
-3.10572e-10 6.21144e-11 0
-3.10572e-10 1.86343e-10 0
-3.10572e-10 3.10572e-10 0
-3.10572e-10 4.34801e-10 0
-3.10572e-10 5.59029e-10 0
-3.10572e-10 6.83258e-10 0
-3.10572e-10 8.07487e-10 0
-3.10572e-10 9.31715e-10 0
-3.10572e-10 1.05594e-09 0
-3.10572e-10 1.18017e-09 0
-3.10572e-10 1.3044e-09 0
-3.10572e-10 1.42863e-09 0
-3.10572e-10 1.55286e-09 0
-3.10572e-10 1.67709e-09 0
-3.10572e-10 1.80132e-09 0
-3.10572e-10 1.92555e-09 0
-3.10572e-10 2.04977e-09 0
-3.10572e-10 2.174e-09 0
-3.10572e-10 2.29823e-09 0
-3.10572e-10 2.42246e-09 0
-3.10572e-10 2.54669e-09 0
-3.10572e-10 2.67092e-09 0
-3.10572e-10 2.79515e-09 0
-3.10572e-10 2.91938e-09 0
-1.86343e-10 -2.91938e-09 0
-1.86343e-10 -2.79515e-09 0
-1.86343e-10 -2.67092e-09 0
-1.86343e-10 -2.54669e-09 0
-1.86343e-10 -2.42246e-09 0
-1.86343e-10 -2.29823e-09 0
-1.86343e-10 -2.174e-09 0
-1.86343e-10 -2.04977e-09 0
-1.86343e-10 -1.92555e-09 0
-1.86343e-10 -1.80132e-09 0
-1.86343e-10 -1.67709e-09 0
-1.86343e-10 -1.55286e-09 0
-1.86343e-10 -1.42863e-09 0
-1.86343e-10 -1.3044e-09 0
-1.86343e-10 -1.18017e-09 0
-1.86343e-10 -1.05594e-09 0
-1.86343e-10 -9.31715e-10 0
-1.86343e-10 -8.07487e-10 0
-1.86343e-10 -6.83258e-10 0
-1.86343e-10 -5.59029e-10 0
-1.86343e-10 -4.34801e-10 0
-1.86343e-10 -3.10572e-10 0
-1.86343e-10 -1.86343e-10 0
-1.86343e-10 -6.21144e-11 0
-1.86343e-10 6.21144e-11 0
-1.86343e-10 1.86343e-10 0
-1.86343e-10 3.10572e-10 0
-1.86343e-10 4.34801e-10 0
-1.86343e-10 5.59029e-10 0
-1.86343e-10 6.83258e-10 0
-1.86343e-10 8.07487e-10 0
-1.86343e-10 9.31715e-10 0
-1.86343e-10 1.05594e-09 0
-1.86343e-10 1.18017e-09 0
-1.86343e-10 1.3044e-09 0
-1.86343e-10 1.42863e-09 0
-1.86343e-10 1.55286e-09 0
-1.86343e-10 1.67709e-09 0
-1.86343e-10 1.80132e-09 0
-1.86343e-10 1.92555e-09 0
-1.86343e-10 2.04977e-09 0
-1.86343e-10 2.174e-09 0
-1.86343e-10 2.29823e-09 0
-1.86343e-10 2.42246e-09 0
-1.86343e-10 2.54669e-09 0
-1.86343e-10 2.67092e-09 0
-1.86343e-10 2.79515e-09 0
-1.86343e-10 2.91938e-09 0
-6.21144e-11 -2.91938e-09 0
-6.21144e-11 -2.79515e-09 0
-6.21144e-11 -2.67092e-09 0
-6.21144e-11 -2.54669e-09 0
-6.21144e-11 -2.42246e-09 0
-6.21144e-11 -2.29823e-09 0
-6.21144e-11 -2.174e-09 0
-6.21144e-11 -2.04977e-09 0
-6.21144e-11 -1.92555e-09 0
-6.21144e-11 -1.80132e-09 0
-6.21144e-11 -1.67709e-09 0
-6.21144e-11 -1.55286e-09 0
-6.21144e-11 -1.42863e-09 0
-6.21144e-11 -1.3044e-09 0
-6.21144e-11 -1.18017e-09 0
-6.21144e-11 -1.05594e-09 0
-6.21144e-11 -9.31715e-10 0
-6.21144e-11 -8.07487e-10 0
-6.21144e-11 -6.83258e-10 0
-6.21144e-11 -5.59029e-10 0
-6.21144e-11 -4.34801e-10 0
-6.21144e-11 -3.10572e-10 0
-6.21144e-11 -1.86343e-10 0
-6.21144e-11 -6.21144e-11 0
-6.21144e-11 6.21144e-11 0
-6.21144e-11 1.86343e-10 0
-6.21144e-11 3.10572e-10 0
-6.21144e-11 4.34801e-10 0
-6.21144e-11 5.59029e-10 0
-6.21144e-11 6.83258e-10 0
-6.21144e-11 8.07487e-10 0
-6.21144e-11 9.31715e-10 0
-6.21144e-11 1.05594e-09 0
-6.21144e-11 1.18017e-09 0
-6.21144e-11 1.3044e-09 0
-6.21144e-11 1.42863e-09 0
-6.21144e-11 1.55286e-09 0
-6.21144e-11 1.67709e-09 0
-6.21144e-11 1.80132e-09 0
-6.21144e-11 1.92555e-09 0
-6.21144e-11 2.04977e-09 0
-6.21144e-11 2.174e-09 0
-6.21144e-11 2.29823e-09 0
-6.21144e-11 2.42246e-09 0
-6.21144e-11 2.54669e-09 0
-6.21144e-11 2.67092e-09 0
-6.21144e-11 2.79515e-09 0
-6.21144e-11 2.91938e-09 0
6.21144e-11 -2.91938e-09 0
6.21144e-11 -2.79515e-09 0
6.21144e-11 -2.67092e-09 0
6.21144e-11 -2.54669e-09 0
6.21144e-11 -2.42246e-09 0
6.21144e-11 -2.29823e-09 0
6.21144e-11 -2.174e-09 0
6.21144e-11 -2.04977e-09 0
6.21144e-11 -1.92555e-09 0
6.21144e-11 -1.80132e-09 0
6.21144e-11 -1.67709e-09 0
6.21144e-11 -1.55286e-09 0
6.21144e-11 -1.42863e-09 0
6.21144e-11 -1.3044e-09 0
6.21144e-11 -1.18017e-09 0
6.21144e-11 -1.05594e-09 0
6.21144e-11 -9.31715e-10 0
6.21144e-11 -8.07487e-10 0
6.21144e-11 -6.83258e-10 0
6.21144e-11 -5.59029e-10 0
6.21144e-11 -4.34801e-10 0
6.21144e-11 -3.10572e-10 0
6.21144e-11 -1.86343e-10 0
6.21144e-11 -6.21144e-11 0
6.21144e-11 6.21144e-11 0
6.21144e-11 1.86343e-10 0
6.21144e-11 3.10572e-10 0
6.21144e-11 4.34801e-10 0
6.21144e-11 5.59029e-10 0
6.21144e-11 6.83258e-10 0
6.21144e-11 8.07487e-10 0
6.21144e-11 9.31715e-10 0
6.21144e-11 1.05594e-09 0
6.21144e-11 1.18017e-09 0
6.21144e-11 1.3044e-09 0
6.21144e-11 1.42863e-09 0
6.21144e-11 1.55286e-09 0
6.21144e-11 1.67709e-09 0
6.21144e-11 1.80132e-09 0
6.21144e-11 1.92555e-09 0
6.21144e-11 2.04977e-09 0
6.21144e-11 2.174e-09 0
6.21144e-11 2.29823e-09 0
6.21144e-11 2.42246e-09 0
6.21144e-11 2.54669e-09 0
6.21144e-11 2.67092e-09 0
6.21144e-11 2.79515e-09 0
6.21144e-11 2.91938e-09 0
1.86343e-10 -2.91938e-09 0
1.86343e-10 -2.79515e-09 0
1.86343e-10 -2.67092e-09 0
1.86343e-10 -2.54669e-09 0
1.86343e-10 -2.42246e-09 0
1.86343e-10 -2.29823e-09 0
1.86343e-10 -2.174e-09 0
1.86343e-10 -2.04977e-09 0
1.86343e-10 -1.92555e-09 0
1.86343e-10 -1.80132e-09 0
1.86343e-10 -1.67709e-09 0
1.86343e-10 -1.55286e-09 0
1.86343e-10 -1.42863e-09 0
1.86343e-10 -1.3044e-09 0
1.86343e-10 -1.18017e-09 0
1.86343e-10 -1.05594e-09 0
1.86343e-10 -9.31715e-10 0
1.86343e-10 -8.07487e-10 0
1.86343e-10 -6.83258e-10 0
1.86343e-10 -5.59029e-10 0
1.86343e-10 -4.34801e-10 0
1.86343e-10 -3.10572e-10 0
1.86343e-10 -1.86343e-10 0
1.86343e-10 -6.21144e-11 0
1.86343e-10 6.21144e-11 0
1.86343e-10 1.86343e-10 0
1.86343e-10 3.10572e-10 0
1.86343e-10 4.34801e-10 0
1.86343e-10 5.59029e-10 0
1.86343e-10 6.83258e-10 0
1.86343e-10 8.07487e-10 0
1.86343e-10 9.31715e-10 0
1.86343e-10 1.05594e-09 0
1.86343e-10 1.18017e-09 0
1.86343e-10 1.3044e-09 0
1.86343e-10 1.42863e-09 0
1.86343e-10 1.55286e-09 0
1.86343e-10 1.67709e-09 0
1.86343e-10 1.80132e-09 0
1.86343e-10 1.92555e-09 0
1.86343e-10 2.04977e-09 0
1.86343e-10 2.174e-09 0
1.86343e-10 2.29823e-09 0
1.86343e-10 2.42246e-09 0
1.86343e-10 2.54669e-09 0
1.86343e-10 2.67092e-09 0
1.86343e-10 2.79515e-09 0
1.86343e-10 2.91938e-09 0
3.10572e-10 -2.91938e-09 0
3.10572e-10 -2.79515e-09 0
3.10572e-10 -2.67092e-09 0
3.10572e-10 -2.54669e-09 0
3.10572e-10 -2.42246e-09 0
3.10572e-10 -2.29823e-09 0
3.10572e-10 -2.174e-09 0
3.10572e-10 -2.04977e-09 0
3.10572e-10 -1.92555e-09 0
3.10572e-10 -1.80132e-09 0
3.10572e-10 -1.67709e-09 0
3.10572e-10 -1.55286e-09 0
3.10572e-10 -1.42863e-09 0
3.10572e-10 -1.3044e-09 0
3.10572e-10 -1.18017e-09 0
3.10572e-10 -1.05594e-09 0
3.10572e-10 -9.31715e-10 0
3.10572e-10 -8.07487e-10 0
3.10572e-10 -6.83258e-10 0
3.10572e-10 -5.59029e-10 0
3.10572e-10 -4.34801e-10 0
3.10572e-10 -3.10572e-10 0
3.10572e-10 -1.86343e-10 0
3.10572e-10 -6.21144e-11 0
3.10572e-10 6.21144e-11 0
3.10572e-10 1.86343e-10 0
3.10572e-10 3.10572e-10 0
3.10572e-10 4.34801e-10 0
3.10572e-10 5.59029e-10 0
3.10572e-10 6.83258e-10 0
3.10572e-10 8.07487e-10 0
3.10572e-10 9.31715e-10 0
3.10572e-10 1.05594e-09 0
3.10572e-10 1.18017e-09 0
3.10572e-10 1.3044e-09 0
3.10572e-10 1.42863e-09 0
3.10572e-10 1.55286e-09 0
3.10572e-10 1.67709e-09 0
3.10572e-10 1.80132e-09 0
3.10572e-10 1.92555e-09 0
3.10572e-10 2.04977e-09 0
3.10572e-10 2.174e-09 0
3.10572e-10 2.29823e-09 0
3.10572e-10 2.42246e-09 0
3.10572e-10 2.54669e-09 0
3.10572e-10 2.67092e-09 0
3.10572e-10 2.79515e-09 0
3.10572e-10 2.91938e-09 0
4.34801e-10 -2.91938e-09 0
4.34801e-10 -2.79515e-09 0
4.34801e-10 -2.67092e-09 0
4.34801e-10 -2.54669e-09 0
4.34801e-10 -2.42246e-09 0
4.34801e-10 -2.29823e-09 0
4.34801e-10 -2.174e-09 0
4.34801e-10 -2.04977e-09 0
4.34801e-10 -1.92555e-09 0
4.34801e-10 -1.80132e-09 0
4.34801e-10 -1.67709e-09 0
4.34801e-10 -1.55286e-09 0
4.34801e-10 -1.42863e-09 0
4.34801e-10 -1.3044e-09 0
4.34801e-10 -1.18017e-09 0
4.34801e-10 -1.05594e-09 0
4.34801e-10 -9.31715e-10 0
4.34801e-10 -8.07487e-10 0
4.34801e-10 -6.83258e-10 0
4.34801e-10 -5.59029e-10 0
4.34801e-10 -4.34801e-10 0
4.34801e-10 -3.10572e-10 0
4.34801e-10 -1.86343e-10 0
4.34801e-10 -6.21144e-11 0
4.34801e-10 6.21144e-11 0
4.34801e-10 1.86343e-10 0
4.34801e-10 3.10572e-10 0
4.34801e-10 4.34801e-10 0
4.34801e-10 5.59029e-10 0
4.34801e-10 6.83258e-10 0
4.34801e-10 8.07487e-10 0
4.34801e-10 9.31715e-10 0
4.34801e-10 1.05594e-09 0
4.34801e-10 1.18017e-09 0
4.34801e-10 1.3044e-09 0
4.34801e-10 1.42863e-09 0
4.34801e-10 1.55286e-09 0
4.34801e-10 1.67709e-09 0
4.34801e-10 1.80132e-09 0
4.34801e-10 1.92555e-09 0
4.34801e-10 2.04977e-09 0
4.34801e-10 2.174e-09 0
4.34801e-10 2.29823e-09 0
4.34801e-10 2.42246e-09 0
4.34801e-10 2.54669e-09 0
4.34801e-10 2.67092e-09 0
4.34801e-10 2.79515e-09 0
4.34801e-10 2.91938e-09 0
5.59029e-10 -2.91938e-09 0
5.59029e-10 -2.79515e-09 0
5.59029e-10 -2.67092e-09 0
5.59029e-10 -2.54669e-09 0
5.59029e-10 -2.42246e-09 0
5.59029e-10 -2.29823e-09 0
5.59029e-10 -2.174e-09 0
5.59029e-10 -2.04977e-09 0
5.59029e-10 -1.92555e-09 0
5.59029e-10 -1.80132e-09 0
5.59029e-10 -1.67709e-09 0
5.59029e-10 -1.55286e-09 0
5.59029e-10 -1.42863e-09 0
5.59029e-10 -1.3044e-09 0
5.59029e-10 -1.18017e-09 0
5.59029e-10 -1.05594e-09 0
5.59029e-10 -9.31715e-10 0
5.59029e-10 -8.07487e-10 0
5.59029e-10 -6.83258e-10 0
5.59029e-10 -5.59029e-10 0
5.59029e-10 -4.34801e-10 0
5.59029e-10 -3.10572e-10 0
5.59029e-10 -1.86343e-10 0
5.59029e-10 -6.21144e-11 0
5.59029e-10 6.21144e-11 0
5.59029e-10 1.86343e-10 0
5.59029e-10 3.10572e-10 0
5.59029e-10 4.34801e-10 0
5.59029e-10 5.59029e-10 0
5.59029e-10 6.83258e-10 0
5.59029e-10 8.07487e-10 0
5.59029e-10 9.31715e-10 0
5.59029e-10 1.05594e-09 0
5.59029e-10 1.18017e-09 0
5.59029e-10 1.3044e-09 0
5.59029e-10 1.42863e-09 0
5.59029e-10 1.55286e-09 0
5.59029e-10 1.67709e-09 0
5.59029e-10 1.80132e-09 0
5.59029e-10 1.92555e-09 0
5.59029e-10 2.04977e-09 0
5.59029e-10 2.174e-09 0
5.59029e-10 2.29823e-09 0
5.59029e-10 2.42246e-09 0
5.59029e-10 2.54669e-09 0
5.59029e-10 2.67092e-09 0
5.59029e-10 2.79515e-09 0
5.59029e-10 2.91938e-09 0
6.83258e-10 -2.91938e-09 0
6.83258e-10 -2.79515e-09 0
6.83258e-10 -2.67092e-09 0
6.83258e-10 -2.54669e-09 0
6.83258e-10 -2.42246e-09 0
6.83258e-10 -2.29823e-09 0
6.83258e-10 -2.174e-09 0
6.83258e-10 -2.04977e-09 0
6.83258e-10 -1.92555e-09 0
6.83258e-10 -1.80132e-09 0
6.83258e-10 -1.67709e-09 0
6.83258e-10 -1.55286e-09 0
6.83258e-10 -1.42863e-09 0
6.83258e-10 -1.3044e-09 0
6.83258e-10 -1.18017e-09 0
6.83258e-10 -1.05594e-09 0
6.83258e-10 -9.31715e-10 0
6.83258e-10 -8.07487e-10 0
6.83258e-10 -6.83258e-10 0
6.83258e-10 -5.59029e-10 0
6.83258e-10 -4.34801e-10 0
6.83258e-10 -3.10572e-10 0
6.83258e-10 -1.86343e-10 0
6.83258e-10 -6.21144e-11 0
6.83258e-10 6.21144e-11 0
6.83258e-10 1.86343e-10 0
6.83258e-10 3.10572e-10 0
6.83258e-10 4.34801e-10 0
6.83258e-10 5.59029e-10 0
6.83258e-10 6.83258e-10 0
6.83258e-10 8.07487e-10 0
6.83258e-10 9.31715e-10 0
6.83258e-10 1.05594e-09 0
6.83258e-10 1.18017e-09 0
6.83258e-10 1.3044e-09 0
6.83258e-10 1.42863e-09 0
6.83258e-10 1.55286e-09 0
6.83258e-10 1.67709e-09 0
6.83258e-10 1.80132e-09 0
6.83258e-10 1.92555e-09 0
6.83258e-10 2.04977e-09 0
6.83258e-10 2.174e-09 0
6.83258e-10 2.29823e-09 0
6.83258e-10 2.42246e-09 0
6.83258e-10 2.54669e-09 0
6.83258e-10 2.67092e-09 0
6.83258e-10 2.79515e-09 0
6.83258e-10 2.91938e-09 0
8.07487e-10 -2.91938e-09 0
8.07487e-10 -2.79515e-09 0
8.07487e-10 -2.67092e-09 0
8.07487e-10 -2.54669e-09 0
8.07487e-10 -2.42246e-09 0
8.07487e-10 -2.29823e-09 0
8.07487e-10 -2.174e-09 0
8.07487e-10 -2.04977e-09 0
8.07487e-10 -1.92555e-09 0
8.07487e-10 -1.80132e-09 0
8.07487e-10 -1.67709e-09 0
8.07487e-10 -1.55286e-09 0
8.07487e-10 -1.42863e-09 0
8.07487e-10 -1.3044e-09 0
8.07487e-10 -1.18017e-09 0
8.07487e-10 -1.05594e-09 0
8.07487e-10 -9.31715e-10 0
8.07487e-10 -8.07487e-10 0
8.07487e-10 -6.83258e-10 0
8.07487e-10 -5.59029e-10 0
8.07487e-10 -4.34801e-10 0
8.07487e-10 -3.10572e-10 0
8.07487e-10 -1.86343e-10 0
8.07487e-10 -6.21144e-11 0
8.07487e-10 6.21144e-11 0
8.07487e-10 1.86343e-10 0
8.07487e-10 3.10572e-10 0
8.07487e-10 4.34801e-10 0
8.07487e-10 5.59029e-10 0
8.07487e-10 6.83258e-10 0
8.07487e-10 8.07487e-10 0
8.07487e-10 9.31715e-10 0
8.07487e-10 1.05594e-09 0
8.07487e-10 1.18017e-09 0
8.07487e-10 1.3044e-09 0
8.07487e-10 1.42863e-09 0
8.07487e-10 1.55286e-09 0
8.07487e-10 1.67709e-09 0
8.07487e-10 1.80132e-09 0
8.07487e-10 1.92555e-09 0
8.07487e-10 2.04977e-09 0
8.07487e-10 2.174e-09 0
8.07487e-10 2.29823e-09 0
8.07487e-10 2.42246e-09 0
8.07487e-10 2.54669e-09 0
8.07487e-10 2.67092e-09 0
8.07487e-10 2.79515e-09 0
8.07487e-10 2.91938e-09 0
9.31715e-10 -2.91938e-09 0
9.31715e-10 -2.79515e-09 0
9.31715e-10 -2.67092e-09 0
9.31715e-10 -2.54669e-09 0
9.31715e-10 -2.42246e-09 0
9.31715e-10 -2.29823e-09 0
9.31715e-10 -2.174e-09 0
9.31715e-10 -2.04977e-09 0
9.31715e-10 -1.92555e-09 0
9.31715e-10 -1.80132e-09 0
9.31715e-10 -1.67709e-09 0
9.31715e-10 -1.55286e-09 0
9.31715e-10 -1.42863e-09 0
9.31715e-10 -1.3044e-09 0
9.31715e-10 -1.18017e-09 0
9.31715e-10 -1.05594e-09 0
9.31715e-10 -9.31715e-10 0
9.31715e-10 -8.07487e-10 0
9.31715e-10 -6.83258e-10 0
9.31715e-10 -5.59029e-10 0
9.31715e-10 -4.34801e-10 0
9.31715e-10 -3.10572e-10 0
9.31715e-10 -1.86343e-10 0
9.31715e-10 -6.21144e-11 0
9.31715e-10 6.21144e-11 0
9.31715e-10 1.86343e-10 0
9.31715e-10 3.10572e-10 0
9.31715e-10 4.34801e-10 0
9.31715e-10 5.59029e-10 0
9.31715e-10 6.83258e-10 0
9.31715e-10 8.07487e-10 0
9.31715e-10 9.31715e-10 0
9.31715e-10 1.05594e-09 0
9.31715e-10 1.18017e-09 0
9.31715e-10 1.3044e-09 0
9.31715e-10 1.42863e-09 0
9.31715e-10 1.55286e-09 0
9.31715e-10 1.67709e-09 0
9.31715e-10 1.80132e-09 0
9.31715e-10 1.92555e-09 0
9.31715e-10 2.04977e-09 0
9.31715e-10 2.174e-09 0
9.31715e-10 2.29823e-09 0
9.31715e-10 2.42246e-09 0
9.31715e-10 2.54669e-09 0
9.31715e-10 2.67092e-09 0
9.31715e-10 2.79515e-09 0
9.31715e-10 2.91938e-09 0
1.05594e-09 -2.91938e-09 0
1.05594e-09 -2.79515e-09 0
1.05594e-09 -2.67092e-09 0
1.05594e-09 -2.54669e-09 0
1.05594e-09 -2.42246e-09 0
1.05594e-09 -2.29823e-09 0
1.05594e-09 -2.174e-09 0
1.05594e-09 -2.04977e-09 0
1.05594e-09 -1.92555e-09 0
1.05594e-09 -1.80132e-09 0
1.05594e-09 -1.67709e-09 0
1.05594e-09 -1.55286e-09 0
1.05594e-09 -1.42863e-09 0
1.05594e-09 -1.3044e-09 0
1.05594e-09 -1.18017e-09 0
1.05594e-09 -1.05594e-09 0
1.05594e-09 -9.31715e-10 0
1.05594e-09 -8.07487e-10 0
1.05594e-09 -6.83258e-10 0
1.05594e-09 -5.59029e-10 0
1.05594e-09 -4.34801e-10 0
1.05594e-09 -3.10572e-10 0
1.05594e-09 -1.86343e-10 0
1.05594e-09 -6.21144e-11 0
1.05594e-09 6.21144e-11 0
1.05594e-09 1.86343e-10 0
1.05594e-09 3.10572e-10 0
1.05594e-09 4.34801e-10 0
1.05594e-09 5.59029e-10 0
1.05594e-09 6.83258e-10 0
1.05594e-09 8.07487e-10 0
1.05594e-09 9.31715e-10 0
1.05594e-09 1.05594e-09 0
1.05594e-09 1.18017e-09 0
1.05594e-09 1.3044e-09 0
1.05594e-09 1.42863e-09 0
1.05594e-09 1.55286e-09 0
1.05594e-09 1.67709e-09 0
1.05594e-09 1.80132e-09 0
1.05594e-09 1.92555e-09 0
1.05594e-09 2.04977e-09 0
1.05594e-09 2.174e-09 0
1.05594e-09 2.29823e-09 0
1.05594e-09 2.42246e-09 0
1.05594e-09 2.54669e-09 0
1.05594e-09 2.67092e-09 0
1.05594e-09 2.79515e-09 0
1.05594e-09 2.91938e-09 0
1.18017e-09 -2.91938e-09 0
1.18017e-09 -2.79515e-09 0
1.18017e-09 -2.67092e-09 0
1.18017e-09 -2.54669e-09 0
1.18017e-09 -2.42246e-09 0
1.18017e-09 -2.29823e-09 0
1.18017e-09 -2.174e-09 0
1.18017e-09 -2.04977e-09 0
1.18017e-09 -1.92555e-09 0
1.18017e-09 -1.80132e-09 0
1.18017e-09 -1.67709e-09 0
1.18017e-09 -1.55286e-09 0
1.18017e-09 -1.42863e-09 0
1.18017e-09 -1.3044e-09 0
1.18017e-09 -1.18017e-09 0
1.18017e-09 -1.05594e-09 0
1.18017e-09 -9.31715e-10 0
1.18017e-09 -8.07487e-10 0
1.18017e-09 -6.83258e-10 0
1.18017e-09 -5.59029e-10 0
1.18017e-09 -4.34801e-10 0
1.18017e-09 -3.10572e-10 0
1.18017e-09 -1.86343e-10 0
1.18017e-09 -6.21144e-11 0
1.18017e-09 6.21144e-11 0
1.18017e-09 1.86343e-10 0
1.18017e-09 3.10572e-10 0
1.18017e-09 4.34801e-10 0
1.18017e-09 5.59029e-10 0
1.18017e-09 6.83258e-10 0
1.18017e-09 8.07487e-10 0
1.18017e-09 9.31715e-10 0
1.18017e-09 1.05594e-09 0
1.18017e-09 1.18017e-09 0
1.18017e-09 1.3044e-09 0
1.18017e-09 1.42863e-09 0
1.18017e-09 1.55286e-09 0
1.18017e-09 1.67709e-09 0
1.18017e-09 1.80132e-09 0
1.18017e-09 1.92555e-09 0
1.18017e-09 2.04977e-09 0
1.18017e-09 2.174e-09 0
1.18017e-09 2.29823e-09 0
1.18017e-09 2.42246e-09 0
1.18017e-09 2.54669e-09 0
1.18017e-09 2.67092e-09 0
1.18017e-09 2.79515e-09 0
1.18017e-09 2.91938e-09 0
1.3044e-09 -2.91938e-09 0
1.3044e-09 -2.79515e-09 0
1.3044e-09 -2.67092e-09 0
1.3044e-09 -2.54669e-09 0
1.3044e-09 -2.42246e-09 0
1.3044e-09 -2.29823e-09 0
1.3044e-09 -2.174e-09 0
1.3044e-09 -2.04977e-09 0
1.3044e-09 -1.92555e-09 0
1.3044e-09 -1.80132e-09 0
1.3044e-09 -1.67709e-09 0
1.3044e-09 -1.55286e-09 0
1.3044e-09 -1.42863e-09 0
1.3044e-09 -1.3044e-09 0
1.3044e-09 -1.18017e-09 0
1.3044e-09 -1.05594e-09 0
1.3044e-09 -9.31715e-10 0
1.3044e-09 -8.07487e-10 0
1.3044e-09 -6.83258e-10 0
1.3044e-09 -5.59029e-10 0
1.3044e-09 -4.34801e-10 0
1.3044e-09 -3.10572e-10 0
1.3044e-09 -1.86343e-10 0
1.3044e-09 -6.21144e-11 0
1.3044e-09 6.21144e-11 0
1.3044e-09 1.86343e-10 0
1.3044e-09 3.10572e-10 0
1.3044e-09 4.34801e-10 0
1.3044e-09 5.59029e-10 0
1.3044e-09 6.83258e-10 0
1.3044e-09 8.07487e-10 0
1.3044e-09 9.31715e-10 0
1.3044e-09 1.05594e-09 0
1.3044e-09 1.18017e-09 0
1.3044e-09 1.3044e-09 0
1.3044e-09 1.42863e-09 0
1.3044e-09 1.55286e-09 0
1.3044e-09 1.67709e-09 0
1.3044e-09 1.80132e-09 0
1.3044e-09 1.92555e-09 0
1.3044e-09 2.04977e-09 0
1.3044e-09 2.174e-09 0
1.3044e-09 2.29823e-09 0
1.3044e-09 2.42246e-09 0
1.3044e-09 2.54669e-09 0
1.3044e-09 2.67092e-09 0
1.3044e-09 2.79515e-09 0
1.3044e-09 2.91938e-09 0
1.42863e-09 -2.91938e-09 0
1.42863e-09 -2.79515e-09 0
1.42863e-09 -2.67092e-09 0
1.42863e-09 -2.54669e-09 0
1.42863e-09 -2.42246e-09 0
1.42863e-09 -2.29823e-09 0
1.42863e-09 -2.174e-09 0
1.42863e-09 -2.04977e-09 0
1.42863e-09 -1.92555e-09 0
1.42863e-09 -1.80132e-09 0
1.42863e-09 -1.67709e-09 0
1.42863e-09 -1.55286e-09 0
1.42863e-09 -1.42863e-09 0
1.42863e-09 -1.3044e-09 0
1.42863e-09 -1.18017e-09 0
1.42863e-09 -1.05594e-09 0
1.42863e-09 -9.31715e-10 0
1.42863e-09 -8.07487e-10 0
1.42863e-09 -6.83258e-10 0
1.42863e-09 -5.59029e-10 0
1.42863e-09 -4.34801e-10 0
1.42863e-09 -3.10572e-10 0
1.42863e-09 -1.86343e-10 0
1.42863e-09 -6.21144e-11 0
1.42863e-09 6.21144e-11 0
1.42863e-09 1.86343e-10 0
1.42863e-09 3.10572e-10 0
1.42863e-09 4.34801e-10 0
1.42863e-09 5.59029e-10 0
1.42863e-09 6.83258e-10 0
1.42863e-09 8.07487e-10 0
1.42863e-09 9.31715e-10 0
1.42863e-09 1.05594e-09 0
1.42863e-09 1.18017e-09 0
1.42863e-09 1.3044e-09 0
1.42863e-09 1.42863e-09 0
1.42863e-09 1.55286e-09 0
1.42863e-09 1.67709e-09 0
1.42863e-09 1.80132e-09 0
1.42863e-09 1.92555e-09 0
1.42863e-09 2.04977e-09 0
1.42863e-09 2.174e-09 0
1.42863e-09 2.29823e-09 0
1.42863e-09 2.42246e-09 0
1.42863e-09 2.54669e-09 0
1.42863e-09 2.67092e-09 0
1.42863e-09 2.79515e-09 0
1.42863e-09 2.91938e-09 0
1.55286e-09 -2.91938e-09 0
1.55286e-09 -2.79515e-09 0
1.55286e-09 -2.67092e-09 0
1.55286e-09 -2.54669e-09 0
1.55286e-09 -2.42246e-09 0
1.55286e-09 -2.29823e-09 0
1.55286e-09 -2.174e-09 0
1.55286e-09 -2.04977e-09 0
1.55286e-09 -1.92555e-09 0
1.55286e-09 -1.80132e-09 0
1.55286e-09 -1.67709e-09 0
1.55286e-09 -1.55286e-09 0
1.55286e-09 -1.42863e-09 0
1.55286e-09 -1.3044e-09 0
1.55286e-09 -1.18017e-09 0
1.55286e-09 -1.05594e-09 0
1.55286e-09 -9.31715e-10 0
1.55286e-09 -8.07487e-10 0
1.55286e-09 -6.83258e-10 0
1.55286e-09 -5.59029e-10 0
1.55286e-09 -4.34801e-10 0
1.55286e-09 -3.10572e-10 0
1.55286e-09 -1.86343e-10 0
1.55286e-09 -6.21144e-11 0
1.55286e-09 6.21144e-11 0
1.55286e-09 1.86343e-10 0
1.55286e-09 3.10572e-10 0
1.55286e-09 4.34801e-10 0
1.55286e-09 5.59029e-10 0
1.55286e-09 6.83258e-10 0
1.55286e-09 8.07487e-10 0
1.55286e-09 9.31715e-10 0
1.55286e-09 1.05594e-09 0
1.55286e-09 1.18017e-09 0
1.55286e-09 1.3044e-09 0
1.55286e-09 1.42863e-09 0
1.55286e-09 1.55286e-09 0
1.55286e-09 1.67709e-09 0
1.55286e-09 1.80132e-09 0
1.55286e-09 1.92555e-09 0
1.55286e-09 2.04977e-09 0
1.55286e-09 2.174e-09 0
1.55286e-09 2.29823e-09 0
1.55286e-09 2.42246e-09 0
1.55286e-09 2.54669e-09 0
1.55286e-09 2.67092e-09 0
1.55286e-09 2.79515e-09 0
1.55286e-09 2.91938e-09 0
1.67709e-09 -2.91938e-09 0
1.67709e-09 -2.79515e-09 0
1.67709e-09 -2.67092e-09 0
1.67709e-09 -2.54669e-09 0
1.67709e-09 -2.42246e-09 0
1.67709e-09 -2.29823e-09 0
1.67709e-09 -2.174e-09 0
1.67709e-09 -2.04977e-09 0
1.67709e-09 -1.92555e-09 0
1.67709e-09 -1.80132e-09 0
1.67709e-09 -1.67709e-09 0
1.67709e-09 -1.55286e-09 0
1.67709e-09 -1.42863e-09 0
1.67709e-09 -1.3044e-09 0
1.67709e-09 -1.18017e-09 0
1.67709e-09 -1.05594e-09 0
1.67709e-09 -9.31715e-10 0
1.67709e-09 -8.07487e-10 0
1.67709e-09 -6.83258e-10 0
1.67709e-09 -5.59029e-10 0
1.67709e-09 -4.34801e-10 0
1.67709e-09 -3.10572e-10 0
1.67709e-09 -1.86343e-10 0
1.67709e-09 -6.21144e-11 0
1.67709e-09 6.21144e-11 0
1.67709e-09 1.86343e-10 0
1.67709e-09 3.10572e-10 0
1.67709e-09 4.34801e-10 0
1.67709e-09 5.59029e-10 0
1.67709e-09 6.83258e-10 0
1.67709e-09 8.07487e-10 0
1.67709e-09 9.31715e-10 0
1.67709e-09 1.05594e-09 0
1.67709e-09 1.18017e-09 0
1.67709e-09 1.3044e-09 0
1.67709e-09 1.42863e-09 0
1.67709e-09 1.55286e-09 0
1.67709e-09 1.67709e-09 0
1.67709e-09 1.80132e-09 0
1.67709e-09 1.92555e-09 0
1.67709e-09 2.04977e-09 0
1.67709e-09 2.174e-09 0
1.67709e-09 2.29823e-09 0
1.67709e-09 2.42246e-09 0
1.67709e-09 2.54669e-09 0
1.67709e-09 2.67092e-09 0
1.67709e-09 2.79515e-09 0
1.67709e-09 2.91938e-09 0
1.80132e-09 -2.91938e-09 0
1.80132e-09 -2.79515e-09 0
1.80132e-09 -2.67092e-09 0
1.80132e-09 -2.54669e-09 0
1.80132e-09 -2.42246e-09 0
1.80132e-09 -2.29823e-09 0
1.80132e-09 -2.174e-09 0
1.80132e-09 -2.04977e-09 0
1.80132e-09 -1.92555e-09 0
1.80132e-09 -1.80132e-09 0
1.80132e-09 -1.67709e-09 0
1.80132e-09 -1.55286e-09 0
1.80132e-09 -1.42863e-09 0
1.80132e-09 -1.3044e-09 0
1.80132e-09 -1.18017e-09 0
1.80132e-09 -1.05594e-09 0
1.80132e-09 -9.31715e-10 0
1.80132e-09 -8.07487e-10 0
1.80132e-09 -6.83258e-10 0
1.80132e-09 -5.59029e-10 0
1.80132e-09 -4.34801e-10 0
1.80132e-09 -3.10572e-10 0
1.80132e-09 -1.86343e-10 0
1.80132e-09 -6.21144e-11 0
1.80132e-09 6.21144e-11 0
1.80132e-09 1.86343e-10 0
1.80132e-09 3.10572e-10 0
1.80132e-09 4.34801e-10 0
1.80132e-09 5.59029e-10 0
1.80132e-09 6.83258e-10 0
1.80132e-09 8.07487e-10 0
1.80132e-09 9.31715e-10 0
1.80132e-09 1.05594e-09 0
1.80132e-09 1.18017e-09 0
1.80132e-09 1.3044e-09 0
1.80132e-09 1.42863e-09 0
1.80132e-09 1.55286e-09 0
1.80132e-09 1.67709e-09 0
1.80132e-09 1.80132e-09 0
1.80132e-09 1.92555e-09 0
1.80132e-09 2.04977e-09 0
1.80132e-09 2.174e-09 0
1.80132e-09 2.29823e-09 0
1.80132e-09 2.42246e-09 0
1.80132e-09 2.54669e-09 0
1.80132e-09 2.67092e-09 0
1.80132e-09 2.79515e-09 0
1.80132e-09 2.91938e-09 0
1.92555e-09 -2.91938e-09 0
1.92555e-09 -2.79515e-09 0
1.92555e-09 -2.67092e-09 0
1.92555e-09 -2.54669e-09 0
1.92555e-09 -2.42246e-09 0
1.92555e-09 -2.29823e-09 0
1.92555e-09 -2.174e-09 0
1.92555e-09 -2.04977e-09 0
1.92555e-09 -1.92555e-09 0
1.92555e-09 -1.80132e-09 0
1.92555e-09 -1.67709e-09 0
1.92555e-09 -1.55286e-09 0
1.92555e-09 -1.42863e-09 0
1.92555e-09 -1.3044e-09 0
1.92555e-09 -1.18017e-09 0
1.92555e-09 -1.05594e-09 0
1.92555e-09 -9.31715e-10 0
1.92555e-09 -8.07487e-10 0
1.92555e-09 -6.83258e-10 0
1.92555e-09 -5.59029e-10 0
1.92555e-09 -4.34801e-10 0
1.92555e-09 -3.10572e-10 0
1.92555e-09 -1.86343e-10 0
1.92555e-09 -6.21144e-11 0
1.92555e-09 6.21144e-11 0
1.92555e-09 1.86343e-10 0
1.92555e-09 3.10572e-10 0
1.92555e-09 4.34801e-10 0
1.92555e-09 5.59029e-10 0
1.92555e-09 6.83258e-10 0
1.92555e-09 8.07487e-10 0
1.92555e-09 9.31715e-10 0
1.92555e-09 1.05594e-09 0
1.92555e-09 1.18017e-09 0
1.92555e-09 1.3044e-09 0
1.92555e-09 1.42863e-09 0
1.92555e-09 1.55286e-09 0
1.92555e-09 1.67709e-09 0
1.92555e-09 1.80132e-09 0
1.92555e-09 1.92555e-09 0
1.92555e-09 2.04977e-09 0
1.92555e-09 2.174e-09 0
1.92555e-09 2.29823e-09 0
1.92555e-09 2.42246e-09 0
1.92555e-09 2.54669e-09 0
1.92555e-09 2.67092e-09 0
1.92555e-09 2.79515e-09 0
1.92555e-09 2.91938e-09 0
2.04977e-09 -2.91938e-09 0
2.04977e-09 -2.79515e-09 0
2.04977e-09 -2.67092e-09 0
2.04977e-09 -2.54669e-09 0
2.04977e-09 -2.42246e-09 0
2.04977e-09 -2.29823e-09 0
2.04977e-09 -2.174e-09 0
2.04977e-09 -2.04977e-09 0
2.04977e-09 -1.92555e-09 0
2.04977e-09 -1.80132e-09 0
2.04977e-09 -1.67709e-09 0
2.04977e-09 -1.55286e-09 0
2.04977e-09 -1.42863e-09 0
2.04977e-09 -1.3044e-09 0
2.04977e-09 -1.18017e-09 0
2.04977e-09 -1.05594e-09 0
2.04977e-09 -9.31715e-10 0
2.04977e-09 -8.07487e-10 0
2.04977e-09 -6.83258e-10 0
2.04977e-09 -5.59029e-10 0
2.04977e-09 -4.34801e-10 0
2.04977e-09 -3.10572e-10 0
2.04977e-09 -1.86343e-10 0
2.04977e-09 -6.21144e-11 0
2.04977e-09 6.21144e-11 0
2.04977e-09 1.86343e-10 0
2.04977e-09 3.10572e-10 0
2.04977e-09 4.34801e-10 0
2.04977e-09 5.59029e-10 0
2.04977e-09 6.83258e-10 0
2.04977e-09 8.07487e-10 0
2.04977e-09 9.31715e-10 0
2.04977e-09 1.05594e-09 0
2.04977e-09 1.18017e-09 0
2.04977e-09 1.3044e-09 0
2.04977e-09 1.42863e-09 0
2.04977e-09 1.55286e-09 0
2.04977e-09 1.67709e-09 0
2.04977e-09 1.80132e-09 0
2.04977e-09 1.92555e-09 0
2.04977e-09 2.04977e-09 0
2.04977e-09 2.174e-09 0
2.04977e-09 2.29823e-09 0
2.04977e-09 2.42246e-09 0
2.04977e-09 2.54669e-09 0
2.04977e-09 2.67092e-09 0
2.04977e-09 2.79515e-09 0
2.04977e-09 2.91938e-09 0
2.174e-09 -2.91938e-09 0
2.174e-09 -2.79515e-09 0
2.174e-09 -2.67092e-09 0
2.174e-09 -2.54669e-09 0
2.174e-09 -2.42246e-09 0
2.174e-09 -2.29823e-09 0
2.174e-09 -2.174e-09 0
2.174e-09 -2.04977e-09 0
2.174e-09 -1.92555e-09 0
2.174e-09 -1.80132e-09 0
2.174e-09 -1.67709e-09 0
2.174e-09 -1.55286e-09 0
2.174e-09 -1.42863e-09 0
2.174e-09 -1.3044e-09 0
2.174e-09 -1.18017e-09 0
2.174e-09 -1.05594e-09 0
2.174e-09 -9.31715e-10 0
2.174e-09 -8.07487e-10 0
2.174e-09 -6.83258e-10 0
2.174e-09 -5.59029e-10 0
2.174e-09 -4.34801e-10 0
2.174e-09 -3.10572e-10 0
2.174e-09 -1.86343e-10 0
2.174e-09 -6.21144e-11 0
2.174e-09 6.21144e-11 0
2.174e-09 1.86343e-10 0
2.174e-09 3.10572e-10 0
2.174e-09 4.34801e-10 0
2.174e-09 5.59029e-10 0
2.174e-09 6.83258e-10 0
2.174e-09 8.07487e-10 0
2.174e-09 9.31715e-10 0
2.174e-09 1.05594e-09 0
2.174e-09 1.18017e-09 0
2.174e-09 1.3044e-09 0
2.174e-09 1.42863e-09 0
2.174e-09 1.55286e-09 0
2.174e-09 1.67709e-09 0
2.174e-09 1.80132e-09 0
2.174e-09 1.92555e-09 0
2.174e-09 2.04977e-09 0
2.174e-09 2.174e-09 0
2.174e-09 2.29823e-09 0
2.174e-09 2.42246e-09 0
2.174e-09 2.54669e-09 0
2.174e-09 2.67092e-09 0
2.174e-09 2.79515e-09 0
2.174e-09 2.91938e-09 0
2.29823e-09 -2.91938e-09 0
2.29823e-09 -2.79515e-09 0
2.29823e-09 -2.67092e-09 0
2.29823e-09 -2.54669e-09 0
2.29823e-09 -2.42246e-09 0
2.29823e-09 -2.29823e-09 0
2.29823e-09 -2.174e-09 0
2.29823e-09 -2.04977e-09 0
2.29823e-09 -1.92555e-09 0
2.29823e-09 -1.80132e-09 0
2.29823e-09 -1.67709e-09 0
2.29823e-09 -1.55286e-09 0
2.29823e-09 -1.42863e-09 0
2.29823e-09 -1.3044e-09 0
2.29823e-09 -1.18017e-09 0
2.29823e-09 -1.05594e-09 0
2.29823e-09 -9.31715e-10 0
2.29823e-09 -8.07487e-10 0
2.29823e-09 -6.83258e-10 0
2.29823e-09 -5.59029e-10 0
2.29823e-09 -4.34801e-10 0
2.29823e-09 -3.10572e-10 0
2.29823e-09 -1.86343e-10 0
2.29823e-09 -6.21144e-11 0
2.29823e-09 6.21144e-11 0
2.29823e-09 1.86343e-10 0
2.29823e-09 3.10572e-10 0
2.29823e-09 4.34801e-10 0
2.29823e-09 5.59029e-10 0
2.29823e-09 6.83258e-10 0
2.29823e-09 8.07487e-10 0
2.29823e-09 9.31715e-10 0
2.29823e-09 1.05594e-09 0
2.29823e-09 1.18017e-09 0
2.29823e-09 1.3044e-09 0
2.29823e-09 1.42863e-09 0
2.29823e-09 1.55286e-09 0
2.29823e-09 1.67709e-09 0
2.29823e-09 1.80132e-09 0
2.29823e-09 1.92555e-09 0
2.29823e-09 2.04977e-09 0
2.29823e-09 2.174e-09 0
2.29823e-09 2.29823e-09 0
2.29823e-09 2.42246e-09 0
2.29823e-09 2.54669e-09 0
2.29823e-09 2.67092e-09 0
2.29823e-09 2.79515e-09 0
2.29823e-09 2.91938e-09 0
2.42246e-09 -2.91938e-09 0
2.42246e-09 -2.79515e-09 0
2.42246e-09 -2.67092e-09 0
2.42246e-09 -2.54669e-09 0
2.42246e-09 -2.42246e-09 0
2.42246e-09 -2.29823e-09 0
2.42246e-09 -2.174e-09 0
2.42246e-09 -2.04977e-09 0
2.42246e-09 -1.92555e-09 0
2.42246e-09 -1.80132e-09 0
2.42246e-09 -1.67709e-09 0
2.42246e-09 -1.55286e-09 0
2.42246e-09 -1.42863e-09 0
2.42246e-09 -1.3044e-09 0
2.42246e-09 -1.18017e-09 0
2.42246e-09 -1.05594e-09 0
2.42246e-09 -9.31715e-10 0
2.42246e-09 -8.07487e-10 0
2.42246e-09 -6.83258e-10 0
2.42246e-09 -5.59029e-10 0
2.42246e-09 -4.34801e-10 0
2.42246e-09 -3.10572e-10 0
2.42246e-09 -1.86343e-10 0
2.42246e-09 -6.21144e-11 0
2.42246e-09 6.21144e-11 0
2.42246e-09 1.86343e-10 0
2.42246e-09 3.10572e-10 0
2.42246e-09 4.34801e-10 0
2.42246e-09 5.59029e-10 0
2.42246e-09 6.83258e-10 0
2.42246e-09 8.07487e-10 0
2.42246e-09 9.31715e-10 0
2.42246e-09 1.05594e-09 0
2.42246e-09 1.18017e-09 0
2.42246e-09 1.3044e-09 0
2.42246e-09 1.42863e-09 0
2.42246e-09 1.55286e-09 0
2.42246e-09 1.67709e-09 0
2.42246e-09 1.80132e-09 0
2.42246e-09 1.92555e-09 0
2.42246e-09 2.04977e-09 0
2.42246e-09 2.174e-09 0
2.42246e-09 2.29823e-09 0
2.42246e-09 2.42246e-09 0
2.42246e-09 2.54669e-09 0
2.42246e-09 2.67092e-09 0
2.42246e-09 2.79515e-09 0
2.42246e-09 2.91938e-09 0
2.54669e-09 -2.91938e-09 0
2.54669e-09 -2.79515e-09 0
2.54669e-09 -2.67092e-09 0
2.54669e-09 -2.54669e-09 0
2.54669e-09 -2.42246e-09 0
2.54669e-09 -2.29823e-09 0
2.54669e-09 -2.174e-09 0
2.54669e-09 -2.04977e-09 0
2.54669e-09 -1.92555e-09 0
2.54669e-09 -1.80132e-09 0
2.54669e-09 -1.67709e-09 0
2.54669e-09 -1.55286e-09 0
2.54669e-09 -1.42863e-09 0
2.54669e-09 -1.3044e-09 0
2.54669e-09 -1.18017e-09 0
2.54669e-09 -1.05594e-09 0
2.54669e-09 -9.31715e-10 0
2.54669e-09 -8.07487e-10 0
2.54669e-09 -6.83258e-10 0
2.54669e-09 -5.59029e-10 0
2.54669e-09 -4.34801e-10 0
2.54669e-09 -3.10572e-10 0
2.54669e-09 -1.86343e-10 0
2.54669e-09 -6.21144e-11 0
2.54669e-09 6.21144e-11 0
2.54669e-09 1.86343e-10 0
2.54669e-09 3.10572e-10 0
2.54669e-09 4.34801e-10 0
2.54669e-09 5.59029e-10 0
2.54669e-09 6.83258e-10 0
2.54669e-09 8.07487e-10 0
2.54669e-09 9.31715e-10 0
2.54669e-09 1.05594e-09 0
2.54669e-09 1.18017e-09 0
2.54669e-09 1.3044e-09 0
2.54669e-09 1.42863e-09 0
2.54669e-09 1.55286e-09 0
2.54669e-09 1.67709e-09 0
2.54669e-09 1.80132e-09 0
2.54669e-09 1.92555e-09 0
2.54669e-09 2.04977e-09 0
2.54669e-09 2.174e-09 0
2.54669e-09 2.29823e-09 0
2.54669e-09 2.42246e-09 0
2.54669e-09 2.54669e-09 0
2.54669e-09 2.67092e-09 0
2.54669e-09 2.79515e-09 0
2.54669e-09 2.91938e-09 0
2.67092e-09 -2.91938e-09 0
2.67092e-09 -2.79515e-09 0
2.67092e-09 -2.67092e-09 0
2.67092e-09 -2.54669e-09 0
2.67092e-09 -2.42246e-09 0
2.67092e-09 -2.29823e-09 0
2.67092e-09 -2.174e-09 0
2.67092e-09 -2.04977e-09 0
2.67092e-09 -1.92555e-09 0
2.67092e-09 -1.80132e-09 0
2.67092e-09 -1.67709e-09 0
2.67092e-09 -1.55286e-09 0
2.67092e-09 -1.42863e-09 0
2.67092e-09 -1.3044e-09 0
2.67092e-09 -1.18017e-09 0
2.67092e-09 -1.05594e-09 0
2.67092e-09 -9.31715e-10 0
2.67092e-09 -8.07487e-10 0
2.67092e-09 -6.83258e-10 0
2.67092e-09 -5.59029e-10 0
2.67092e-09 -4.34801e-10 0
2.67092e-09 -3.10572e-10 0
2.67092e-09 -1.86343e-10 0
2.67092e-09 -6.21144e-11 0
2.67092e-09 6.21144e-11 0
2.67092e-09 1.86343e-10 0
2.67092e-09 3.10572e-10 0
2.67092e-09 4.34801e-10 0
2.67092e-09 5.59029e-10 0
2.67092e-09 6.83258e-10 0
2.67092e-09 8.07487e-10 0
2.67092e-09 9.31715e-10 0
2.67092e-09 1.05594e-09 0
2.67092e-09 1.18017e-09 0
2.67092e-09 1.3044e-09 0
2.67092e-09 1.42863e-09 0
2.67092e-09 1.55286e-09 0
2.67092e-09 1.67709e-09 0
2.67092e-09 1.80132e-09 0
2.67092e-09 1.92555e-09 0
2.67092e-09 2.04977e-09 0
2.67092e-09 2.174e-09 0
2.67092e-09 2.29823e-09 0
2.67092e-09 2.42246e-09 0
2.67092e-09 2.54669e-09 0
2.67092e-09 2.67092e-09 0
2.67092e-09 2.79515e-09 0
2.67092e-09 2.91938e-09 0
2.79515e-09 -2.91938e-09 0
2.79515e-09 -2.79515e-09 0
2.79515e-09 -2.67092e-09 0
2.79515e-09 -2.54669e-09 0
2.79515e-09 -2.42246e-09 0
2.79515e-09 -2.29823e-09 0
2.79515e-09 -2.174e-09 0
2.79515e-09 -2.04977e-09 0
2.79515e-09 -1.92555e-09 0
2.79515e-09 -1.80132e-09 0
2.79515e-09 -1.67709e-09 0
2.79515e-09 -1.55286e-09 0
2.79515e-09 -1.42863e-09 0
2.79515e-09 -1.3044e-09 0
2.79515e-09 -1.18017e-09 0
2.79515e-09 -1.05594e-09 0
2.79515e-09 -9.31715e-10 0
2.79515e-09 -8.07487e-10 0
2.79515e-09 -6.83258e-10 0
2.79515e-09 -5.59029e-10 0
2.79515e-09 -4.34801e-10 0
2.79515e-09 -3.10572e-10 0
2.79515e-09 -1.86343e-10 0
2.79515e-09 -6.21144e-11 0
2.79515e-09 6.21144e-11 0
2.79515e-09 1.86343e-10 0
2.79515e-09 3.10572e-10 0
2.79515e-09 4.34801e-10 0
2.79515e-09 5.59029e-10 0
2.79515e-09 6.83258e-10 0
2.79515e-09 8.07487e-10 0
2.79515e-09 9.31715e-10 0
2.79515e-09 1.05594e-09 0
2.79515e-09 1.18017e-09 0
2.79515e-09 1.3044e-09 0
2.79515e-09 1.42863e-09 0
2.79515e-09 1.55286e-09 0
2.79515e-09 1.67709e-09 0
2.79515e-09 1.80132e-09 0
2.79515e-09 1.92555e-09 0
2.79515e-09 2.04977e-09 0
2.79515e-09 2.174e-09 0
2.79515e-09 2.29823e-09 0
2.79515e-09 2.42246e-09 0
2.79515e-09 2.54669e-09 0
2.79515e-09 2.67092e-09 0
2.79515e-09 2.79515e-09 0
2.79515e-09 2.91938e-09 0
2.91938e-09 -2.91938e-09 0
2.91938e-09 -2.79515e-09 0
2.91938e-09 -2.67092e-09 0
2.91938e-09 -2.54669e-09 0
2.91938e-09 -2.42246e-09 0
2.91938e-09 -2.29823e-09 0
2.91938e-09 -2.174e-09 0
2.91938e-09 -2.04977e-09 0
2.91938e-09 -1.92555e-09 0
2.91938e-09 -1.80132e-09 0
2.91938e-09 -1.67709e-09 0
2.91938e-09 -1.55286e-09 0
2.91938e-09 -1.42863e-09 0
2.91938e-09 -1.3044e-09 0
2.91938e-09 -1.18017e-09 0
2.91938e-09 -1.05594e-09 0
2.91938e-09 -9.31715e-10 0
2.91938e-09 -8.07487e-10 0
2.91938e-09 -6.83258e-10 0
2.91938e-09 -5.59029e-10 0
2.91938e-09 -4.34801e-10 0
2.91938e-09 -3.10572e-10 0
2.91938e-09 -1.86343e-10 0
2.91938e-09 -6.21144e-11 0
2.91938e-09 6.21144e-11 0
2.91938e-09 1.86343e-10 0
2.91938e-09 3.10572e-10 0
2.91938e-09 4.34801e-10 0
2.91938e-09 5.59029e-10 0
2.91938e-09 6.83258e-10 0
2.91938e-09 8.07487e-10 0
2.91938e-09 9.31715e-10 0
2.91938e-09 1.05594e-09 0
2.91938e-09 1.18017e-09 0
2.91938e-09 1.3044e-09 0
2.91938e-09 1.42863e-09 0
2.91938e-09 1.55286e-09 0
2.91938e-09 1.67709e-09 0
2.91938e-09 1.80132e-09 0
2.91938e-09 1.92555e-09 0
2.91938e-09 2.04977e-09 0
2.91938e-09 2.174e-09 0
2.91938e-09 2.29823e-09 0
2.91938e-09 2.42246e-09 0
2.91938e-09 2.54669e-09 0
2.91938e-09 2.67092e-09 0
2.91938e-09 2.79515e-09 0
2.91938e-09 2.91938e-09 0
-2.91938e-09 -2.91938e-09 9.5197e-11
-2.91938e-09 -2.79515e-09 9.5197e-11
-2.91938e-09 -2.67092e-09 9.5197e-11
-2.91938e-09 -2.54669e-09 9.5197e-11
-2.91938e-09 -2.42246e-09 9.5197e-11
-2.91938e-09 -2.29823e-09 9.5197e-11
-2.91938e-09 -2.174e-09 9.5197e-11
-2.91938e-09 -2.04977e-09 9.5197e-11
-2.91938e-09 -1.92555e-09 9.5197e-11
-2.91938e-09 -1.80132e-09 9.5197e-11
-2.91938e-09 -1.67709e-09 9.5197e-11
-2.91938e-09 -1.55286e-09 9.5197e-11
-2.91938e-09 -1.42863e-09 9.5197e-11
-2.91938e-09 -1.3044e-09 9.5197e-11
-2.91938e-09 -1.18017e-09 9.5197e-11
-2.91938e-09 -1.05594e-09 9.5197e-11
-2.91938e-09 -9.31715e-10 9.5197e-11
-2.91938e-09 -8.07487e-10 9.5197e-11
-2.91938e-09 -6.83258e-10 9.5197e-11
-2.91938e-09 -5.59029e-10 9.5197e-11
-2.91938e-09 -4.34801e-10 9.5197e-11
-2.91938e-09 -3.10572e-10 9.5197e-11
-2.91938e-09 -1.86343e-10 9.5197e-11
-2.91938e-09 -6.21144e-11 9.5197e-11
-2.91938e-09 6.21144e-11 9.5197e-11
-2.91938e-09 1.86343e-10 9.5197e-11
-2.91938e-09 3.10572e-10 9.5197e-11
-2.91938e-09 4.34801e-10 9.5197e-11
-2.91938e-09 5.59029e-10 9.5197e-11
-2.91938e-09 6.83258e-10 9.5197e-11
-2.91938e-09 8.07487e-10 9.5197e-11
-2.91938e-09 9.31715e-10 9.5197e-11
-2.91938e-09 1.05594e-09 9.5197e-11
-2.91938e-09 1.18017e-09 9.5197e-11
-2.91938e-09 1.3044e-09 9.5197e-11
-2.91938e-09 1.42863e-09 9.5197e-11
-2.91938e-09 1.55286e-09 9.5197e-11
-2.91938e-09 1.67709e-09 9.5197e-11
-2.91938e-09 1.80132e-09 9.5197e-11
-2.91938e-09 1.92555e-09 9.5197e-11
-2.91938e-09 2.04977e-09 9.5197e-11
-2.91938e-09 2.174e-09 9.5197e-11
-2.91938e-09 2.29823e-09 9.5197e-11
-2.91938e-09 2.42246e-09 9.5197e-11
-2.91938e-09 2.54669e-09 9.5197e-11
-2.91938e-09 2.67092e-09 9.5197e-11
-2.91938e-09 2.79515e-09 9.5197e-11
-2.91938e-09 2.91938e-09 9.5197e-11
-2.79515e-09 -2.91938e-09 9.5197e-11
-2.79515e-09 -2.79515e-09 9.5197e-11
-2.79515e-09 -2.67092e-09 9.5197e-11
-2.79515e-09 -2.54669e-09 9.5197e-11
-2.79515e-09 -2.42246e-09 9.5197e-11
-2.79515e-09 -2.29823e-09 9.5197e-11
-2.79515e-09 -2.174e-09 9.5197e-11
-2.79515e-09 -2.04977e-09 9.5197e-11
-2.79515e-09 -1.92555e-09 9.5197e-11
-2.79515e-09 -1.80132e-09 9.5197e-11
-2.79515e-09 -1.67709e-09 9.5197e-11
-2.79515e-09 -1.55286e-09 9.5197e-11
-2.79515e-09 -1.42863e-09 9.5197e-11
-2.79515e-09 -1.3044e-09 9.5197e-11
-2.79515e-09 -1.18017e-09 9.5197e-11
-2.79515e-09 -1.05594e-09 9.5197e-11
-2.79515e-09 -9.31715e-10 9.5197e-11
-2.79515e-09 -8.07487e-10 9.5197e-11
-2.79515e-09 -6.83258e-10 9.5197e-11
-2.79515e-09 -5.59029e-10 9.5197e-11
-2.79515e-09 -4.34801e-10 9.5197e-11
-2.79515e-09 -3.10572e-10 9.5197e-11
-2.79515e-09 -1.86343e-10 9.5197e-11
-2.79515e-09 -6.21144e-11 9.5197e-11
-2.79515e-09 6.21144e-11 9.5197e-11
-2.79515e-09 1.86343e-10 9.5197e-11
-2.79515e-09 3.10572e-10 9.5197e-11
-2.79515e-09 4.34801e-10 9.5197e-11
-2.79515e-09 5.59029e-10 9.5197e-11
-2.79515e-09 6.83258e-10 9.5197e-11
-2.79515e-09 8.07487e-10 9.5197e-11
-2.79515e-09 9.31715e-10 9.5197e-11
-2.79515e-09 1.05594e-09 9.5197e-11
-2.79515e-09 1.18017e-09 9.5197e-11
-2.79515e-09 1.3044e-09 9.5197e-11
-2.79515e-09 1.42863e-09 9.5197e-11
-2.79515e-09 1.55286e-09 9.5197e-11
-2.79515e-09 1.67709e-09 9.5197e-11
-2.79515e-09 1.80132e-09 9.5197e-11
-2.79515e-09 1.92555e-09 9.5197e-11
-2.79515e-09 2.04977e-09 9.5197e-11
-2.79515e-09 2.174e-09 9.5197e-11
-2.79515e-09 2.29823e-09 9.5197e-11
-2.79515e-09 2.42246e-09 9.5197e-11
-2.79515e-09 2.54669e-09 9.5197e-11
-2.79515e-09 2.67092e-09 9.5197e-11
-2.79515e-09 2.79515e-09 9.5197e-11
-2.79515e-09 2.91938e-09 9.5197e-11
-2.67092e-09 -2.91938e-09 9.5197e-11
-2.67092e-09 -2.79515e-09 9.5197e-11
-2.67092e-09 -2.67092e-09 9.5197e-11
-2.67092e-09 -2.54669e-09 9.5197e-11
-2.67092e-09 -2.42246e-09 9.5197e-11
-2.67092e-09 -2.29823e-09 9.5197e-11
-2.67092e-09 -2.174e-09 9.5197e-11
-2.67092e-09 -2.04977e-09 9.5197e-11
-2.67092e-09 -1.92555e-09 9.5197e-11
-2.67092e-09 -1.80132e-09 9.5197e-11
-2.67092e-09 -1.67709e-09 9.5197e-11
-2.67092e-09 -1.55286e-09 9.5197e-11
-2.67092e-09 -1.42863e-09 9.5197e-11
-2.67092e-09 -1.3044e-09 9.5197e-11
-2.67092e-09 -1.18017e-09 9.5197e-11
-2.67092e-09 -1.05594e-09 9.5197e-11
-2.67092e-09 -9.31715e-10 9.5197e-11
-2.67092e-09 -8.07487e-10 9.5197e-11
-2.67092e-09 -6.83258e-10 9.5197e-11
-2.67092e-09 -5.59029e-10 9.5197e-11
-2.67092e-09 -4.34801e-10 9.5197e-11
-2.67092e-09 -3.10572e-10 9.5197e-11
-2.67092e-09 -1.86343e-10 9.5197e-11
-2.67092e-09 -6.21144e-11 9.5197e-11
-2.67092e-09 6.21144e-11 9.5197e-11
-2.67092e-09 1.86343e-10 9.5197e-11
-2.67092e-09 3.10572e-10 9.5197e-11
-2.67092e-09 4.34801e-10 9.5197e-11
-2.67092e-09 5.59029e-10 9.5197e-11
-2.67092e-09 6.83258e-10 9.5197e-11
-2.67092e-09 8.07487e-10 9.5197e-11
-2.67092e-09 9.31715e-10 9.5197e-11
-2.67092e-09 1.05594e-09 9.5197e-11
-2.67092e-09 1.18017e-09 9.5197e-11
-2.67092e-09 1.3044e-09 9.5197e-11
-2.67092e-09 1.42863e-09 9.5197e-11
-2.67092e-09 1.55286e-09 9.5197e-11
-2.67092e-09 1.67709e-09 9.5197e-11
-2.67092e-09 1.80132e-09 9.5197e-11
-2.67092e-09 1.92555e-09 9.5197e-11
-2.67092e-09 2.04977e-09 9.5197e-11
-2.67092e-09 2.174e-09 9.5197e-11
-2.67092e-09 2.29823e-09 9.5197e-11
-2.67092e-09 2.42246e-09 9.5197e-11
-2.67092e-09 2.54669e-09 9.5197e-11
-2.67092e-09 2.67092e-09 9.5197e-11
-2.67092e-09 2.79515e-09 9.5197e-11
-2.67092e-09 2.91938e-09 9.5197e-11
-2.54669e-09 -2.91938e-09 9.5197e-11
-2.54669e-09 -2.79515e-09 9.5197e-11
-2.54669e-09 -2.67092e-09 9.5197e-11
-2.54669e-09 -2.54669e-09 9.5197e-11
-2.54669e-09 -2.42246e-09 9.5197e-11
-2.54669e-09 -2.29823e-09 9.5197e-11
-2.54669e-09 -2.174e-09 9.5197e-11
-2.54669e-09 -2.04977e-09 9.5197e-11
-2.54669e-09 -1.92555e-09 9.5197e-11
-2.54669e-09 -1.80132e-09 9.5197e-11
-2.54669e-09 -1.67709e-09 9.5197e-11
-2.54669e-09 -1.55286e-09 9.5197e-11
-2.54669e-09 -1.42863e-09 9.5197e-11
-2.54669e-09 -1.3044e-09 9.5197e-11
-2.54669e-09 -1.18017e-09 9.5197e-11
-2.54669e-09 -1.05594e-09 9.5197e-11
-2.54669e-09 -9.31715e-10 9.5197e-11
-2.54669e-09 -8.07487e-10 9.5197e-11
-2.54669e-09 -6.83258e-10 9.5197e-11
-2.54669e-09 -5.59029e-10 9.5197e-11
-2.54669e-09 -4.34801e-10 9.5197e-11
-2.54669e-09 -3.10572e-10 9.5197e-11
-2.54669e-09 -1.86343e-10 9.5197e-11
-2.54669e-09 -6.21144e-11 9.5197e-11
-2.54669e-09 6.21144e-11 9.5197e-11
-2.54669e-09 1.86343e-10 9.5197e-11
-2.54669e-09 3.10572e-10 9.5197e-11
-2.54669e-09 4.34801e-10 9.5197e-11
-2.54669e-09 5.59029e-10 9.5197e-11
-2.54669e-09 6.83258e-10 9.5197e-11
-2.54669e-09 8.07487e-10 9.5197e-11
-2.54669e-09 9.31715e-10 9.5197e-11
-2.54669e-09 1.05594e-09 9.5197e-11
-2.54669e-09 1.18017e-09 9.5197e-11
-2.54669e-09 1.3044e-09 9.5197e-11
-2.54669e-09 1.42863e-09 9.5197e-11
-2.54669e-09 1.55286e-09 9.5197e-11
-2.54669e-09 1.67709e-09 9.5197e-11
-2.54669e-09 1.80132e-09 9.5197e-11
-2.54669e-09 1.92555e-09 9.5197e-11
-2.54669e-09 2.04977e-09 9.5197e-11
-2.54669e-09 2.174e-09 9.5197e-11
-2.54669e-09 2.29823e-09 9.5197e-11
-2.54669e-09 2.42246e-09 9.5197e-11
-2.54669e-09 2.54669e-09 9.5197e-11
-2.54669e-09 2.67092e-09 9.5197e-11
-2.54669e-09 2.79515e-09 9.5197e-11
-2.54669e-09 2.91938e-09 9.5197e-11
-2.42246e-09 -2.91938e-09 9.5197e-11
-2.42246e-09 -2.79515e-09 9.5197e-11
-2.42246e-09 -2.67092e-09 9.5197e-11
-2.42246e-09 -2.54669e-09 9.5197e-11
-2.42246e-09 -2.42246e-09 9.5197e-11
-2.42246e-09 -2.29823e-09 9.5197e-11
-2.42246e-09 -2.174e-09 9.5197e-11
-2.42246e-09 -2.04977e-09 9.5197e-11
-2.42246e-09 -1.92555e-09 9.5197e-11
-2.42246e-09 -1.80132e-09 9.5197e-11
-2.42246e-09 -1.67709e-09 9.5197e-11
-2.42246e-09 -1.55286e-09 9.5197e-11
-2.42246e-09 -1.42863e-09 9.5197e-11
-2.42246e-09 -1.3044e-09 9.5197e-11
-2.42246e-09 -1.18017e-09 9.5197e-11
-2.42246e-09 -1.05594e-09 9.5197e-11
-2.42246e-09 -9.31715e-10 9.5197e-11
-2.42246e-09 -8.07487e-10 9.5197e-11
-2.42246e-09 -6.83258e-10 9.5197e-11
-2.42246e-09 -5.59029e-10 9.5197e-11
-2.42246e-09 -4.34801e-10 9.5197e-11
-2.42246e-09 -3.10572e-10 9.5197e-11
-2.42246e-09 -1.86343e-10 9.5197e-11
-2.42246e-09 -6.21144e-11 9.5197e-11
-2.42246e-09 6.21144e-11 9.5197e-11
-2.42246e-09 1.86343e-10 9.5197e-11
-2.42246e-09 3.10572e-10 9.5197e-11
-2.42246e-09 4.34801e-10 9.5197e-11
-2.42246e-09 5.59029e-10 9.5197e-11
-2.42246e-09 6.83258e-10 9.5197e-11
-2.42246e-09 8.07487e-10 9.5197e-11
-2.42246e-09 9.31715e-10 9.5197e-11
-2.42246e-09 1.05594e-09 9.5197e-11
-2.42246e-09 1.18017e-09 9.5197e-11
-2.42246e-09 1.3044e-09 9.5197e-11
-2.42246e-09 1.42863e-09 9.5197e-11
-2.42246e-09 1.55286e-09 9.5197e-11
-2.42246e-09 1.67709e-09 9.5197e-11
-2.42246e-09 1.80132e-09 9.5197e-11
-2.42246e-09 1.92555e-09 9.5197e-11
-2.42246e-09 2.04977e-09 9.5197e-11
-2.42246e-09 2.174e-09 9.5197e-11
-2.42246e-09 2.29823e-09 9.5197e-11
-2.42246e-09 2.42246e-09 9.5197e-11
-2.42246e-09 2.54669e-09 9.5197e-11
-2.42246e-09 2.67092e-09 9.5197e-11
-2.42246e-09 2.79515e-09 9.5197e-11
-2.42246e-09 2.91938e-09 9.5197e-11
-2.29823e-09 -2.91938e-09 9.5197e-11
-2.29823e-09 -2.79515e-09 9.5197e-11
-2.29823e-09 -2.67092e-09 9.5197e-11
-2.29823e-09 -2.54669e-09 9.5197e-11
-2.29823e-09 -2.42246e-09 9.5197e-11
-2.29823e-09 -2.29823e-09 9.5197e-11
-2.29823e-09 -2.174e-09 9.5197e-11
-2.29823e-09 -2.04977e-09 9.5197e-11
-2.29823e-09 -1.92555e-09 9.5197e-11
-2.29823e-09 -1.80132e-09 9.5197e-11
-2.29823e-09 -1.67709e-09 9.5197e-11
-2.29823e-09 -1.55286e-09 9.5197e-11
-2.29823e-09 -1.42863e-09 9.5197e-11
-2.29823e-09 -1.3044e-09 9.5197e-11
-2.29823e-09 -1.18017e-09 9.5197e-11
-2.29823e-09 -1.05594e-09 9.5197e-11
-2.29823e-09 -9.31715e-10 9.5197e-11
-2.29823e-09 -8.07487e-10 9.5197e-11
-2.29823e-09 -6.83258e-10 9.5197e-11
-2.29823e-09 -5.59029e-10 9.5197e-11
-2.29823e-09 -4.34801e-10 9.5197e-11
-2.29823e-09 -3.10572e-10 9.5197e-11
-2.29823e-09 -1.86343e-10 9.5197e-11
-2.29823e-09 -6.21144e-11 9.5197e-11
-2.29823e-09 6.21144e-11 9.5197e-11
-2.29823e-09 1.86343e-10 9.5197e-11
-2.29823e-09 3.10572e-10 9.5197e-11
-2.29823e-09 4.34801e-10 9.5197e-11
-2.29823e-09 5.59029e-10 9.5197e-11
-2.29823e-09 6.83258e-10 9.5197e-11
-2.29823e-09 8.07487e-10 9.5197e-11
-2.29823e-09 9.31715e-10 9.5197e-11
-2.29823e-09 1.05594e-09 9.5197e-11
-2.29823e-09 1.18017e-09 9.5197e-11
-2.29823e-09 1.3044e-09 9.5197e-11
-2.29823e-09 1.42863e-09 9.5197e-11
-2.29823e-09 1.55286e-09 9.5197e-11
-2.29823e-09 1.67709e-09 9.5197e-11
-2.29823e-09 1.80132e-09 9.5197e-11
-2.29823e-09 1.92555e-09 9.5197e-11
-2.29823e-09 2.04977e-09 9.5197e-11
-2.29823e-09 2.174e-09 9.5197e-11
-2.29823e-09 2.29823e-09 9.5197e-11
-2.29823e-09 2.42246e-09 9.5197e-11
-2.29823e-09 2.54669e-09 9.5197e-11
-2.29823e-09 2.67092e-09 9.5197e-11
-2.29823e-09 2.79515e-09 9.5197e-11
-2.29823e-09 2.91938e-09 9.5197e-11
-2.174e-09 -2.91938e-09 9.5197e-11
-2.174e-09 -2.79515e-09 9.5197e-11
-2.174e-09 -2.67092e-09 9.5197e-11
-2.174e-09 -2.54669e-09 9.5197e-11
-2.174e-09 -2.42246e-09 9.5197e-11
-2.174e-09 -2.29823e-09 9.5197e-11
-2.174e-09 -2.174e-09 9.5197e-11
-2.174e-09 -2.04977e-09 9.5197e-11
-2.174e-09 -1.92555e-09 9.5197e-11
-2.174e-09 -1.80132e-09 9.5197e-11
-2.174e-09 -1.67709e-09 9.5197e-11
-2.174e-09 -1.55286e-09 9.5197e-11
-2.174e-09 -1.42863e-09 9.5197e-11
-2.174e-09 -1.3044e-09 9.5197e-11
-2.174e-09 -1.18017e-09 9.5197e-11
-2.174e-09 -1.05594e-09 9.5197e-11
-2.174e-09 -9.31715e-10 9.5197e-11
-2.174e-09 -8.07487e-10 9.5197e-11
-2.174e-09 -6.83258e-10 9.5197e-11
-2.174e-09 -5.59029e-10 9.5197e-11
-2.174e-09 -4.34801e-10 9.5197e-11
-2.174e-09 -3.10572e-10 9.5197e-11
-2.174e-09 -1.86343e-10 9.5197e-11
-2.174e-09 -6.21144e-11 9.5197e-11
-2.174e-09 6.21144e-11 9.5197e-11
-2.174e-09 1.86343e-10 9.5197e-11
-2.174e-09 3.10572e-10 9.5197e-11
-2.174e-09 4.34801e-10 9.5197e-11
-2.174e-09 5.59029e-10 9.5197e-11
-2.174e-09 6.83258e-10 9.5197e-11
-2.174e-09 8.07487e-10 9.5197e-11
-2.174e-09 9.31715e-10 9.5197e-11
-2.174e-09 1.05594e-09 9.5197e-11
-2.174e-09 1.18017e-09 9.5197e-11
-2.174e-09 1.3044e-09 9.5197e-11
-2.174e-09 1.42863e-09 9.5197e-11
-2.174e-09 1.55286e-09 9.5197e-11
-2.174e-09 1.67709e-09 9.5197e-11
-2.174e-09 1.80132e-09 9.5197e-11
-2.174e-09 1.92555e-09 9.5197e-11
-2.174e-09 2.04977e-09 9.5197e-11
-2.174e-09 2.174e-09 9.5197e-11
-2.174e-09 2.29823e-09 9.5197e-11
-2.174e-09 2.42246e-09 9.5197e-11
-2.174e-09 2.54669e-09 9.5197e-11
-2.174e-09 2.67092e-09 9.5197e-11
-2.174e-09 2.79515e-09 9.5197e-11
-2.174e-09 2.91938e-09 9.5197e-11
-2.04977e-09 -2.91938e-09 9.5197e-11
-2.04977e-09 -2.79515e-09 9.5197e-11
-2.04977e-09 -2.67092e-09 9.5197e-11
-2.04977e-09 -2.54669e-09 9.5197e-11
-2.04977e-09 -2.42246e-09 9.5197e-11
-2.04977e-09 -2.29823e-09 9.5197e-11
-2.04977e-09 -2.174e-09 9.5197e-11
-2.04977e-09 -2.04977e-09 9.5197e-11
-2.04977e-09 -1.92555e-09 9.5197e-11
-2.04977e-09 -1.80132e-09 9.5197e-11
-2.04977e-09 -1.67709e-09 9.5197e-11
-2.04977e-09 -1.55286e-09 9.5197e-11
-2.04977e-09 -1.42863e-09 9.5197e-11
-2.04977e-09 -1.3044e-09 9.5197e-11
-2.04977e-09 -1.18017e-09 9.5197e-11
-2.04977e-09 -1.05594e-09 9.5197e-11
-2.04977e-09 -9.31715e-10 9.5197e-11
-2.04977e-09 -8.07487e-10 9.5197e-11
-2.04977e-09 -6.83258e-10 9.5197e-11
-2.04977e-09 -5.59029e-10 9.5197e-11
-2.04977e-09 -4.34801e-10 9.5197e-11
-2.04977e-09 -3.10572e-10 9.5197e-11
-2.04977e-09 -1.86343e-10 9.5197e-11
-2.04977e-09 -6.21144e-11 9.5197e-11
-2.04977e-09 6.21144e-11 9.5197e-11
-2.04977e-09 1.86343e-10 9.5197e-11
-2.04977e-09 3.10572e-10 9.5197e-11
-2.04977e-09 4.34801e-10 9.5197e-11
-2.04977e-09 5.59029e-10 9.5197e-11
-2.04977e-09 6.83258e-10 9.5197e-11
-2.04977e-09 8.07487e-10 9.5197e-11
-2.04977e-09 9.31715e-10 9.5197e-11
-2.04977e-09 1.05594e-09 9.5197e-11
-2.04977e-09 1.18017e-09 9.5197e-11
-2.04977e-09 1.3044e-09 9.5197e-11
-2.04977e-09 1.42863e-09 9.5197e-11
-2.04977e-09 1.55286e-09 9.5197e-11
-2.04977e-09 1.67709e-09 9.5197e-11
-2.04977e-09 1.80132e-09 9.5197e-11
-2.04977e-09 1.92555e-09 9.5197e-11
-2.04977e-09 2.04977e-09 9.5197e-11
-2.04977e-09 2.174e-09 9.5197e-11
-2.04977e-09 2.29823e-09 9.5197e-11
-2.04977e-09 2.42246e-09 9.5197e-11
-2.04977e-09 2.54669e-09 9.5197e-11
-2.04977e-09 2.67092e-09 9.5197e-11
-2.04977e-09 2.79515e-09 9.5197e-11
-2.04977e-09 2.91938e-09 9.5197e-11
-1.92555e-09 -2.91938e-09 9.5197e-11
-1.92555e-09 -2.79515e-09 9.5197e-11
-1.92555e-09 -2.67092e-09 9.5197e-11
-1.92555e-09 -2.54669e-09 9.5197e-11
-1.92555e-09 -2.42246e-09 9.5197e-11
-1.92555e-09 -2.29823e-09 9.5197e-11
-1.92555e-09 -2.174e-09 9.5197e-11
-1.92555e-09 -2.04977e-09 9.5197e-11
-1.92555e-09 -1.92555e-09 9.5197e-11
-1.92555e-09 -1.80132e-09 9.5197e-11
-1.92555e-09 -1.67709e-09 9.5197e-11
-1.92555e-09 -1.55286e-09 9.5197e-11
-1.92555e-09 -1.42863e-09 9.5197e-11
-1.92555e-09 -1.3044e-09 9.5197e-11
-1.92555e-09 -1.18017e-09 9.5197e-11
-1.92555e-09 -1.05594e-09 9.5197e-11
-1.92555e-09 -9.31715e-10 9.5197e-11
-1.92555e-09 -8.07487e-10 9.5197e-11
-1.92555e-09 -6.83258e-10 9.5197e-11
-1.92555e-09 -5.59029e-10 9.5197e-11
-1.92555e-09 -4.34801e-10 9.5197e-11
-1.92555e-09 -3.10572e-10 9.5197e-11
-1.92555e-09 -1.86343e-10 9.5197e-11
-1.92555e-09 -6.21144e-11 9.5197e-11
-1.92555e-09 6.21144e-11 9.5197e-11
-1.92555e-09 1.86343e-10 9.5197e-11
-1.92555e-09 3.10572e-10 9.5197e-11
-1.92555e-09 4.34801e-10 9.5197e-11
-1.92555e-09 5.59029e-10 9.5197e-11
-1.92555e-09 6.83258e-10 9.5197e-11
-1.92555e-09 8.07487e-10 9.5197e-11
-1.92555e-09 9.31715e-10 9.5197e-11
-1.92555e-09 1.05594e-09 9.5197e-11
-1.92555e-09 1.18017e-09 9.5197e-11
-1.92555e-09 1.3044e-09 9.5197e-11
-1.92555e-09 1.42863e-09 9.5197e-11
-1.92555e-09 1.55286e-09 9.5197e-11
-1.92555e-09 1.67709e-09 9.5197e-11
-1.92555e-09 1.80132e-09 9.5197e-11
-1.92555e-09 1.92555e-09 9.5197e-11
-1.92555e-09 2.04977e-09 9.5197e-11
-1.92555e-09 2.174e-09 9.5197e-11
-1.92555e-09 2.29823e-09 9.5197e-11
-1.92555e-09 2.42246e-09 9.5197e-11
-1.92555e-09 2.54669e-09 9.5197e-11
-1.92555e-09 2.67092e-09 9.5197e-11
-1.92555e-09 2.79515e-09 9.5197e-11
-1.92555e-09 2.91938e-09 9.5197e-11
-1.80132e-09 -2.91938e-09 9.5197e-11
-1.80132e-09 -2.79515e-09 9.5197e-11
-1.80132e-09 -2.67092e-09 9.5197e-11
-1.80132e-09 -2.54669e-09 9.5197e-11
-1.80132e-09 -2.42246e-09 9.5197e-11
-1.80132e-09 -2.29823e-09 9.5197e-11
-1.80132e-09 -2.174e-09 9.5197e-11
-1.80132e-09 -2.04977e-09 9.5197e-11
-1.80132e-09 -1.92555e-09 9.5197e-11
-1.80132e-09 -1.80132e-09 9.5197e-11
-1.80132e-09 -1.67709e-09 9.5197e-11
-1.80132e-09 -1.55286e-09 9.5197e-11
-1.80132e-09 -1.42863e-09 9.5197e-11
-1.80132e-09 -1.3044e-09 9.5197e-11
-1.80132e-09 -1.18017e-09 9.5197e-11
-1.80132e-09 -1.05594e-09 9.5197e-11
-1.80132e-09 -9.31715e-10 9.5197e-11
-1.80132e-09 -8.07487e-10 9.5197e-11
-1.80132e-09 -6.83258e-10 9.5197e-11
-1.80132e-09 -5.59029e-10 9.5197e-11
-1.80132e-09 -4.34801e-10 9.5197e-11
-1.80132e-09 -3.10572e-10 9.5197e-11
-1.80132e-09 -1.86343e-10 9.5197e-11
-1.80132e-09 -6.21144e-11 9.5197e-11
-1.80132e-09 6.21144e-11 9.5197e-11
-1.80132e-09 1.86343e-10 9.5197e-11
-1.80132e-09 3.10572e-10 9.5197e-11
-1.80132e-09 4.34801e-10 9.5197e-11
-1.80132e-09 5.59029e-10 9.5197e-11
-1.80132e-09 6.83258e-10 9.5197e-11
-1.80132e-09 8.07487e-10 9.5197e-11
-1.80132e-09 9.31715e-10 9.5197e-11
-1.80132e-09 1.05594e-09 9.5197e-11
-1.80132e-09 1.18017e-09 9.5197e-11
-1.80132e-09 1.3044e-09 9.5197e-11
-1.80132e-09 1.42863e-09 9.5197e-11
-1.80132e-09 1.55286e-09 9.5197e-11
-1.80132e-09 1.67709e-09 9.5197e-11
-1.80132e-09 1.80132e-09 9.5197e-11
-1.80132e-09 1.92555e-09 9.5197e-11
-1.80132e-09 2.04977e-09 9.5197e-11
-1.80132e-09 2.174e-09 9.5197e-11
-1.80132e-09 2.29823e-09 9.5197e-11
-1.80132e-09 2.42246e-09 9.5197e-11
-1.80132e-09 2.54669e-09 9.5197e-11
-1.80132e-09 2.67092e-09 9.5197e-11
-1.80132e-09 2.79515e-09 9.5197e-11
-1.80132e-09 2.91938e-09 9.5197e-11
-1.67709e-09 -2.91938e-09 9.5197e-11
-1.67709e-09 -2.79515e-09 9.5197e-11
-1.67709e-09 -2.67092e-09 9.5197e-11
-1.67709e-09 -2.54669e-09 9.5197e-11
-1.67709e-09 -2.42246e-09 9.5197e-11
-1.67709e-09 -2.29823e-09 9.5197e-11
-1.67709e-09 -2.174e-09 9.5197e-11
-1.67709e-09 -2.04977e-09 9.5197e-11
-1.67709e-09 -1.92555e-09 9.5197e-11
-1.67709e-09 -1.80132e-09 9.5197e-11
-1.67709e-09 -1.67709e-09 9.5197e-11
-1.67709e-09 -1.55286e-09 9.5197e-11
-1.67709e-09 -1.42863e-09 9.5197e-11
-1.67709e-09 -1.3044e-09 9.5197e-11
-1.67709e-09 -1.18017e-09 9.5197e-11
-1.67709e-09 -1.05594e-09 9.5197e-11
-1.67709e-09 -9.31715e-10 9.5197e-11
-1.67709e-09 -8.07487e-10 9.5197e-11
-1.67709e-09 -6.83258e-10 9.5197e-11
-1.67709e-09 -5.59029e-10 9.5197e-11
-1.67709e-09 -4.34801e-10 9.5197e-11
-1.67709e-09 -3.10572e-10 9.5197e-11
-1.67709e-09 -1.86343e-10 9.5197e-11
-1.67709e-09 -6.21144e-11 9.5197e-11
-1.67709e-09 6.21144e-11 9.5197e-11
-1.67709e-09 1.86343e-10 9.5197e-11
-1.67709e-09 3.10572e-10 9.5197e-11
-1.67709e-09 4.34801e-10 9.5197e-11
-1.67709e-09 5.59029e-10 9.5197e-11
-1.67709e-09 6.83258e-10 9.5197e-11
-1.67709e-09 8.07487e-10 9.5197e-11
-1.67709e-09 9.31715e-10 9.5197e-11
-1.67709e-09 1.05594e-09 9.5197e-11
-1.67709e-09 1.18017e-09 9.5197e-11
-1.67709e-09 1.3044e-09 9.5197e-11
-1.67709e-09 1.42863e-09 9.5197e-11
-1.67709e-09 1.55286e-09 9.5197e-11
-1.67709e-09 1.67709e-09 9.5197e-11
-1.67709e-09 1.80132e-09 9.5197e-11
-1.67709e-09 1.92555e-09 9.5197e-11
-1.67709e-09 2.04977e-09 9.5197e-11
-1.67709e-09 2.174e-09 9.5197e-11
-1.67709e-09 2.29823e-09 9.5197e-11
-1.67709e-09 2.42246e-09 9.5197e-11
-1.67709e-09 2.54669e-09 9.5197e-11
-1.67709e-09 2.67092e-09 9.5197e-11
-1.67709e-09 2.79515e-09 9.5197e-11
-1.67709e-09 2.91938e-09 9.5197e-11
-1.55286e-09 -2.91938e-09 9.5197e-11
-1.55286e-09 -2.79515e-09 9.5197e-11
-1.55286e-09 -2.67092e-09 9.5197e-11
-1.55286e-09 -2.54669e-09 9.5197e-11
-1.55286e-09 -2.42246e-09 9.5197e-11
-1.55286e-09 -2.29823e-09 9.5197e-11
-1.55286e-09 -2.174e-09 9.5197e-11
-1.55286e-09 -2.04977e-09 9.5197e-11
-1.55286e-09 -1.92555e-09 9.5197e-11
-1.55286e-09 -1.80132e-09 9.5197e-11
-1.55286e-09 -1.67709e-09 9.5197e-11
-1.55286e-09 -1.55286e-09 9.5197e-11
-1.55286e-09 -1.42863e-09 9.5197e-11
-1.55286e-09 -1.3044e-09 9.5197e-11
-1.55286e-09 -1.18017e-09 9.5197e-11
-1.55286e-09 -1.05594e-09 9.5197e-11
-1.55286e-09 -9.31715e-10 9.5197e-11
-1.55286e-09 -8.07487e-10 9.5197e-11
-1.55286e-09 -6.83258e-10 9.5197e-11
-1.55286e-09 -5.59029e-10 9.5197e-11
-1.55286e-09 -4.34801e-10 9.5197e-11
-1.55286e-09 -3.10572e-10 9.5197e-11
-1.55286e-09 -1.86343e-10 9.5197e-11
-1.55286e-09 -6.21144e-11 9.5197e-11
-1.55286e-09 6.21144e-11 9.5197e-11
-1.55286e-09 1.86343e-10 9.5197e-11
-1.55286e-09 3.10572e-10 9.5197e-11
-1.55286e-09 4.34801e-10 9.5197e-11
-1.55286e-09 5.59029e-10 9.5197e-11
-1.55286e-09 6.83258e-10 9.5197e-11
-1.55286e-09 8.07487e-10 9.5197e-11
-1.55286e-09 9.31715e-10 9.5197e-11
-1.55286e-09 1.05594e-09 9.5197e-11
-1.55286e-09 1.18017e-09 9.5197e-11
-1.55286e-09 1.3044e-09 9.5197e-11
-1.55286e-09 1.42863e-09 9.5197e-11
-1.55286e-09 1.55286e-09 9.5197e-11
-1.55286e-09 1.67709e-09 9.5197e-11
-1.55286e-09 1.80132e-09 9.5197e-11
-1.55286e-09 1.92555e-09 9.5197e-11
-1.55286e-09 2.04977e-09 9.5197e-11
-1.55286e-09 2.174e-09 9.5197e-11
-1.55286e-09 2.29823e-09 9.5197e-11
-1.55286e-09 2.42246e-09 9.5197e-11
-1.55286e-09 2.54669e-09 9.5197e-11
-1.55286e-09 2.67092e-09 9.5197e-11
-1.55286e-09 2.79515e-09 9.5197e-11
-1.55286e-09 2.91938e-09 9.5197e-11
-1.42863e-09 -2.91938e-09 9.5197e-11
-1.42863e-09 -2.79515e-09 9.5197e-11
-1.42863e-09 -2.67092e-09 9.5197e-11
-1.42863e-09 -2.54669e-09 9.5197e-11
-1.42863e-09 -2.42246e-09 9.5197e-11
-1.42863e-09 -2.29823e-09 9.5197e-11
-1.42863e-09 -2.174e-09 9.5197e-11
-1.42863e-09 -2.04977e-09 9.5197e-11
-1.42863e-09 -1.92555e-09 9.5197e-11
-1.42863e-09 -1.80132e-09 9.5197e-11
-1.42863e-09 -1.67709e-09 9.5197e-11
-1.42863e-09 -1.55286e-09 9.5197e-11
-1.42863e-09 -1.42863e-09 9.5197e-11
-1.42863e-09 -1.3044e-09 9.5197e-11
-1.42863e-09 -1.18017e-09 9.5197e-11
-1.42863e-09 -1.05594e-09 9.5197e-11
-1.42863e-09 -9.31715e-10 9.5197e-11
-1.42863e-09 -8.07487e-10 9.5197e-11
-1.42863e-09 -6.83258e-10 9.5197e-11
-1.42863e-09 -5.59029e-10 9.5197e-11
-1.42863e-09 -4.34801e-10 9.5197e-11
-1.42863e-09 -3.10572e-10 9.5197e-11
-1.42863e-09 -1.86343e-10 9.5197e-11
-1.42863e-09 -6.21144e-11 9.5197e-11
-1.42863e-09 6.21144e-11 9.5197e-11
-1.42863e-09 1.86343e-10 9.5197e-11
-1.42863e-09 3.10572e-10 9.5197e-11
-1.42863e-09 4.34801e-10 9.5197e-11
-1.42863e-09 5.59029e-10 9.5197e-11
-1.42863e-09 6.83258e-10 9.5197e-11
-1.42863e-09 8.07487e-10 9.5197e-11
-1.42863e-09 9.31715e-10 9.5197e-11
-1.42863e-09 1.05594e-09 9.5197e-11
-1.42863e-09 1.18017e-09 9.5197e-11
-1.42863e-09 1.3044e-09 9.5197e-11
-1.42863e-09 1.42863e-09 9.5197e-11
-1.42863e-09 1.55286e-09 9.5197e-11
-1.42863e-09 1.67709e-09 9.5197e-11
-1.42863e-09 1.80132e-09 9.5197e-11
-1.42863e-09 1.92555e-09 9.5197e-11
-1.42863e-09 2.04977e-09 9.5197e-11
-1.42863e-09 2.174e-09 9.5197e-11
-1.42863e-09 2.29823e-09 9.5197e-11
-1.42863e-09 2.42246e-09 9.5197e-11
-1.42863e-09 2.54669e-09 9.5197e-11
-1.42863e-09 2.67092e-09 9.5197e-11
-1.42863e-09 2.79515e-09 9.5197e-11
-1.42863e-09 2.91938e-09 9.5197e-11
-1.3044e-09 -2.91938e-09 9.5197e-11
-1.3044e-09 -2.79515e-09 9.5197e-11
-1.3044e-09 -2.67092e-09 9.5197e-11
-1.3044e-09 -2.54669e-09 9.5197e-11
-1.3044e-09 -2.42246e-09 9.5197e-11
-1.3044e-09 -2.29823e-09 9.5197e-11
-1.3044e-09 -2.174e-09 9.5197e-11
-1.3044e-09 -2.04977e-09 9.5197e-11
-1.3044e-09 -1.92555e-09 9.5197e-11
-1.3044e-09 -1.80132e-09 9.5197e-11
-1.3044e-09 -1.67709e-09 9.5197e-11
-1.3044e-09 -1.55286e-09 9.5197e-11
-1.3044e-09 -1.42863e-09 9.5197e-11
-1.3044e-09 -1.3044e-09 9.5197e-11
-1.3044e-09 -1.18017e-09 9.5197e-11
-1.3044e-09 -1.05594e-09 9.5197e-11
-1.3044e-09 -9.31715e-10 9.5197e-11
-1.3044e-09 -8.07487e-10 9.5197e-11
-1.3044e-09 -6.83258e-10 9.5197e-11
-1.3044e-09 -5.59029e-10 9.5197e-11
-1.3044e-09 -4.34801e-10 9.5197e-11
-1.3044e-09 -3.10572e-10 9.5197e-11
-1.3044e-09 -1.86343e-10 9.5197e-11
-1.3044e-09 -6.21144e-11 9.5197e-11
-1.3044e-09 6.21144e-11 9.5197e-11
-1.3044e-09 1.86343e-10 9.5197e-11
-1.3044e-09 3.10572e-10 9.5197e-11
-1.3044e-09 4.34801e-10 9.5197e-11
-1.3044e-09 5.59029e-10 9.5197e-11
-1.3044e-09 6.83258e-10 9.5197e-11
-1.3044e-09 8.07487e-10 9.5197e-11
-1.3044e-09 9.31715e-10 9.5197e-11
-1.3044e-09 1.05594e-09 9.5197e-11
-1.3044e-09 1.18017e-09 9.5197e-11
-1.3044e-09 1.3044e-09 9.5197e-11
-1.3044e-09 1.42863e-09 9.5197e-11
-1.3044e-09 1.55286e-09 9.5197e-11
-1.3044e-09 1.67709e-09 9.5197e-11
-1.3044e-09 1.80132e-09 9.5197e-11
-1.3044e-09 1.92555e-09 9.5197e-11
-1.3044e-09 2.04977e-09 9.5197e-11
-1.3044e-09 2.174e-09 9.5197e-11
-1.3044e-09 2.29823e-09 9.5197e-11
-1.3044e-09 2.42246e-09 9.5197e-11
-1.3044e-09 2.54669e-09 9.5197e-11
-1.3044e-09 2.67092e-09 9.5197e-11
-1.3044e-09 2.79515e-09 9.5197e-11
-1.3044e-09 2.91938e-09 9.5197e-11
-1.18017e-09 -2.91938e-09 9.5197e-11
-1.18017e-09 -2.79515e-09 9.5197e-11
-1.18017e-09 -2.67092e-09 9.5197e-11
-1.18017e-09 -2.54669e-09 9.5197e-11
-1.18017e-09 -2.42246e-09 9.5197e-11
-1.18017e-09 -2.29823e-09 9.5197e-11
-1.18017e-09 -2.174e-09 9.5197e-11
-1.18017e-09 -2.04977e-09 9.5197e-11
-1.18017e-09 -1.92555e-09 9.5197e-11
-1.18017e-09 -1.80132e-09 9.5197e-11
-1.18017e-09 -1.67709e-09 9.5197e-11
-1.18017e-09 -1.55286e-09 9.5197e-11
-1.18017e-09 -1.42863e-09 9.5197e-11
-1.18017e-09 -1.3044e-09 9.5197e-11
-1.18017e-09 -1.18017e-09 9.5197e-11
-1.18017e-09 -1.05594e-09 9.5197e-11
-1.18017e-09 -9.31715e-10 9.5197e-11
-1.18017e-09 -8.07487e-10 9.5197e-11
-1.18017e-09 -6.83258e-10 9.5197e-11
-1.18017e-09 -5.59029e-10 9.5197e-11
-1.18017e-09 -4.34801e-10 9.5197e-11
-1.18017e-09 -3.10572e-10 9.5197e-11
-1.18017e-09 -1.86343e-10 9.5197e-11
-1.18017e-09 -6.21144e-11 9.5197e-11
-1.18017e-09 6.21144e-11 9.5197e-11
-1.18017e-09 1.86343e-10 9.5197e-11
-1.18017e-09 3.10572e-10 9.5197e-11
-1.18017e-09 4.34801e-10 9.5197e-11
-1.18017e-09 5.59029e-10 9.5197e-11
-1.18017e-09 6.83258e-10 9.5197e-11
-1.18017e-09 8.07487e-10 9.5197e-11
-1.18017e-09 9.31715e-10 9.5197e-11
-1.18017e-09 1.05594e-09 9.5197e-11
-1.18017e-09 1.18017e-09 9.5197e-11
-1.18017e-09 1.3044e-09 9.5197e-11
-1.18017e-09 1.42863e-09 9.5197e-11
-1.18017e-09 1.55286e-09 9.5197e-11
-1.18017e-09 1.67709e-09 9.5197e-11
-1.18017e-09 1.80132e-09 9.5197e-11
-1.18017e-09 1.92555e-09 9.5197e-11
-1.18017e-09 2.04977e-09 9.5197e-11
-1.18017e-09 2.174e-09 9.5197e-11
-1.18017e-09 2.29823e-09 9.5197e-11
-1.18017e-09 2.42246e-09 9.5197e-11
-1.18017e-09 2.54669e-09 9.5197e-11
-1.18017e-09 2.67092e-09 9.5197e-11
-1.18017e-09 2.79515e-09 9.5197e-11
-1.18017e-09 2.91938e-09 9.5197e-11
-1.05594e-09 -2.91938e-09 9.5197e-11
-1.05594e-09 -2.79515e-09 9.5197e-11
-1.05594e-09 -2.67092e-09 9.5197e-11
-1.05594e-09 -2.54669e-09 9.5197e-11
-1.05594e-09 -2.42246e-09 9.5197e-11
-1.05594e-09 -2.29823e-09 9.5197e-11
-1.05594e-09 -2.174e-09 9.5197e-11
-1.05594e-09 -2.04977e-09 9.5197e-11
-1.05594e-09 -1.92555e-09 9.5197e-11
-1.05594e-09 -1.80132e-09 9.5197e-11
-1.05594e-09 -1.67709e-09 9.5197e-11
-1.05594e-09 -1.55286e-09 9.5197e-11
-1.05594e-09 -1.42863e-09 9.5197e-11
-1.05594e-09 -1.3044e-09 9.5197e-11
-1.05594e-09 -1.18017e-09 9.5197e-11
-1.05594e-09 -1.05594e-09 9.5197e-11
-1.05594e-09 -9.31715e-10 9.5197e-11
-1.05594e-09 -8.07487e-10 9.5197e-11
-1.05594e-09 -6.83258e-10 9.5197e-11
-1.05594e-09 -5.59029e-10 9.5197e-11
-1.05594e-09 -4.34801e-10 9.5197e-11
-1.05594e-09 -3.10572e-10 9.5197e-11
-1.05594e-09 -1.86343e-10 9.5197e-11
-1.05594e-09 -6.21144e-11 9.5197e-11
-1.05594e-09 6.21144e-11 9.5197e-11
-1.05594e-09 1.86343e-10 9.5197e-11
-1.05594e-09 3.10572e-10 9.5197e-11
-1.05594e-09 4.34801e-10 9.5197e-11
-1.05594e-09 5.59029e-10 9.5197e-11
-1.05594e-09 6.83258e-10 9.5197e-11
-1.05594e-09 8.07487e-10 9.5197e-11
-1.05594e-09 9.31715e-10 9.5197e-11
-1.05594e-09 1.05594e-09 9.5197e-11
-1.05594e-09 1.18017e-09 9.5197e-11
-1.05594e-09 1.3044e-09 9.5197e-11
-1.05594e-09 1.42863e-09 9.5197e-11
-1.05594e-09 1.55286e-09 9.5197e-11
-1.05594e-09 1.67709e-09 9.5197e-11
-1.05594e-09 1.80132e-09 9.5197e-11
-1.05594e-09 1.92555e-09 9.5197e-11
-1.05594e-09 2.04977e-09 9.5197e-11
-1.05594e-09 2.174e-09 9.5197e-11
-1.05594e-09 2.29823e-09 9.5197e-11
-1.05594e-09 2.42246e-09 9.5197e-11
-1.05594e-09 2.54669e-09 9.5197e-11
-1.05594e-09 2.67092e-09 9.5197e-11
-1.05594e-09 2.79515e-09 9.5197e-11
-1.05594e-09 2.91938e-09 9.5197e-11
-9.31715e-10 -2.91938e-09 9.5197e-11
-9.31715e-10 -2.79515e-09 9.5197e-11
-9.31715e-10 -2.67092e-09 9.5197e-11
-9.31715e-10 -2.54669e-09 9.5197e-11
-9.31715e-10 -2.42246e-09 9.5197e-11
-9.31715e-10 -2.29823e-09 9.5197e-11
-9.31715e-10 -2.174e-09 9.5197e-11
-9.31715e-10 -2.04977e-09 9.5197e-11
-9.31715e-10 -1.92555e-09 9.5197e-11
-9.31715e-10 -1.80132e-09 9.5197e-11
-9.31715e-10 -1.67709e-09 9.5197e-11
-9.31715e-10 -1.55286e-09 9.5197e-11
-9.31715e-10 -1.42863e-09 9.5197e-11
-9.31715e-10 -1.3044e-09 9.5197e-11
-9.31715e-10 -1.18017e-09 9.5197e-11
-9.31715e-10 -1.05594e-09 9.5197e-11
-9.31715e-10 -9.31715e-10 9.5197e-11
-9.31715e-10 -8.07487e-10 9.5197e-11
-9.31715e-10 -6.83258e-10 9.5197e-11
-9.31715e-10 -5.59029e-10 9.5197e-11
-9.31715e-10 -4.34801e-10 9.5197e-11
-9.31715e-10 -3.10572e-10 9.5197e-11
-9.31715e-10 -1.86343e-10 9.5197e-11
-9.31715e-10 -6.21144e-11 9.5197e-11
-9.31715e-10 6.21144e-11 9.5197e-11
-9.31715e-10 1.86343e-10 9.5197e-11
-9.31715e-10 3.10572e-10 9.5197e-11
-9.31715e-10 4.34801e-10 9.5197e-11
-9.31715e-10 5.59029e-10 9.5197e-11
-9.31715e-10 6.83258e-10 9.5197e-11
-9.31715e-10 8.07487e-10 9.5197e-11
-9.31715e-10 9.31715e-10 9.5197e-11
-9.31715e-10 1.05594e-09 9.5197e-11
-9.31715e-10 1.18017e-09 9.5197e-11
-9.31715e-10 1.3044e-09 9.5197e-11
-9.31715e-10 1.42863e-09 9.5197e-11
-9.31715e-10 1.55286e-09 9.5197e-11
-9.31715e-10 1.67709e-09 9.5197e-11
-9.31715e-10 1.80132e-09 9.5197e-11
-9.31715e-10 1.92555e-09 9.5197e-11
-9.31715e-10 2.04977e-09 9.5197e-11
-9.31715e-10 2.174e-09 9.5197e-11
-9.31715e-10 2.29823e-09 9.5197e-11
-9.31715e-10 2.42246e-09 9.5197e-11
-9.31715e-10 2.54669e-09 9.5197e-11
-9.31715e-10 2.67092e-09 9.5197e-11
-9.31715e-10 2.79515e-09 9.5197e-11
-9.31715e-10 2.91938e-09 9.5197e-11
-8.07487e-10 -2.91938e-09 9.5197e-11
-8.07487e-10 -2.79515e-09 9.5197e-11
-8.07487e-10 -2.67092e-09 9.5197e-11
-8.07487e-10 -2.54669e-09 9.5197e-11
-8.07487e-10 -2.42246e-09 9.5197e-11
-8.07487e-10 -2.29823e-09 9.5197e-11
-8.07487e-10 -2.174e-09 9.5197e-11
-8.07487e-10 -2.04977e-09 9.5197e-11
-8.07487e-10 -1.92555e-09 9.5197e-11
-8.07487e-10 -1.80132e-09 9.5197e-11
-8.07487e-10 -1.67709e-09 9.5197e-11
-8.07487e-10 -1.55286e-09 9.5197e-11
-8.07487e-10 -1.42863e-09 9.5197e-11
-8.07487e-10 -1.3044e-09 9.5197e-11
-8.07487e-10 -1.18017e-09 9.5197e-11
-8.07487e-10 -1.05594e-09 9.5197e-11
-8.07487e-10 -9.31715e-10 9.5197e-11
-8.07487e-10 -8.07487e-10 9.5197e-11
-8.07487e-10 -6.83258e-10 9.5197e-11
-8.07487e-10 -5.59029e-10 9.5197e-11
-8.07487e-10 -4.34801e-10 9.5197e-11
-8.07487e-10 -3.10572e-10 9.5197e-11
-8.07487e-10 -1.86343e-10 9.5197e-11
-8.07487e-10 -6.21144e-11 9.5197e-11
-8.07487e-10 6.21144e-11 9.5197e-11
-8.07487e-10 1.86343e-10 9.5197e-11
-8.07487e-10 3.10572e-10 9.5197e-11
-8.07487e-10 4.34801e-10 9.5197e-11
-8.07487e-10 5.59029e-10 9.5197e-11
-8.07487e-10 6.83258e-10 9.5197e-11
-8.07487e-10 8.07487e-10 9.5197e-11
-8.07487e-10 9.31715e-10 9.5197e-11
-8.07487e-10 1.05594e-09 9.5197e-11
-8.07487e-10 1.18017e-09 9.5197e-11
-8.07487e-10 1.3044e-09 9.5197e-11
-8.07487e-10 1.42863e-09 9.5197e-11
-8.07487e-10 1.55286e-09 9.5197e-11
-8.07487e-10 1.67709e-09 9.5197e-11
-8.07487e-10 1.80132e-09 9.5197e-11
-8.07487e-10 1.92555e-09 9.5197e-11
-8.07487e-10 2.04977e-09 9.5197e-11
-8.07487e-10 2.174e-09 9.5197e-11
-8.07487e-10 2.29823e-09 9.5197e-11
-8.07487e-10 2.42246e-09 9.5197e-11
-8.07487e-10 2.54669e-09 9.5197e-11
-8.07487e-10 2.67092e-09 9.5197e-11
-8.07487e-10 2.79515e-09 9.5197e-11
-8.07487e-10 2.91938e-09 9.5197e-11
-6.83258e-10 -2.91938e-09 9.5197e-11
-6.83258e-10 -2.79515e-09 9.5197e-11
-6.83258e-10 -2.67092e-09 9.5197e-11
-6.83258e-10 -2.54669e-09 9.5197e-11
-6.83258e-10 -2.42246e-09 9.5197e-11
-6.83258e-10 -2.29823e-09 9.5197e-11
-6.83258e-10 -2.174e-09 9.5197e-11
-6.83258e-10 -2.04977e-09 9.5197e-11
-6.83258e-10 -1.92555e-09 9.5197e-11
-6.83258e-10 -1.80132e-09 9.5197e-11
-6.83258e-10 -1.67709e-09 9.5197e-11
-6.83258e-10 -1.55286e-09 9.5197e-11
-6.83258e-10 -1.42863e-09 9.5197e-11
-6.83258e-10 -1.3044e-09 9.5197e-11
-6.83258e-10 -1.18017e-09 9.5197e-11
-6.83258e-10 -1.05594e-09 9.5197e-11
-6.83258e-10 -9.31715e-10 9.5197e-11
-6.83258e-10 -8.07487e-10 9.5197e-11
-6.83258e-10 -6.83258e-10 9.5197e-11
-6.83258e-10 -5.59029e-10 9.5197e-11
-6.83258e-10 -4.34801e-10 9.5197e-11
-6.83258e-10 -3.10572e-10 9.5197e-11
-6.83258e-10 -1.86343e-10 9.5197e-11
-6.83258e-10 -6.21144e-11 9.5197e-11
-6.83258e-10 6.21144e-11 9.5197e-11
-6.83258e-10 1.86343e-10 9.5197e-11
-6.83258e-10 3.10572e-10 9.5197e-11
-6.83258e-10 4.34801e-10 9.5197e-11
-6.83258e-10 5.59029e-10 9.5197e-11
-6.83258e-10 6.83258e-10 9.5197e-11
-6.83258e-10 8.07487e-10 9.5197e-11
-6.83258e-10 9.31715e-10 9.5197e-11
-6.83258e-10 1.05594e-09 9.5197e-11
-6.83258e-10 1.18017e-09 9.5197e-11
-6.83258e-10 1.3044e-09 9.5197e-11
-6.83258e-10 1.42863e-09 9.5197e-11
-6.83258e-10 1.55286e-09 9.5197e-11
-6.83258e-10 1.67709e-09 9.5197e-11
-6.83258e-10 1.80132e-09 9.5197e-11
-6.83258e-10 1.92555e-09 9.5197e-11
-6.83258e-10 2.04977e-09 9.5197e-11
-6.83258e-10 2.174e-09 9.5197e-11
-6.83258e-10 2.29823e-09 9.5197e-11
-6.83258e-10 2.42246e-09 9.5197e-11
-6.83258e-10 2.54669e-09 9.5197e-11
-6.83258e-10 2.67092e-09 9.5197e-11
-6.83258e-10 2.79515e-09 9.5197e-11
-6.83258e-10 2.91938e-09 9.5197e-11
-5.59029e-10 -2.91938e-09 9.5197e-11
-5.59029e-10 -2.79515e-09 9.5197e-11
-5.59029e-10 -2.67092e-09 9.5197e-11
-5.59029e-10 -2.54669e-09 9.5197e-11
-5.59029e-10 -2.42246e-09 9.5197e-11
-5.59029e-10 -2.29823e-09 9.5197e-11
-5.59029e-10 -2.174e-09 9.5197e-11
-5.59029e-10 -2.04977e-09 9.5197e-11
-5.59029e-10 -1.92555e-09 9.5197e-11
-5.59029e-10 -1.80132e-09 9.5197e-11
-5.59029e-10 -1.67709e-09 9.5197e-11
-5.59029e-10 -1.55286e-09 9.5197e-11
-5.59029e-10 -1.42863e-09 9.5197e-11
-5.59029e-10 -1.3044e-09 9.5197e-11
-5.59029e-10 -1.18017e-09 9.5197e-11
-5.59029e-10 -1.05594e-09 9.5197e-11
-5.59029e-10 -9.31715e-10 9.5197e-11
-5.59029e-10 -8.07487e-10 9.5197e-11
-5.59029e-10 -6.83258e-10 9.5197e-11
-5.59029e-10 -5.59029e-10 9.5197e-11
-5.59029e-10 -4.34801e-10 9.5197e-11
-5.59029e-10 -3.10572e-10 9.5197e-11
-5.59029e-10 -1.86343e-10 9.5197e-11
-5.59029e-10 -6.21144e-11 9.5197e-11
-5.59029e-10 6.21144e-11 9.5197e-11
-5.59029e-10 1.86343e-10 9.5197e-11
-5.59029e-10 3.10572e-10 9.5197e-11
-5.59029e-10 4.34801e-10 9.5197e-11
-5.59029e-10 5.59029e-10 9.5197e-11
-5.59029e-10 6.83258e-10 9.5197e-11
-5.59029e-10 8.07487e-10 9.5197e-11
-5.59029e-10 9.31715e-10 9.5197e-11
-5.59029e-10 1.05594e-09 9.5197e-11
-5.59029e-10 1.18017e-09 9.5197e-11
-5.59029e-10 1.3044e-09 9.5197e-11
-5.59029e-10 1.42863e-09 9.5197e-11
-5.59029e-10 1.55286e-09 9.5197e-11
-5.59029e-10 1.67709e-09 9.5197e-11
-5.59029e-10 1.80132e-09 9.5197e-11
-5.59029e-10 1.92555e-09 9.5197e-11
-5.59029e-10 2.04977e-09 9.5197e-11
-5.59029e-10 2.174e-09 9.5197e-11
-5.59029e-10 2.29823e-09 9.5197e-11
-5.59029e-10 2.42246e-09 9.5197e-11
-5.59029e-10 2.54669e-09 9.5197e-11
-5.59029e-10 2.67092e-09 9.5197e-11
-5.59029e-10 2.79515e-09 9.5197e-11
-5.59029e-10 2.91938e-09 9.5197e-11
-4.34801e-10 -2.91938e-09 9.5197e-11
-4.34801e-10 -2.79515e-09 9.5197e-11
-4.34801e-10 -2.67092e-09 9.5197e-11
-4.34801e-10 -2.54669e-09 9.5197e-11
-4.34801e-10 -2.42246e-09 9.5197e-11
-4.34801e-10 -2.29823e-09 9.5197e-11
-4.34801e-10 -2.174e-09 9.5197e-11
-4.34801e-10 -2.04977e-09 9.5197e-11
-4.34801e-10 -1.92555e-09 9.5197e-11
-4.34801e-10 -1.80132e-09 9.5197e-11
-4.34801e-10 -1.67709e-09 9.5197e-11
-4.34801e-10 -1.55286e-09 9.5197e-11
-4.34801e-10 -1.42863e-09 9.5197e-11
-4.34801e-10 -1.3044e-09 9.5197e-11
-4.34801e-10 -1.18017e-09 9.5197e-11
-4.34801e-10 -1.05594e-09 9.5197e-11
-4.34801e-10 -9.31715e-10 9.5197e-11
-4.34801e-10 -8.07487e-10 9.5197e-11
-4.34801e-10 -6.83258e-10 9.5197e-11
-4.34801e-10 -5.59029e-10 9.5197e-11
-4.34801e-10 -4.34801e-10 9.5197e-11
-4.34801e-10 -3.10572e-10 9.5197e-11
-4.34801e-10 -1.86343e-10 9.5197e-11
-4.34801e-10 -6.21144e-11 9.5197e-11
-4.34801e-10 6.21144e-11 9.5197e-11
-4.34801e-10 1.86343e-10 9.5197e-11
-4.34801e-10 3.10572e-10 9.5197e-11
-4.34801e-10 4.34801e-10 9.5197e-11
-4.34801e-10 5.59029e-10 9.5197e-11
-4.34801e-10 6.83258e-10 9.5197e-11
-4.34801e-10 8.07487e-10 9.5197e-11
-4.34801e-10 9.31715e-10 9.5197e-11
-4.34801e-10 1.05594e-09 9.5197e-11
-4.34801e-10 1.18017e-09 9.5197e-11
-4.34801e-10 1.3044e-09 9.5197e-11
-4.34801e-10 1.42863e-09 9.5197e-11
-4.34801e-10 1.55286e-09 9.5197e-11
-4.34801e-10 1.67709e-09 9.5197e-11
-4.34801e-10 1.80132e-09 9.5197e-11
-4.34801e-10 1.92555e-09 9.5197e-11
-4.34801e-10 2.04977e-09 9.5197e-11
-4.34801e-10 2.174e-09 9.5197e-11
-4.34801e-10 2.29823e-09 9.5197e-11
-4.34801e-10 2.42246e-09 9.5197e-11
-4.34801e-10 2.54669e-09 9.5197e-11
-4.34801e-10 2.67092e-09 9.5197e-11
-4.34801e-10 2.79515e-09 9.5197e-11
-4.34801e-10 2.91938e-09 9.5197e-11
-3.10572e-10 -2.91938e-09 9.5197e-11
-3.10572e-10 -2.79515e-09 9.5197e-11
-3.10572e-10 -2.67092e-09 9.5197e-11
-3.10572e-10 -2.54669e-09 9.5197e-11
-3.10572e-10 -2.42246e-09 9.5197e-11
-3.10572e-10 -2.29823e-09 9.5197e-11
-3.10572e-10 -2.174e-09 9.5197e-11
-3.10572e-10 -2.04977e-09 9.5197e-11
-3.10572e-10 -1.92555e-09 9.5197e-11
-3.10572e-10 -1.80132e-09 9.5197e-11
-3.10572e-10 -1.67709e-09 9.5197e-11
-3.10572e-10 -1.55286e-09 9.5197e-11
-3.10572e-10 -1.42863e-09 9.5197e-11
-3.10572e-10 -1.3044e-09 9.5197e-11
-3.10572e-10 -1.18017e-09 9.5197e-11
-3.10572e-10 -1.05594e-09 9.5197e-11
-3.10572e-10 -9.31715e-10 9.5197e-11
-3.10572e-10 -8.07487e-10 9.5197e-11
-3.10572e-10 -6.83258e-10 9.5197e-11
-3.10572e-10 -5.59029e-10 9.5197e-11
-3.10572e-10 -4.34801e-10 9.5197e-11
-3.10572e-10 -3.10572e-10 9.5197e-11
-3.10572e-10 -1.86343e-10 9.5197e-11
-3.10572e-10 -6.21144e-11 9.5197e-11
-3.10572e-10 6.21144e-11 9.5197e-11
-3.10572e-10 1.86343e-10 9.5197e-11
-3.10572e-10 3.10572e-10 9.5197e-11
-3.10572e-10 4.34801e-10 9.5197e-11
-3.10572e-10 5.59029e-10 9.5197e-11
-3.10572e-10 6.83258e-10 9.5197e-11
-3.10572e-10 8.07487e-10 9.5197e-11
-3.10572e-10 9.31715e-10 9.5197e-11
-3.10572e-10 1.05594e-09 9.5197e-11
-3.10572e-10 1.18017e-09 9.5197e-11
-3.10572e-10 1.3044e-09 9.5197e-11
-3.10572e-10 1.42863e-09 9.5197e-11
-3.10572e-10 1.55286e-09 9.5197e-11
-3.10572e-10 1.67709e-09 9.5197e-11
-3.10572e-10 1.80132e-09 9.5197e-11
-3.10572e-10 1.92555e-09 9.5197e-11
-3.10572e-10 2.04977e-09 9.5197e-11
-3.10572e-10 2.174e-09 9.5197e-11
-3.10572e-10 2.29823e-09 9.5197e-11
-3.10572e-10 2.42246e-09 9.5197e-11
-3.10572e-10 2.54669e-09 9.5197e-11
-3.10572e-10 2.67092e-09 9.5197e-11
-3.10572e-10 2.79515e-09 9.5197e-11
-3.10572e-10 2.91938e-09 9.5197e-11
-1.86343e-10 -2.91938e-09 9.5197e-11
-1.86343e-10 -2.79515e-09 9.5197e-11
-1.86343e-10 -2.67092e-09 9.5197e-11
-1.86343e-10 -2.54669e-09 9.5197e-11
-1.86343e-10 -2.42246e-09 9.5197e-11
-1.86343e-10 -2.29823e-09 9.5197e-11
-1.86343e-10 -2.174e-09 9.5197e-11
-1.86343e-10 -2.04977e-09 9.5197e-11
-1.86343e-10 -1.92555e-09 9.5197e-11
-1.86343e-10 -1.80132e-09 9.5197e-11
-1.86343e-10 -1.67709e-09 9.5197e-11
-1.86343e-10 -1.55286e-09 9.5197e-11
-1.86343e-10 -1.42863e-09 9.5197e-11
-1.86343e-10 -1.3044e-09 9.5197e-11
-1.86343e-10 -1.18017e-09 9.5197e-11
-1.86343e-10 -1.05594e-09 9.5197e-11
-1.86343e-10 -9.31715e-10 9.5197e-11
-1.86343e-10 -8.07487e-10 9.5197e-11
-1.86343e-10 -6.83258e-10 9.5197e-11
-1.86343e-10 -5.59029e-10 9.5197e-11
-1.86343e-10 -4.34801e-10 9.5197e-11
-1.86343e-10 -3.10572e-10 9.5197e-11
-1.86343e-10 -1.86343e-10 9.5197e-11
-1.86343e-10 -6.21144e-11 9.5197e-11
-1.86343e-10 6.21144e-11 9.5197e-11
-1.86343e-10 1.86343e-10 9.5197e-11
-1.86343e-10 3.10572e-10 9.5197e-11
-1.86343e-10 4.34801e-10 9.5197e-11
-1.86343e-10 5.59029e-10 9.5197e-11
-1.86343e-10 6.83258e-10 9.5197e-11
-1.86343e-10 8.07487e-10 9.5197e-11
-1.86343e-10 9.31715e-10 9.5197e-11
-1.86343e-10 1.05594e-09 9.5197e-11
-1.86343e-10 1.18017e-09 9.5197e-11
-1.86343e-10 1.3044e-09 9.5197e-11
-1.86343e-10 1.42863e-09 9.5197e-11
-1.86343e-10 1.55286e-09 9.5197e-11
-1.86343e-10 1.67709e-09 9.5197e-11
-1.86343e-10 1.80132e-09 9.5197e-11
-1.86343e-10 1.92555e-09 9.5197e-11
-1.86343e-10 2.04977e-09 9.5197e-11
-1.86343e-10 2.174e-09 9.5197e-11
-1.86343e-10 2.29823e-09 9.5197e-11
-1.86343e-10 2.42246e-09 9.5197e-11
-1.86343e-10 2.54669e-09 9.5197e-11
-1.86343e-10 2.67092e-09 9.5197e-11
-1.86343e-10 2.79515e-09 9.5197e-11
-1.86343e-10 2.91938e-09 9.5197e-11
-6.21144e-11 -2.91938e-09 9.5197e-11
-6.21144e-11 -2.79515e-09 9.5197e-11
-6.21144e-11 -2.67092e-09 9.5197e-11
-6.21144e-11 -2.54669e-09 9.5197e-11
-6.21144e-11 -2.42246e-09 9.5197e-11
-6.21144e-11 -2.29823e-09 9.5197e-11
-6.21144e-11 -2.174e-09 9.5197e-11
-6.21144e-11 -2.04977e-09 9.5197e-11
-6.21144e-11 -1.92555e-09 9.5197e-11
-6.21144e-11 -1.80132e-09 9.5197e-11
-6.21144e-11 -1.67709e-09 9.5197e-11
-6.21144e-11 -1.55286e-09 9.5197e-11
-6.21144e-11 -1.42863e-09 9.5197e-11
-6.21144e-11 -1.3044e-09 9.5197e-11
-6.21144e-11 -1.18017e-09 9.5197e-11
-6.21144e-11 -1.05594e-09 9.5197e-11
-6.21144e-11 -9.31715e-10 9.5197e-11
-6.21144e-11 -8.07487e-10 9.5197e-11
-6.21144e-11 -6.83258e-10 9.5197e-11
-6.21144e-11 -5.59029e-10 9.5197e-11
-6.21144e-11 -4.34801e-10 9.5197e-11
-6.21144e-11 -3.10572e-10 9.5197e-11
-6.21144e-11 -1.86343e-10 9.5197e-11
-6.21144e-11 -6.21144e-11 9.5197e-11
-6.21144e-11 6.21144e-11 9.5197e-11
-6.21144e-11 1.86343e-10 9.5197e-11
-6.21144e-11 3.10572e-10 9.5197e-11
-6.21144e-11 4.34801e-10 9.5197e-11
-6.21144e-11 5.59029e-10 9.5197e-11
-6.21144e-11 6.83258e-10 9.5197e-11
-6.21144e-11 8.07487e-10 9.5197e-11
-6.21144e-11 9.31715e-10 9.5197e-11
-6.21144e-11 1.05594e-09 9.5197e-11
-6.21144e-11 1.18017e-09 9.5197e-11
-6.21144e-11 1.3044e-09 9.5197e-11
-6.21144e-11 1.42863e-09 9.5197e-11
-6.21144e-11 1.55286e-09 9.5197e-11
-6.21144e-11 1.67709e-09 9.5197e-11
-6.21144e-11 1.80132e-09 9.5197e-11
-6.21144e-11 1.92555e-09 9.5197e-11
-6.21144e-11 2.04977e-09 9.5197e-11
-6.21144e-11 2.174e-09 9.5197e-11
-6.21144e-11 2.29823e-09 9.5197e-11
-6.21144e-11 2.42246e-09 9.5197e-11
-6.21144e-11 2.54669e-09 9.5197e-11
-6.21144e-11 2.67092e-09 9.5197e-11
-6.21144e-11 2.79515e-09 9.5197e-11
-6.21144e-11 2.91938e-09 9.5197e-11
</DataArray>
</Points>
<PointData Vectors="m">
<DataArray type="Float32" NumberOfComponents="3" Name="m" format="ascii">
-0.00167424 -0.00216988 -0.00277307
-0.00226632 -0.00294074 -0.0037631
-0.00303103 -0.00393813 -0.0050466
-0.00400517 -0.00521117 -0.00668844
-0.00522884 -0.00681378 -0.00876043
-0.00674422 -0.00880322 -0.0113396
-0.00859381 -0.0112379 -0.0145057
-0.010818 -0.0141741 -0.018337
-0.013452 -0.0176625 -0.0229054
-0.0165224 -0.0217425 -0.0282702
-0.0200427 -0.0264378 -0.0344704
-0.0240097 -0.0317492 -0.0415163
-0.0283987 -0.0376494 -0.0493806
-0.0331603 -0.0440769 -0.0579897
-0.0382173 -0.0509321 -0.067217
-0.0434645 -0.0580745 -0.0768782
-0.0487689 -0.0653242 -0.0867311
-0.0539741 -0.0724657 -0.0964806
-0.0589064 -0.0792568 -0.10579
-0.0633841 -0.0854414 -0.114299
-0.067228 -0.0907651 -0.121647
-0.0702746 -0.0949937 -0.127497
-0.0723877 -0.0979314 -0.131569
-0.0734697 -0.0994371 -0.133658
-0.0734697 -0.0994371 -0.133658
-0.0723877 -0.0979314 -0.131569
-0.0702746 -0.0949937 -0.127497
-0.067228 -0.0907651 -0.121647
-0.0633841 -0.0854414 -0.114299
-0.0589064 -0.0792568 -0.10579
-0.0539741 -0.0724657 -0.0964806
-0.0487689 -0.0653242 -0.0867311
-0.0434645 -0.0580745 -0.0768782
-0.0382173 -0.0509321 -0.067217
-0.0331603 -0.0440769 -0.0579897
-0.0283987 -0.0376494 -0.0493806
-0.0240097 -0.0317492 -0.0415163
-0.0200427 -0.0264378 -0.0344704
-0.0165224 -0.0217425 -0.0282702
-0.013452 -0.0176625 -0.0229054
-0.010818 -0.0141741 -0.018337
-0.00859381 -0.0112379 -0.0145057
-0.00674422 -0.00880322 -0.0113396
-0.00522884 -0.00681378 -0.00876043
-0.00400517 -0.00521117 -0.00668844
-0.00303103 -0.00393813 -0.0050466
-0.00226632 -0.00294074 -0.0037631
-0.00167424 -0.00216988 -0.00277307
-0.00111616 -0.00143051 -0.00180572
-0.00152695 -0.0019605 -0.00247957
-0.00206368 -0.0026546 -0.00336442
-0.00275534 -0.00355134 -0.00451086
-0.00363425 -0.00469399 -0.00597622
-0.00473535 -0.00612976 -0.00782372
-0.006095 -0.00790836 -0.0101208
-0.00774925 -0.0100798 -0.0129363
-0.00973159 -0.0126916 -0.0163374
-0.0120702 -0.0157849 -0.0203841
-0.0147844 -0.0193903 -0.0251238
-0.0178814 -0.0235222 -0.0305838
-0.0213524 -0.0281743 -0.0367643
-0.0251688 -0.0333135 -0.0436299
-0.0292798 -0.0388758 -0.0511024
-0.0336102 -0.0447628 -0.0590556
-0.0380605 -0.0508412 -0.0673123
-0.0425088 -0.056944 -0.0756459
-0.0468148 -0.0628765 -0.0837869
-0.0508266 -0.0684253 -0.0914355
-0.0543894 -0.0733705 -0.0982792
-0.0573559 -0.0775007 -0.104015
-0.0595965 -0.0806293 -0.108373
-0.06101 -0.0826096 -0.11114
-0.0615315 -0.0833471 -0.112179
-0.0611378 -0.0828085 -0.11144
-0.0598497 -0.0810234 -0.108968
-0.0577292 -0.0780823 -0.104894
-0.0548747 -0.0741274 -0.099425
-0.0514126 -0.0693405 -0.0928227
-0.0474873 -0.0639277 -0.0853825
-0.0432506 -0.0581042 -0.0774092
-0.0388521 -0.0520798 -0.0691965
-0.0344308 -0.046047 -0.06101
-0.0301085 -0.0401722 -0.0530755
-0.0259854 -0.0345902 -0.0455725
-0.0221389 -0.0294028 -0.0386322
-0.0186226 -0.0246785 -0.0323402
-0.0154685 -0.020456 -0.0267405
-0.0126892 -0.0167477 -0.0218424
-0.0102812 -0.0135448 -0.0176275
-0.00822825 -0.010822 -0.0140566
-0.00650513 -0.00854254 -0.0110763
-0.00508053 -0.00666244 -0.00862478
-0.00391997 -0.005134 -0.00663667
-0.00298804 -0.00390898 -0.00504664
-0.00225025 -0.00294075 -0.00379229
-0.00167424 -0.00218595 -0.00281607
-0.00106047 -0.00135673 -0.00170919
-0.00145317 -0.00186267 -0.00235148
-0.00196715 -0.00252651 -0.00319655
-0.00263061 -0.00338569 -0.00429354
-0.00347512 -0.00448244 -0.00569836
-0.00453487 -0.00586296 -0.00747283
-0.00584562 -0.00757607 -0.00968312
-0.00744299 -0.00967119 -0.0123973
-0.00936029 -0.0121955 -0.0156818
-0.0116258 -0.0151903 -0.0195969
-0.0142596 -0.0186868 -0.0241906
-0.0172697 -0.022701 -0.0294922
-0.020649 -0.0272283 -0.0355044
-0.024371 -0.0322387 -0.0421954
-0.0283875 -0.0376717 -0.0494921
-0.0326262 -0.0434331 -0.057274
-0.0369911 -0.0493941 -0.0653703
-0.0413636 -0.0553927 -0.0735612
-0.0456069 -0.061239 -0.0815841
-0.049572 -0.0667237 -0.0891453
-0.0531066 -0.0716305 -0.0959374
-0.0560649 -0.0757504 -0.101661
-0.0583181 -0.0788978 -0.106047
-0.0597646 -0.0809253 -0.108881
-0.0603381 -0.0817365 -0.110024
-0.0600133 -0.0812947 -0.10942
-0.0588076 -0.0796251 -0.107109
-0.0567797 -0.076813 -0.103214
-0.0540243 -0.0729953 -0.0979335
-0.0506638 -0.0683485 -0.0915229
-0.0468392 -0.0630738 -0.0842706
-0.0426993 -0.0573823 -0.0764757
-0.0383914 -0.0514806 -0.0684277
-0.0340527 -0.0455589 -0.0603891
-0.0298037 -0.0397821 -0.0525841
-0.0257445 -0.0342847 -0.0451918
-0.0219521 -0.0291685 -0.038344
-0.0184809 -0.0245029 -0.0321273
-0.0153634 -0.0203276 -0.0265877
-0.0126131 -0.0166564 -0.0217363
-0.0102276 -0.0134819 -0.0175567
-0.00819176 -0.0107805 -0.0140118
-0.00648127 -0.00851652 -0.01105
-0.00506573 -0.00664733 -0.00861124
-0.00391147 -0.0051263 -0.0066315
-0.00298375 -0.00390607 -0.00504664
-0.00224864 -0.00294075 -0.0037952
-0.00167424 -0.00218756 -0.00282036
-0.000992422 -0.00126658 -0.00159124
-0.00136302 -0.00174316 -0.00219499
-0.0018492 -0.00237002 -0.00299145
-0.00247823 -0.00318332 -0.00402804
-0.00328069 -0.00422398 -0.00535889
-0.00428994 -0.00553699 -0.00704413
-0.00554095 -0.0071701 -0.00914844
-0.00706882 -0.00917196 -0.0117388
-0.00890665 -0.0115894 -0.0148809
-0.0110829 -0.0144638 -0.0186351
-0.0136183 -0.0178273 -0.0230505
-0.0165224 -0.0216975 -0.0281584
-0.0197896 -0.0260725 -0.0339648
-0.0233963 -0.0309255 -0.0404425
-0.0272972 -0.0362004 -0.0475243
-0.031424 -0.0418082 -0.0550966
-0.0356845 -0.0476257 -0.0629966
-0.0399644 -0.0534969 -0.071013
-0.0441309 -0.0592376 -0.0788913
-0.0480388 -0.064644 -0.0863455
-0.0515389 -0.0695038 -0.0930742
-0.0544871 -0.073611 -0.0987818
-0.0567557 -0.0767812 -0.103201
-0.0582426 -0.0788664 -0.106118
-0.0588797 -0.0797677 -0.107388
-0.058639 -0.0794442 -0.10695
-0.0575341 -0.0779158 -0.104835
-0.0556195 -0.0752615 -0.101159
-0.052985 -0.0716116 -0.0961096
-0.0497487 -0.067136 -0.0899337
-0.0460472 -0.0620302 -0.0829112
-0.0420257 -0.0565001 -0.0753346
-0.0378285 -0.0507484 -0.0674879
-0.0335906 -0.0449623 -0.0596301
-0.0294314 -0.0393054 -0.0519836
-0.0254501 -0.0339113 -0.0447266
-0.0217239 -0.0288821 -0.0379918
-0.0183077 -0.0242882 -0.0318673
-0.0152348 -0.0201706 -0.026401
-0.0125201 -0.0165448 -0.0216066
-0.0101621 -0.0134052 -0.0174702
-0.00814719 -0.0107297 -0.013957
-0.00645211 -0.00848473 -0.0110179
-0.00504765 -0.00662887 -0.00859469
-0.00390108 -0.00511689 -0.00662519
-0.00297851 -0.00390251 -0.00504664
-0.00224668 -0.00294075 -0.00379876
-0.00167424 -0.00218952 -0.0028256
-0.000907413 -0.00115396 -0.00144389
-0.0012504 -0.00159384 -0.00199947
-0.00170185 -0.0021745 -0.00273521
-0.00228784 -0.00293048 -0.00369633
-0.0030378 -0.00390108 -0.00493477
-0.00398393 -0.00512973 -0.00650853
-0.0051603 -0.0066629 -0.00848043
-0.00660135 -0.00854823 -0.010916
-0.00833989 -0.0108321 -0.0138802
-0.0104047 -0.0135561 -0.0174334
-0.0128172 -0.0167535 -0.0216261
-0.0155887 -0.0204438 -0.0264919
-0.0187159 -0.0246284 -0.032041
-0.0221784 -0.0292847 -0.0382521
-0.025935 -0.0343621 -0.0450651
-0.0299218 -0.0397778 -0.0523754
-0.0340518 -0.0454159 -0.0600299
-0.0382159 -0.0511277 -0.0678278
-0.0422865 -0.0567364 -0.075525
-0.046123 -0.0620446 -0.082845
-0.0495798 -0.0668455 -0.089494
-0.0525154 -0.0709368 -0.0951816
-0.0548032 -0.0741354 -0.0996431
-0.0563404 -0.0762926 -0.102662
-0.057057 -0.0773065 -0.104091
-0.0569214 -0.0771308 -0.10386
-0.0559426 -0.0757789 -0.101992
-0.0541695 -0.0733219 -0.0985884
-0.0516862 -0.0698818 -0.0938286
-0.0486051 -0.0656204 -0.0879463
-0.0450574 -0.0607257 -0.0812115
-0.0411839 -0.0553974 -0.0739079
-0.037125 -0.0498332 -0.066313
-0.0330132 -0.0442168 -0.0586814
-0.0289661 -0.0387096 -0.0512329
-0.0250822 -0.0334447 -0.0441452
-0.0214388 -0.0285244 -0.0375517
-0.0180913 -0.02402 -0.0315424
-0.0150743 -0.0199745 -0.0261677
-0.0124039 -0.0164054 -0.0214445
-0.0100804 -0.0133093 -0.017362
-0.0080915 -0.0106664 -0.0138885
-0.00641569 -0.00844502 -0.0109777
-0.00502506 -0.00660582 -0.00857402
-0.0038881 -0.00510513 -0.0066173
-0.00297196 -0.00389807 -0.00504665
-0.00224423 -0.00294075 -0.00380321
-0.00167424 -0.00219197 -0.00283215
-0.000798184 -0.00100925 -0.00125456
-0.00110569 -0.00140198 -0.00174825
-0.00151252 -0.00192328 -0.00240596
-0.00204322 -0.00260561 -0.00327012
-0.00272569 -0.00348617 -0.00438981
-0.00359074 -0.00460645 -0.00582033
-0.00467121 -0.00601119 -0.00762209
-0.00600068 -0.00774679 -0.00985874
-0.00761165 -0.00985899 -0.0125943
-0.00953313 -0.0123898 -0.0158893
-0.0117878 -0.0153736 -0.0197956
-0.0143889 -0.0188328 -0.0243503
-0.0173363 -0.0227726 -0.0295688
-0.0206135 -0.0271761 -0.035437
-0.0241845 -0.0319995 -0.0419044
-0.0279914 -0.0371683 -0.0488774
-0.0319536 -0.0425757 -0.056216
-0.0359689 -0.0480824 -0.0637324
-0.0399161 -0.0535211 -0.0711963
-0.0436607 -0.0587029 -0.078343
-0.0470617 -0.063428 -0.0848889
-0.0499811 -0.0674985 -0.0905503
-0.0522934 -0.0707334 -0.0950654
-0.0538953 -0.0729831 -0.0982161
-0.0547141 -0.0741415 -0.0998482
-0.0547135 -0.074156 -0.0998847
-0.0538967 -0.0730311 -0.0983325
-0.0523056 -0.0708279 -0.0952814
-0.0500167 -0.0676576 -0.090894
-0.0471352 -0.0636717 -0.0853897
-0.0437853 -0.0590486 -0.0790251
-0.040102 -0.0539799 -0.072073
-0.036221 -0.0486567 -0.0648022
-0.0322712 -0.0432586 -0.0574616
-0.0283682 -0.037944 -0.0502679
-0.0246095 -0.0328451 -0.0433979
-0.0210724 -0.0280646 -0.036986
-0.0178132 -0.0236754 -0.0311247
-0.0148679 -0.0197225 -0.0258679
-0.0122545 -0.0162263 -0.0212363
-0.00997527 -0.013186 -0.017223
-0.00801994 -0.0105849 -0.0138006
-0.00636889 -0.00839398 -0.0109262
-0.00499603 -0.00657619 -0.00854746
-0.00387142 -0.00509003 -0.00660716
-0.00296355 -0.00389236 -0.00504665
-0.00224109 -0.00294075 -0.00380892
-0.00167424 -0.00219511 -0.00284057
-0.00065267 -0.000816465 -0.00100233
-0.000912904 -0.0011464 -0.00141358
-0.00126029 -0.00158861 -0.00196734
-0.00171734 -0.00217282 -0.00270232
-0.00230991 -0.00293344 -0.00366382
-0.00306693 -0.00390934 -0.00490351
-0.00401964 -0.00514298 -0.0064786
-0.00520048 -0.0066791 -0.00845027
-0.00664148 -0.00856264 -0.0108812
-0.00837208 -0.010836 -0.0138321
-0.0104165 -0.0135353 -0.0173568
-0.0127905 -0.0166865 -0.0214969
-0.0154982 -0.0203001 -0.0262746
-0.0185285 -0.0243666 -0.0316858
-0.0218523 -0.0288514 -0.0376921
-0.0254194 -0.0336911 -0.0442153
-0.0291579 -0.0387907 -0.051132
-0.0329748 -0.0440239 -0.0582726
-0.0367575 -0.0492357 -0.0654244
-0.0403793 -0.0542486 -0.0723392
-0.0437059 -0.058872 -0.0787465
-0.0466034 -0.0629144 -0.084372
-0.0489483 -0.0661975 -0.0889576
-0.0506364 -0.0685702 -0.0922834
-0.0515913 -0.0699213 -0.0941872
-0.0517707 -0.0701893 -0.0945793
-0.0511699 -0.0693672 -0.0934497
-0.0498213 -0.0675024 -0.0908688
-0.0477917 -0.0646921 -0.0869787
-0.0451762 -0.0610737 -0.0819791
-0.04209 -0.0568129 -0.0761088
-0.0386602 -0.0520903 -0.0696258
-0.0350163 -0.0470887 -0.0627875
-0.0312825 -0.0419814 -0.0558353
-0.0275715 -0.0369236 -0.0489814
-0.0239796 -0.032046 -0.0424017
-0.0205842 -0.0274519 -0.036232
-0.0174427 -0.0232162 -0.0305681
-0.014593 -0.0193868 -0.0254684
-0.0120556 -0.0159876 -0.0209587
-0.00983526 -0.0130218 -0.0170379
-0.0079246 -0.0104764 -0.0136834
-0.00630654 -0.00832599 -0.0108574
-0.00495735 -0.00653672 -0.00851206
-0.0038492 -0.0050699 -0.00659365
-0.00295234 -0.00388476 -0.00504666
-0.0022369 -0.00294075 -0.00381652
-0.00167424 -0.0021993 -0.00285178
-0.000449185 -0.000546879 -0.000649618
-0.000643318 -0.000788979 -0.000945581
-0.000907579 -0.00112061 -0.00135398
-0.00126162 -0.0015676 -0.0019083
-0.00172849 -0.0021605 -0.00264858
-0.00233444 -0.00293449 -0.00362141
-0.00310848 -0.00392886 -0.0048795
-0.00408147 -0.00518602 -0.00648061
-0.00528478 -0.00674978 -0.0084855
-0.00674842 -0.00866299 -0.010955
-0.00849865 -0.0109644 -0.013946
-0.0105551 -0.0136847 -0.017506
-0.0129276 -0.0168421 -0.021667
-0.0156126 -0.0204371 -0.0264383
-0.0185904 -0.0244481 -0.0317992
-0.021822 -0.0288269 -0.0376922
-0.0252476 -0.0334955 -0.0440175
-0.0287866 -0.0383455 -0.0506308
-0.0323389 -0.0432392 -0.0573443
-0.0357888 -0.0480151 -0.0639326
-0.039011 -0.0524957 -0.0701444
-0.0418777 -0.0564982 -0.0757179
-0.044268 -0.0598481 -0.0804008
-0.0460764 -0.0623926 -0.0839707
-0.0472216 -0.0640132 -0.0862546
-0.047653 -0.064636 -0.0871446
-0.0473544 -0.0642377 -0.0866074
-0.0463452 -0.062847 -0.0846857
-0.0446784 -0.0605409 -0.0814929
-0.0424352 -0.0574372 -0.0772012
-0.0397182 -0.0536837 -0.0720242
-0.0366432 -0.0494458 -0.0661988
-0.033331 -0.0448944 -0.0599668
-0.0298994 -0.0401944 -0.0535586
-0.0264571 -0.035496 -0.0471807
-0.0230987 -0.0309282 -0.0410076
-0.0199015 -0.0265949 -0.035177
-0.0169245 -0.0225738 -0.0297893
-0.0142086 -0.0189172 -0.0249095
-0.0117773 -0.0156538 -0.0205706
-0.00963946 -0.0127922 -0.0167789
-0.00779128 -0.0103247 -0.0135195
-0.00621935 -0.0082309 -0.0107613
-0.00490327 -0.00648152 -0.00846256
-0.00381813 -0.00504176 -0.00657475
-0.00293666 -0.00387412 -0.00504666
-0.00223104 -0.00294075 -0.00382716
-0.00167424 -0.00220516 -0.00286746
-0.000144478 -0.000143191 -0.000121453
-0.00023963 -0.000253772 -0.000244776
-0.000379414 -0.000419806 -0.000435501
-0.000579217 -0.000661326 -0.000719315
-0.000857837 -0.00100307 -0.00112832
-0.00123757 -0.0014747 -0.00170152
-0.00174406 -0.00211078 -0.00248491
-0.0024058 -0.00295018 -0.00353106
-0.00325316 -0.00403504 -0.00489788
-0.00431703 -0.00540895 -0.00664647
-0.00562674 -0.00711439 -0.00883794
-0.00720762 -0.00918933 -0.0115289
-0.00907796 -0.0116631 -0.0147656
-0.0112457 -0.0145517 -0.0185778
-0.0137053 -0.0178527 -0.0229708
-0.0164341 -0.0215406 -0.0279181
-0.0193906 -0.0255629 -0.0333556
-0.0225131 -0.0298377 -0.0391764
-0.0257198 -0.0342538 -0.04523
-0.0289118 -0.0386734 -0.051326
-0.0319771 -0.0429385 -0.0572412
-0.0347972 -0.04688 -0.0627338
-0.037255 -0.0503289 -0.0675601
-0.0392434 -0.0531301 -0.071494
-0.0406736 -0.0551541 -0.0743468
-0.0414823 -0.0563086 -0.0759836
-0.0416365 -0.0565459 -0.0763354
-0.0411362 -0.0558662 -0.0754038
-0.0400133 -0.0543165 -0.0732589
-0.0383282 -0.0519851 -0.0700308
-0.0361644 -0.0489928 -0.0658953
-0.0336212 -0.045482 -0.0610578
-0.0308062 -0.0416058 -0.0557362
-0.0278276 -0.0375165 -0.0501447
-0.0247879 -0.033357 -0.0444812
-0.0217791 -0.0292534 -0.038918
-0.0188788 -0.0253109 -0.0335959
-0.0161484 -0.0216116 -0.0286225
-0.0136328 -0.0182138 -0.0240721
-0.0113606 -0.0151538 -0.019989
-0.00934625 -0.0124483 -0.0163909
-0.00759162 -0.0100975 -0.0132739
-0.00608878 -0.0080885 -0.0106174
-0.00482228 -0.00639885 -0.00838842
-0.00377161 -0.00499961 -0.00654645
-0.00291319 -0.0038582 -0.00504666
-0.00222226 -0.00294075 -0.00384309
-0.00167424 -0.00221394 -0.00289093
0.000361998 0.00052781 0.000756454
0.000431371 0.000635839 0.000920088
0.000498493 0.000745058 0.00109117
0.000555063 0.000845066 0.001257
0.000589342 0.000920801 0.00139863
0.000585623 0.000951732 0.0014897
0.000523849 0.000911226 0.00149537
0.000379489 0.00076623 0.00137171
0.000123779 0.000477421 0.00106557
-0.000275551 5.8773e-09 0.000515446
-0.000852985 -0.00071469 -0.000346782
-0.00164327 -0.0017167 -0.00159263
-0.00267883 -0.00305394 -0.00329242
-0.00398658 -0.00476775 -0.00550919
-0.00558431 -0.00688772 -0.00829132
-0.00747699 -0.00942613 -0.0116643
-0.00965322 -0.0123726 -0.0156223
-0.0120826 -0.0156895 -0.0201211
-0.014714 -0.0193093 -0.0250726
-0.0174762 -0.0231342 -0.0303439
-0.0202796 -0.0270386 -0.0357597
-0.0230212 -0.030876 -0.0411115
-0.0255905 -0.0344876 -0.0461707
-0.0278775 -0.0377139 -0.0507059
-0.0297811 -0.0404077 -0.0545025
-0.0312171 -0.0424462 -0.0573812
-0.0321245 -0.0437411 -0.0592134
-0.0324707 -0.0442451 -0.059932
-0.0322526 -0.0439549 -0.0595345
-0.0314962 -0.0429097 -0.0580805
-0.0302531 -0.041185 -0.0556826
-0.0285949 -0.0388853 -0.0524932
-0.0266071 -0.0361336 -0.04869
-0.0243819 -0.0330611 -0.0444602
-0.0220121 -0.0297985 -0.0399873
-0.0195849 -0.0264676 -0.0354402
-0.0171785 -0.0231756 -0.0309651
-0.0148582 -0.0200115 -0.0266812
-0.0126756 -0.0170442 -0.0226793
-0.0106679 -0.0143225 -0.0190218
-0.00885881 -0.0118765 -0.0157457
-0.00725972 -0.00971971 -0.0128657
-0.00587172 -0.00785177 -0.010378
-0.00468766 -0.00626143 -0.00826514
-0.00369427 -0.00492954 -0.00649939
-0.00287417 -0.00383172 -0.00504666
-0.00220768 -0.00294075 -0.00386957
-0.00167424 -0.00222853 -0.00292995
0.00136983 0.00186303 0.00250339
0.00176659 0.00240606 0.00323803
0.00224543 0.003063 0.00412906
0.00281215 0.00384259 0.00518959
0.00346905 0.00474903 0.00642686
0.00421353 0.00577996 0.00783961
0.00503665 0.00692447 0.00941518
0.00592174 0.00816108 0.0111267
0.00684324 0.00945602 0.0129305
0.00776607 0.0107621 0.0147641
0.0086455 0.0120181 0.0165451
0.00942799 0.0131501 0.0181723
0.010053 0.0140731 0.0195276
0.0104559 0.0146952 0.0204812
0.0105722 0.0149233 0.0208992
0.0103425 0.0146699 0.0206534
0.00971815 0.0138621 0.0196336
0.00866733 0.0124495 0.0177608
0.00718033 0.0104132 0.0149999
0.0052736 0.00777228 0.0113702
0.00299194 0.0045873 0.00695262
0.000407951 0.000960258 0.00188942
-0.00238129 -0.00296998 -0.00362127
-0.00526034 -0.00703666 -0.00933882
-0.00810376 -0.0110576 -0.0149987
-0.0107858 -0.0148499 -0.0203348
-0.0131904 -0.0182449 -0.0251024
-0.0152199 -0.0211016 -0.029098
-0.0168019 -0.0233168 -0.0321754
-0.0178938 -0.0248315 -0.0342534
-0.0184833 -0.0256312 -0.0353175
-0.0185871 -0.0257439 -0.0354139
-0.0182465 -0.0252323 -0.0346391
-0.0175218 -0.024186 -0.0331259
-0.0164857 -0.0227107 -0.0310284
-0.0152168 -0.0209194 -0.0285082
-0.0137937 -0.0189233 -0.0257222
-0.0122898 -0.0168254 -0.0228134
-0.0107702 -0.0147155 -0.0199046
-0.00928912 -0.0126675 -0.0170954
-0.00788867 -0.0107383 -0.0144609
-0.00659918 -0.00896775 -0.0120527
-0.00543976 -0.00738056 -0.0099014
-0.00441975 -0.00598791 -0.00801968
-0.00354036 -0.00479008 -0.00640567
-0.00279652 -0.00377902 -0.00504662
-0.00217865 -0.00294074 -0.00392223
-0.00167424 -0.00225755 -0.00300758
0.00167424 0.00226632 0.00303103
0.00216988 0.00294074 0.00393813
0.00277307 0.0037631 0.0050466
0.00349387 0.00474795 0.00637735
0.00433882 0.00590527 0.00794551
0.00530928 0.00723821 0.00975737
0.00639965 0.00874057 0.011807
0.00759561 0.0103944 0.0140725
0.00887261 0.0121675 0.0165132
0.0101946 0.0140119 0.0190659
0.0115139 0.0158627 0.0216442
0.0127711 0.0176384 0.0241374
0.0138973 0.019243 0.0264129
0.0148163 0.0205692 0.0283205
0.0154496 0.0215046 0.0297005
0.0157212 0.0219393 0.0303937
0.0155645 0.0217747 0.030255
0.014929 0.0209345 0.0291686
0.0137866 0.0193739 0.0270626
0.0121374 0.0170883 0.0239231
0.0100127 0.014119 0.0198029
0.00747602 0.0105549 0.0148253
0.00462049 0.00652876 0.00917924
0.00156319 0.00220971 0.00310834
-0.00156319 -0.00220971 -0.00310834
-0.00462049 -0.00652876 -0.00917924
-0.00747602 -0.0105549 -0.0148253
-0.0100127 -0.014119 -0.0198029
-0.0121374 -0.0170883 -0.0239231
-0.0137866 -0.0193739 -0.0270626
-0.014929 -0.0209345 -0.0291686
-0.0155645 -0.0217747 -0.030255
-0.0157212 -0.0219393 -0.0303937
-0.0154496 -0.0215046 -0.0297005
-0.0148163 -0.0205692 -0.0283205
-0.0138973 -0.019243 -0.0264129
-0.0127711 -0.0176384 -0.0241374
-0.0115139 -0.0158627 -0.0216442
-0.0101946 -0.0140119 -0.0190659
-0.00887261 -0.0121675 -0.0165132
-0.00759561 -0.0103944 -0.0140725
-0.00639965 -0.00874057 -0.011807
-0.00530928 -0.00723821 -0.00975737
-0.00433882 -0.00590527 -0.00794551
-0.00349387 -0.00474795 -0.00637735
-0.00277307 -0.0037631 -0.0050466
-0.00216988 -0.00294074 -0.00393813
-0.00167424 -0.00226632 -0.00303103
0.00167424 0.00226632 0.00303103
0.00216988 0.00294074 0.00393813
0.00277307 0.0037631 0.0050466
0.00349387 0.00474795 0.00637735
0.00433882 0.00590527 0.00794551
0.00530928 0.00723821 0.00975737
0.00639965 0.00874057 0.011807
0.00759561 0.0103944 0.0140725
0.00887261 0.0121675 0.0165132
0.0101946 0.0140119 0.0190659
0.0115139 0.0158627 0.0216442
0.0127711 0.0176384 0.0241374
0.0138973 0.019243 0.0264129
0.0148163 0.0205692 0.0283205
0.0154496 0.0215046 0.0297005
0.0157212 0.0219393 0.0303937
0.0155645 0.0217747 0.030255
0.014929 0.0209345 0.0291686
0.0137866 0.0193739 0.0270626
0.0121374 0.0170883 0.0239231
0.0100127 0.014119 0.0198029
0.00747602 0.0105549 0.0148253
0.00462049 0.00652876 0.00917924
0.00156319 0.00220971 0.00310834
-0.00156319 -0.00220971 -0.00310834
-0.00462049 -0.00652876 -0.00917924
-0.00747602 -0.0105549 -0.0148253
-0.0100127 -0.014119 -0.0198029
-0.0121374 -0.0170883 -0.0239231
-0.0137866 -0.0193739 -0.0270626
-0.014929 -0.0209345 -0.0291686
-0.0155645 -0.0217747 -0.030255
-0.0157212 -0.0219393 -0.0303937
-0.0154496 -0.0215046 -0.0297005
-0.0148163 -0.0205692 -0.0283205
-0.0138973 -0.019243 -0.0264129
-0.0127711 -0.0176384 -0.0241374
-0.0115139 -0.0158627 -0.0216442
-0.0101946 -0.0140119 -0.0190659
-0.00887261 -0.0121675 -0.0165132
-0.00759561 -0.0103944 -0.0140725
-0.00639965 -0.00874057 -0.011807
-0.00530928 -0.00723821 -0.00975737
-0.00433882 -0.00590527 -0.00794551
-0.00349387 -0.00474795 -0.00637735
-0.00277307 -0.0037631 -0.0050466
-0.00216988 -0.00294074 -0.00393813
-0.00167424 -0.00226632 -0.00303103
0.00167424 0.00225755 0.00300758
0.00217865 0.00294074 0.00392223
0.00279652 0.00377902 0.00504662
0.00354036 0.00479008 0.00640567
0.00441975 0.00598791 0.00801968
0.00543976 0.00738056 0.0099014
0.00659918 0.00896775 0.0120527
0.00788867 0.0107383 0.0144609
0.00928912 0.0126675 0.0170954
0.0107702 0.0147155 0.0199046
0.0122898 0.0168254 0.0228134
0.0137937 0.0189233 0.0257222
0.0152168 0.0209194 0.0285082
0.0164857 0.0227107 0.0310284
0.0175218 0.024186 0.0331259
0.0182465 0.0252323 0.0346391
0.0185871 0.0257439 0.0354139
0.0184833 0.0256312 0.0353175
0.0178938 0.0248315 0.0342534
0.0168019 0.0233168 0.0321754
0.0152199 0.0211016 0.029098
0.0131904 0.0182449 0.0251024
0.0107858 0.0148499 0.0203348
0.00810376 0.0110576 0.0149987
0.00526034 0.00703666 0.00933882
0.00238129 0.00296998 0.00362127
-0.000407951 -0.000960258 -0.00188942
-0.00299194 -0.0045873 -0.00695262
-0.0052736 -0.00777228 -0.0113702
-0.00718033 -0.0104132 -0.0149999
-0.00866733 -0.0124495 -0.0177608
-0.00971815 -0.0138621 -0.0196336
-0.0103425 -0.0146699 -0.0206534
-0.0105722 -0.0149233 -0.0208992
-0.0104559 -0.0146952 -0.0204812
-0.010053 -0.0140731 -0.0195276
-0.00942799 -0.0131501 -0.0181723
-0.0086455 -0.0120181 -0.0165451
-0.00776607 -0.0107621 -0.0147641
-0.00684324 -0.00945602 -0.0129305
-0.00592174 -0.00816108 -0.0111267
-0.00503665 -0.00692447 -0.00941518
-0.00421353 -0.00577996 -0.00783961
-0.00346905 -0.00474903 -0.00642686
-0.00281215 -0.00384259 -0.00518959
-0.00224543 -0.003063 -0.00412905
-0.00176659 -0.00240606 -0.00323803
-0.00136983 -0.00186303 -0.00250339
0.00167424 0.00222853 0.00292995
0.00220768 0.00294075 0.00386957
0.00287417 0.00383172 0.00504666
0.00369427 0.00492954 0.00649939
0.00468766 0.00626143 0.00826514
0.00587172 0.00785177 0.010378
0.00725972 0.00971971 0.0128657
0.00885881 0.0118765 0.0157457
0.0106679 0.0143225 0.0190218
0.0126756 0.0170442 0.0226793
0.0148582 0.0200115 0.0266812
0.0171785 0.0231756 0.0309651
0.0195849 0.0264676 0.0354402
0.0220121 0.0297985 0.0399873
0.0243819 0.0330611 0.0444602
0.0266071 0.0361336 0.04869
0.0285949 0.0388854 0.0524932
0.0302531 0.041185 0.0556826
0.0314962 0.0429097 0.0580805
0.0322526 0.0439549 0.0595345
0.0324707 0.0442451 0.059932
0.0321245 0.0437411 0.0592134
0.0312171 0.0424462 0.0573812
0.0297811 0.0404077 0.0545025
0.0278775 0.0377139 0.0507059
0.0255905 0.0344876 0.0461707
0.0230212 0.030876 0.0411115
0.0202796 0.0270386 0.0357597
0.0174762 0.0231342 0.0303439
0.014714 0.0193093 0.0250726
0.0120826 0.0156895 0.0201211
0.00965322 0.0123726 0.0156223
0.00747699 0.00942613 0.0116643
0.00558431 0.00688772 0.00829132
0.00398658 0.00476775 0.00550919
0.00267883 0.00305394 0.00329242
0.00164327 0.0017167 0.00159263
0.000852985 0.00071469 0.000346782
0.000275551 -5.8773e-09 -0.000515446
-0.000123779 -0.000477421 -0.00106557
-0.000379489 -0.00076623 -0.00137171
-0.000523849 -0.000911226 -0.00149537
-0.000585623 -0.000951732 -0.0014897
-0.000589342 -0.000920801 -0.00139863
-0.000555063 -0.000845066 -0.001257
-0.000498493 -0.000745058 -0.00109117
-0.000431371 -0.000635839 -0.000920088
-0.000361998 -0.00052781 -0.000756454
0.00167424 0.00221394 0.00289093
0.00222226 0.00294075 0.00384309
0.00291319 0.0038582 0.00504666
0.00377161 0.00499961 0.00654645
0.00482228 0.00639885 0.00838842
0.00608878 0.0080885 0.0106174
0.00759162 0.0100975 0.0132739
0.00934625 0.0124483 0.0163909
0.0113606 0.0151538 0.019989
0.0136328 0.0182138 0.0240721
0.0161484 0.0216116 0.0286225
0.0188788 0.0253109 0.0335959
0.0217791 0.0292534 0.038918
0.0247879 0.033357 0.0444812
0.0278276 0.0375165 0.0501447
0.0308062 0.0416058 0.0557362
0.0336212 0.045482 0.0610578
0.0361644 0.0489928 0.0658953
0.0383282 0.0519851 0.0700308
0.0400133 0.0543165 0.0732589
0.0411362 0.0558662 0.0754038
0.0416365 0.0565459 0.0763354
0.0414823 0.0563086 0.0759836
0.0406736 0.0551541 0.0743468
0.0392434 0.0531301 0.071494
0.037255 0.0503289 0.0675601
0.0347972 0.04688 0.0627338
0.0319771 0.0429385 0.0572412
0.0289118 0.0386734 0.051326
0.0257198 0.0342538 0.04523
0.0225131 0.0298377 0.0391763
0.0193906 0.0255629 0.0333556
0.0164341 0.0215406 0.0279181
0.0137053 0.0178527 0.0229708
0.0112457 0.0145517 0.0185778
0.00907796 0.0116631 0.0147656
0.00720762 0.00918933 0.0115289
0.00562674 0.00711439 0.00883794
0.00431703 0.00540895 0.00664647
0.00325316 0.00403504 0.00489788
0.0024058 0.00295018 0.00353106
0.00174406 0.00211078 0.00248491
0.00123757 0.0014747 0.00170152
0.000857837 0.00100307 0.00112832
0.000579217 0.000661326 0.000719315
0.000379414 0.000419806 0.000435501
0.00023963 0.000253772 0.000244776
0.000144478 0.000143191 0.000121453
0.00167424 0.00220516 0.00286746
0.00223104 0.00294075 0.00382716
0.00293666 0.00387412 0.00504666
0.00381813 0.00504176 0.00657475
0.00490327 0.00648152 0.00846256
0.00621935 0.0082309 0.0107613
0.00779128 0.0103247 0.0135195
0.00963947 0.0127922 0.0167789
0.0117773 0.0156538 0.0205706
0.0142086 0.0189172 0.0249095
0.0169245 0.0225738 0.0297893
0.0199015 0.0265949 0.035177
0.0230987 0.0309282 0.0410076
0.0264571 0.035496 0.0471807
0.0298994 0.0401944 0.0535586
0.033331 0.0448944 0.0599668
0.0366432 0.0494458 0.0661988
0.0397182 0.0536837 0.0720242
0.0424352 0.0574372 0.0772012
0.0446784 0.0605409 0.0814929
0.0463452 0.062847 0.0846857
0.0473544 0.0642377 0.0866074
0.047653 0.064636 0.0871446
0.0472216 0.0640132 0.0862546
0.0460764 0.0623926 0.0839707
0.044268 0.0598481 0.0804009
0.0418777 0.0564982 0.0757179
0.039011 0.0524957 0.0701444
0.0357888 0.0480151 0.0639326
0.0323389 0.0432392 0.0573443
0.0287866 0.0383455 0.0506308
0.0252476 0.0334955 0.0440175
0.021822 0.0288269 0.0376922
0.0185904 0.0244481 0.0317992
0.0156126 0.0204371 0.0264383
0.0129276 0.0168421 0.021667
0.0105551 0.0136847 0.017506
0.00849865 0.0109644 0.013946
0.00674842 0.00866299 0.010955
0.00528478 0.00674978 0.0084855
0.00408147 0.00518602 0.00648061
0.00310848 0.00392886 0.0048795
0.00233444 0.00293449 0.00362141
0.00172849 0.0021605 0.00264858
0.00126162 0.0015676 0.0019083
0.000907579 0.00112061 0.00135398
0.000643318 0.000788979 0.000945581
0.000449185 0.000546879 0.000649618
0.00167424 0.0021993 0.00285178
0.0022369 0.00294075 0.00381652
0.00295234 0.00388476 0.00504666
0.0038492 0.0050699 0.00659365
0.00495735 0.00653672 0.00851206
0.00630654 0.00832599 0.0108574
0.0079246 0.0104764 0.0136834
0.00983526 0.0130218 0.0170379
0.0120556 0.0159876 0.0209587
0.014593 0.0193868 0.0254684
0.0174427 0.0232162 0.0305681
0.0205842 0.0274519 0.036232
0.0239796 0.032046 0.0424017
0.0275715 0.0369236 0.0489814
0.0312825 0.0419814 0.0558353
0.0350163 0.0470887 0.0627875
0.0386602 0.0520903 0.0696258
0.04209 0.0568129 0.0761088
0.0451762 0.0610737 0.0819791
0.0477917 0.0646921 0.0869787
0.0498213 0.0675024 0.0908688
0.0511699 0.0693672 0.0934497
0.0517707 0.0701893 0.0945793
0.0515913 0.0699213 0.0941872
0.0506364 0.0685702 0.0922834
0.0489483 0.0661975 0.0889576
0.0466034 0.0629144 0.084372
0.0437059 0.058872 0.0787465
0.0403793 0.0542486 0.0723392
0.0367575 0.0492357 0.0654244
0.0329748 0.0440239 0.0582726
0.0291579 0.0387907 0.051132
0.0254194 0.0336911 0.0442153
0.0218523 0.0288514 0.0376921
0.0185285 0.0243666 0.0316858
0.0154982 0.0203001 0.0262746
0.0127905 0.0166865 0.0214969
0.0104165 0.0135353 0.0173568
0.00837208 0.010836 0.0138321
0.00664148 0.00856264 0.0108812
0.00520048 0.0066791 0.00845027
0.00401964 0.00514298 0.0064786
0.00306693 0.00390934 0.00490351
0.00230991 0.00293344 0.00366382
0.00171734 0.00217282 0.00270232
0.00126029 0.00158861 0.00196734
0.000912904 0.0011464 0.00141358
0.00065267 0.000816465 0.00100233
0.00167424 0.00219511 0.00284057
0.00224109 0.00294075 0.00380892
0.00296355 0.00389236 0.00504665
0.00387142 0.00509003 0.00660716
0.00499603 0.00657619 0.00854746
0.00636889 0.00839398 0.0109262
0.00801994 0.0105849 0.0138006
0.00997527 0.013186 0.017223
0.0122545 0.0162263 0.0212363
0.0148679 0.0197225 0.0258679
0.0178132 0.0236754 0.0311247
0.0210724 0.0280646 0.036986
0.0246095 0.0328451 0.0433979
0.0283682 0.037944 0.0502679
0.0322712 0.0432586 0.0574616
0.036221 0.0486567 0.0648022
0.040102 0.0539799 0.072073
0.0437853 0.0590486 0.0790251
0.0471352 0.0636717 0.0853897
0.0500167 0.0676576 0.090894
0.0523056 0.0708279 0.0952814
0.0538967 0.0730311 0.0983325
0.0547135 0.074156 0.0998847
0.0547141 0.0741415 0.0998483
0.0538953 0.0729831 0.0982162
0.0522934 0.0707334 0.0950654
0.0499811 0.0674985 0.0905503
0.0470617 0.063428 0.0848889
0.0436607 0.0587029 0.078343
0.0399161 0.0535211 0.0711963
0.0359689 0.0480824 0.0637325
0.0319536 0.0425757 0.056216
0.0279914 0.0371683 0.0488774
0.0241845 0.0319995 0.0419044
0.0206135 0.0271761 0.035437
0.0173363 0.0227726 0.0295688
0.0143889 0.0188328 0.0243503
0.0117878 0.0153736 0.0197956
0.00953313 0.0123898 0.0158893
0.00761165 0.00985899 0.0125943
0.00600068 0.00774679 0.00985874
0.00467121 0.00601119 0.00762209
0.00359074 0.00460645 0.00582033
0.00272569 0.00348617 0.00438981
0.00204322 0.00260561 0.00327012
0.00151252 0.00192328 0.00240596
0.00110569 0.00140198 0.00174825
0.000798184 0.00100925 0.00125456
0.00167424 0.00219197 0.00283215
0.00224423 0.00294075 0.00380321
0.00297196 0.00389807 0.00504665
0.0038881 0.00510513 0.0066173
0.00502506 0.00660582 0.00857402
0.00641569 0.00844502 0.0109777
0.0080915 0.0106664 0.0138885
0.0100804 0.0133093 0.017362
0.0124039 0.0164054 0.0214445
0.0150743 0.0199745 0.0261677
0.0180913 0.02402 0.0315424
0.0214388 0.0285244 0.0375517
0.0250822 0.0334447 0.0441452
0.0289661 0.0387096 0.0512329
0.0330132 0.0442168 0.0586814
0.037125 0.0498332 0.066313
0.0411839 0.0553974 0.0739078
0.0450574 0.0607257 0.0812115
0.0486051 0.0656204 0.0879463
0.0516862 0.0698818 0.0938286
0.0541695 0.0733219 0.0985884
0.0559426 0.0757789 0.101992
0.0569214 0.0771308 0.10386
0.057057 0.0773065 0.104091
0.0563404 0.0762926 0.102662
0.0548032 0.0741354 0.0996431
0.0525154 0.0709368 0.0951816
0.0495798 0.0668455 0.089494
0.046123 0.0620446 0.082845
0.0422865 0.0567364 0.075525
0.0382159 0.0511277 0.0678278
0.0340518 0.0454159 0.0600299
0.0299218 0.0397778 0.0523754
0.025935 0.0343621 0.0450651
0.0221784 0.0292847 0.0382521
0.0187159 0.0246284 0.032041
0.0155887 0.0204438 0.0264919
0.0128172 0.0167535 0.0216261
0.0104047 0.0135561 0.0174334
0.00833989 0.0108321 0.0138802
0.00660135 0.00854823 0.010916
0.0051603 0.0066629 0.00848043
0.00398393 0.00512973 0.00650853
0.0030378 0.00390108 0.00493477
0.00228784 0.00293048 0.00369633
0.00170185 0.0021745 0.00273521
0.0012504 0.00159384 0.00199947
0.000907413 0.00115396 0.00144389
0.00167424 0.00218952 0.0028256
0.00224668 0.00294075 0.00379876
0.00297851 0.00390251 0.00504664
0.00390108 0.00511689 0.00662519
0.00504765 0.00662887 0.00859469
0.00645211 0.00848473 0.0110179
0.00814719 0.0107297 0.013957
0.0101621 0.0134052 0.0174702
0.0125201 0.0165448 0.0216066
0.0152348 0.0201706 0.026401
0.0183077 0.0242882 0.0318673
0.0217239 0.0288821 0.0379918
0.0254501 0.0339113 0.0447266
0.0294314 0.0393054 0.0519836
0.0335906 0.0449623 0.0596301
0.0378285 0.0507484 0.0674879
0.0420257 0.0565001 0.0753346
0.0460472 0.0620302 0.0829112
0.0497487 0.067136 0.0899337
0.052985 0.0716116 0.0961096
0.0556195 0.0752615 0.101159
0.0575341 0.0779158 0.104835
0.058639 0.0794442 0.10695
0.0588797 0.0797677 0.107388
0.0582426 0.0788664 0.106118
0.0567557 0.0767812 0.103201
0.0544871 0.073611 0.0987818
0.0515389 0.0695038 0.0930742
0.0480388 0.064644 0.0863455
0.0441309 0.0592376 0.0788913
0.0399644 0.0534969 0.071013
0.0356845 0.0476257 0.0629966
0.031424 0.0418082 0.0550966
0.0272972 0.0362004 0.0475243
0.0233963 0.0309255 0.0404425
0.0197896 0.0260725 0.0339648
0.0165224 0.0216975 0.0281584
0.0136183 0.0178273 0.0230505
0.0110829 0.0144638 0.0186351
0.00890665 0.0115894 0.0148809
0.00706882 0.00917196 0.0117388
0.00554095 0.0071701 0.00914844
0.00428994 0.00553699 0.00704413
0.0032807 0.00422398 0.00535889
0.00247823 0.00318332 0.00402804
0.0018492 0.00237002 0.00299145
0.00136302 0.00174316 0.00219499
0.000992422 0.00126658 0.00159124
0.00167424 0.00218756 0.00282036
0.00224864 0.00294075 0.0037952
0.00298375 0.00390607 0.00504664
0.00391147 0.0051263 0.0066315
0.00506573 0.00664733 0.00861124
0.00648127 0.00851652 0.01105
0.00819176 0.0107805 0.0140118
0.0102276 0.0134819 0.0175567
0.0126131 0.0166564 0.0217363
0.0153634 0.0203276 0.0265877
0.0184809 0.0245029 0.0321273
0.0219521 0.0291685 0.038344
0.0257445 0.0342847 0.0451918
0.0298037 0.0397821 0.0525841
0.0340527 0.0455589 0.0603891
0.0383914 0.0514806 0.0684277
0.0426993 0.0573823 0.0764757
0.0468392 0.0630738 0.0842706
0.0506638 0.0683485 0.0915229
0.0540243 0.0729953 0.0979334
0.0567797 0.076813 0.103214
0.0588076 0.0796251 0.107109
0.0600133 0.0812947 0.10942
0.0603381 0.0817365 0.110024
0.0597646 0.0809253 0.108881
0.0583181 0.0788978 0.106047
0.0560649 0.0757504 0.101661
0.0531066 0.0716305 0.0959374
0.049572 0.0667237 0.0891453
0.0456069 0.061239 0.0815841
0.0413636 0.0553927 0.0735612
0.0369911 0.0493941 0.0653703
0.0326262 0.0434331 0.057274
0.0283874 0.0376717 0.0494921
0.024371 0.0322387 0.0421954
0.020649 0.0272283 0.0355044
0.0172697 0.022701 0.0294922
0.0142596 0.0186868 0.0241906
0.0116258 0.0151903 0.0195969
0.00936029 0.0121955 0.0156818
0.00744299 0.00967119 0.0123973
0.00584562 0.00757607 0.00968312
0.00453487 0.00586296 0.00747283
0.00347512 0.00448244 0.00569836
0.00263061 0.00338569 0.00429354
0.00196715 0.00252651 0.00319655
0.00145317 0.00186267 0.00235148
0.00106047 0.00135673 0.00170919
0.00167424 0.00218595 0.00281607
0.00225025 0.00294075 0.00379229
0.00298804 0.00390898 0.00504664
0.00391997 0.005134 0.00663667
0.00508053 0.00666244 0.00862478
0.00650513 0.00854254 0.0110763
0.00822825 0.010822 0.0140566
0.0102812 0.0135448 0.0176275
0.0126892 0.0167477 0.0218424
0.0154685 0.020456 0.0267405
0.0186226 0.0246785 0.0323402
0.0221389 0.0294028 0.0386322
0.0259854 0.0345902 0.0455725
0.0301085 0.0401722 0.0530755
0.0344308 0.046047 0.06101
0.0388521 0.0520798 0.0691965
0.0432506 0.0581042 0.0774092
0.0474873 0.0639277 0.0853825
0.0514126 0.0693405 0.0928227
0.0548747 0.0741274 0.099425
0.0577292 0.0780823 0.104894
0.0598497 0.0810234 0.108968
0.0611378 0.0828085 0.11144
0.0615315 0.0833471 0.112179
0.06101 0.0826096 0.11114
0.0595965 0.0806293 0.108373
0.0573559 0.0775007 0.104015
0.0543895 0.0733705 0.0982792
0.0508266 0.0684253 0.0914355
0.0468148 0.0628765 0.0837869
0.0425088 0.056944 0.0756459
0.0380605 0.0508412 0.0673123
0.0336102 0.0447628 0.0590556
0.0292798 0.0388758 0.0511024
0.0251688 0.0333135 0.0436299
0.0213524 0.0281743 0.0367643
0.0178814 0.0235222 0.0305838
0.0147844 0.0193903 0.0251238
0.0120702 0.0157849 0.0203841
0.00973159 0.0126916 0.0163374
0.00774925 0.0100798 0.0129363
0.006095 0.00790836 0.0101208
0.00473535 0.00612976 0.00782372
0.00363425 0.00469399 0.00597622
0.00275534 0.00355134 0.00451086
0.00206368 0.0026546 0.00336443
0.00152695 0.0019605 0.00247957
0.00111616 0.00143051 0.00180572
0.00167424 0.00216988 0.00277307
0.00226632 0.00294074 0.0037631
0.00303103 0.00393813 0.0050466
0.00400517 0.00521117 0.00668844
0.00522884 0.00681378 0.00876043
0.00674422 0.00880322 0.0113396
0.00859381 0.0112379 0.0145057
0.010818 0.0141741 0.018337
0.013452 0.0176625 0.0229054
0.0165224 0.0217425 0.0282702
0.0200427 0.0264378 0.0344704
0.0240097 0.0317492 0.0415163
0.0283987 0.0376494 0.0493806
0.0331603 0.0440769 0.0579897
0.0382173 0.050932 0.067217
0.0434645 0.0580745 0.0768782
0.0487689 0.0653242 0.0867311
0.0539741 0.0724657 0.0964806
0.0589064 0.0792568 0.10579
0.0633841 0.0854414 0.114299
0.067228 0.0907651 0.121647
0.0702746 0.0949937 0.127497
0.0723877 0.0979314 0.131569
0.0734697 0.0994371 0.133658
0.0734697 0.0994371 0.133658
0.0723877 0.0979314 0.131569
0.0702746 0.0949937 0.127497
0.067228 0.0907651 0.121647
0.0633841 0.0854414 0.114299
0.0589064 0.0792568 0.10579
0.0539741 0.0724657 0.0964806
0.0487689 0.0653242 0.0867311
0.0434645 0.0580745 0.0768782
0.0382173 0.050932 0.067217
0.0331603 0.0440769 0.0579897
0.0283987 0.0376494 0.0493806
0.0240097 0.0317492 0.0415163
0.0200427 0.0264378 0.0344704
0.0165224 0.0217425 0.0282702
0.013452 0.0176625 0.0229054
0.010818 0.0141741 0.018337
0.00859381 0.0112379 0.0145057
0.00674422 0.00880322 0.0113396
0.00522884 0.00681378 0.00876043
0.00400517 0.00521117 0.00668844
0.00303103 0.00393813 0.0050466
0.00226632 0.00294074 0.0037631
0.00167424 0.00216988 0.00277307
-0.00167424 -0.00226632 -0.00303103
-0.00216988 -0.00294074 -0.00393813
-0.00277307 -0.0037631 -0.0050466
-0.00349387 -0.00474795 -0.00637735
-0.00433882 -0.00590527 -0.00794551
-0.00530928 -0.00723821 -0.00975737
-0.00639965 -0.00874057 -0.011807
-0.00759561 -0.0103944 -0.0140725
-0.00887261 -0.0121675 -0.0165132
-0.0101946 -0.0140119 -0.0190659
-0.0115139 -0.0158627 -0.0216442
-0.0127711 -0.0176384 -0.0241374
-0.0138973 -0.019243 -0.0264129
-0.0148163 -0.0205692 -0.0283205
-0.0154496 -0.0215046 -0.0297005
-0.0157212 -0.0219393 -0.0303937
-0.0155645 -0.0217747 -0.030255
-0.014929 -0.0209345 -0.0291686
-0.0137866 -0.0193739 -0.0270626
-0.0121374 -0.0170883 -0.0239231
-0.0100127 -0.014119 -0.0198029
-0.00747602 -0.0105549 -0.0148253
-0.00462049 -0.00652876 -0.00917924
-0.00156319 -0.00220971 -0.00310834
0.00156319 0.00220971 0.00310834
0.00462049 0.00652876 0.00917924
0.00747602 0.0105549 0.0148253
0.0100127 0.014119 0.0198029
0.0121374 0.0170883 0.0239231
0.0137866 0.0193739 0.0270626
0.014929 0.0209345 0.0291686
0.0155645 0.0217747 0.030255
0.0157212 0.0219393 0.0303937
0.0154496 0.0215046 0.0297005
0.0148163 0.0205692 0.0283205
0.0138973 0.019243 0.0264129
0.0127711 0.0176384 0.0241374
0.0115139 0.0158627 0.0216442
0.0101946 0.0140119 0.0190659
0.00887261 0.0121675 0.0165132
0.00759561 0.0103944 0.0140725
0.00639965 0.00874057 0.011807
0.00530928 0.00723821 0.00975737
0.00433882 0.00590527 0.00794551
0.00349387 0.00474795 0.00637735
0.00277307 0.0037631 0.0050466
0.00216988 0.00294074 0.00393813
0.00167424 0.00226632 0.00303103
-0.00167424 -0.00225025 -0.00298804
-0.00218595 -0.00294075 -0.00390898
-0.00281607 -0.00379229 -0.00504664
-0.0035791 -0.00482519 -0.00642927
-0.00448719 -0.00605676 -0.00808149
-0.00554849 -0.00749918 -0.0100214
-0.00676545 -0.00915705 -0.0122574
-0.00813288 -0.0110248 -0.0147844
-0.00963619 -0.0130841 -0.0175805
-0.0112499 -0.0153017 -0.0206033
-0.0129363 -0.0176275 -0.0237874
-0.0146457 -0.0199939 -0.0270425
-0.0163164 -0.0223163 -0.030254
-0.0178769 -0.0244952 -0.0332847
-0.0192487 -0.0264204 -0.0359803
-0.0203511 -0.0279768 -0.0381774
-0.0211063 -0.0290521 -0.0397143
-0.0214459 -0.0295464 -0.0404443
-0.0213174 -0.0293816 -0.0402506
-0.0206905 -0.0285105 -0.0390598
-0.0195611 -0.0269249 -0.0368547
-0.0179549 -0.0246593 -0.0336811
-0.0159267 -0.0217917 -0.0296493
-0.0135578 -0.0184396 -0.0249287
-0.0109505 -0.0147517 -0.0197352
-0.00822021 -0.0108959 -0.0143134
-0.00548622 -0.00704552 -0.00891558
-0.0028626 -0.00336562 -0.00377997
-0.000449793 -2.50835e-18 0.000887723
0.00167196 0.00293816 0.00492864
0.00344666 0.00537207 0.00823866
0.00484406 0.00726303 0.01077
0.00585865 0.00860824 0.012527
0.00650661 0.00943587 0.0135578
0.00682145 0.00979809 0.0139436
0.00684887 0.00976337 0.0137866
0.00664167 0.00940889 0.0131993
0.00625493 0.00881376 0.0122946
0.00574211 0.00805354 0.0111784
0.00515202 0.00719628 0.00994451
0.00452679 0.00629989 0.00867161
0.0039008 0.00541098 0.00742189
0.0033004 0.00456472 0.0062414
0.00274423 0.00378547 0.00516128
0.00224404 0.00308812 0.00419977
0.00180572 0.00247957 0.00336442
0.00143051 0.0019605 0.0026546
0.00111616 0.00152695 0.00206368
-0.00167424 -0.00224864 -0.00298375
-0.00218756 -0.00294075 -0.00390607
-0.00282036 -0.0037952 -0.00504664
-0.00358761 -0.0048329 -0.00643445
-0.00450199 -0.00607188 -0.00809505
-0.00557236 -0.00752522 -0.0100477
-0.00680195 -0.0091986 -0.0123023
-0.00818649 -0.0110877 -0.0148554
-0.00971239 -0.0131756 -0.017687
-0.0113552 -0.0154304 -0.0207567
-0.0130783 -0.0178036 -0.0240012
-0.0148328 -0.0202289 -0.0273324
-0.0165578 -0.0226229 -0.0306372
-0.0181823 -0.024887 -0.0337799
-0.0196279 -0.026911 -0.0366069
-0.0208132 -0.0285793 -0.0389542
-0.0216594 -0.0297785 -0.0406584
-0.0220963 -0.0304061 -0.0415701
-0.0220691 -0.0303807 -0.0415676
-0.0215443 -0.0296511 -0.0405719
-0.0205144 -0.0282038 -0.0385586
-0.0190012 -0.0260681 -0.0355658
-0.0170556 -0.0233164 -0.0316958
-0.0147555 -0.0200612 -0.0271107
-0.0122002 -0.0164464 -0.0220199
-0.00950254 -0.0126369 -0.0166633
-0.00678068 -0.00880416 -0.0112902
-0.00414835 -0.00511263 -0.00613863
-0.00170671 -0.00170727 -0.00141585
0.000462286 0.00129625 0.00271564
0.0023002 0.00381759 0.00614651
0.00377375 0.00581369 0.00882272
0.00487406 0.00727699 0.0107418
0.00561389 0.00823082 0.0119453
0.00602341 0.00872273 0.0125077
0.00614535 0.00881704 0.0125259
0.00602989 0.00858742 0.0121073
0.00573006 0.00811018 0.0113613
0.00529774 0.00745886 0.0103911
0.00478071 0.00670013 0.00928889
0.00422052 0.00589125 0.00813256
0.00365142 0.00507869 0.00698424
0.00309992 0.00429791 0.0058905
0.00258509 0.00357392 0.00488342
0.00211931 0.00292247 0.00398245
0.00170919 0.00235148 0.00319655
0.00135673 0.00186267 0.00252651
0.00106047 0.00145317 0.00196715
-0.00167424 -0.00224668 -0.00297851
-0.00218952 -0.00294075 -0.00390251
-0.0028256 -0.00379876 -0.00504664
-0.003598 -0.00484231 -0.00644078
-0.00452008 -0.00609034 -0.00811163
-0.00560153 -0.00755703 -0.0100799
-0.00684655 -0.00924938 -0.0123572
-0.00825199 -0.0111646 -0.0149422
-0.00980548 -0.0132874 -0.0178171
-0.0114838 -0.0155877 -0.0209441
-0.0132517 -0.0180188 -0.0242624
-0.0150613 -0.0205161 -0.0276864
-0.0168528 -0.0229976 -0.0311054
-0.0185555 -0.0253656 -0.034385
-0.0200911 -0.0275103 -0.0373724
-0.0213777 -0.0293154 -0.0399031
-0.0223351 -0.0306659 -0.0418119
-0.022891 -0.0314563 -0.0429454
-0.0229876 -0.0316014 -0.0431767
-0.0225875 -0.0310446 -0.0424194
-0.0216791 -0.0297664 -0.0406406
-0.0202795 -0.0277895 -0.0378688
-0.018435 -0.0251795 -0.0341968
-0.016219 -0.0220425 -0.0297774
-0.013727 -0.0185173 -0.0248121
-0.0110694 -0.0147645 -0.0195351
-0.00836233 -0.0109532 -0.0141924
-0.00571935 -0.00724741 -0.00902126
-0.00324249 -0.00379348 -0.00423109
-0.00101575 -0.000710058 1.11477e-05
0.000899416 0.00191815 0.0035898
0.00246602 0.00404276 0.00644314
0.00367108 0.00565039 0.0085605
0.00452316 0.00675844 0.00997493
0.00504839 0.00740883 0.0107533
0.0052858 0.00766081 0.0109854
0.00528245 0.00758376 0.010773
0.00508879 0.00725057 0.0102209
0.00475482 0.00673228 0.00942914
0.00432705 0.00609396 0.00848787
0.00384635 0.005392 0.00747397
0.00334674 0.00467271 0.00644955
0.00285498 0.00397194 0.0054618
0.00239067 0.00331546 0.00454395
0.00196693 0.0027201 0.00371694
0.00159124 0.00219499 0.00299145
0.00126658 0.00174316 0.00237002
0.000992422 0.00136302 0.0018492
-0.00167424 -0.00224423 -0.00297196
-0.00219197 -0.00294075 -0.00389807
-0.00283215 -0.00380321 -0.00504665
-0.00361098 -0.00485408 -0.00644869
-0.00454268 -0.00611342 -0.00813233
-0.00563796 -0.00759678 -0.0101201
-0.00690227 -0.00931281 -0.0124258
-0.00833382 -0.0112606 -0.0150505
-0.00992178 -0.013427 -0.0179796
-0.0116445 -0.0157841 -0.0211781
-0.0134683 -0.0182875 -0.0245887
-0.0153469 -0.0208748 -0.0281288
-0.0172212 -0.0234656 -0.0316902
-0.0190216 -0.0259635 -0.0351408
-0.0206698 -0.028259 -0.0383286
-0.0220829 -0.0302351 -0.0410886
-0.0231793 -0.0317745 -0.043253
-0.0238838 -0.0327685 -0.0446637
-0.024135 -0.0331265 -0.045187
-0.0238908 -0.0327856 -0.0447277
-0.0231343 -0.0317188 -0.043242
-0.0218767 -0.0299403 -0.0407467
-0.0201584 -0.0275075 -0.0373222
-0.0180475 -0.0245184 -0.0331099
-0.0156348 -0.0211051 -0.0283017
-0.0130271 -0.017423 -0.0231243
-0.0103386 -0.0136386 -0.0178196
-0.00768228 -0.00991501 -0.012624
-0.0051614 -0.00640037 -0.00774953
-0.00286249 -0.00321706 -0.00336877
-0.00085079 -0.000455272 0.000394669
0.000832089 0.00182996 0.00346951
0.00216805 0.00361797 0.00583469
0.00316039 0.00491876 0.00751286
0.00383019 0.00576719 0.00856116
0.0042119 0.0062162 0.00906062
0.00434861 0.00632978 0.00910591
0.0042876 0.00617659 0.00879612
0.00407652 0.00582452 0.0082273
0.00376027 0.00533663 0.00748709
0.00337886 0.00476826 0.00665116
0.00296609 0.00416551 0.00578153
0.00254897 0.00356468 0.00492619
0.00214777 0.00299256 0.00411982
0.00177654 0.00246726 0.00338524
0.00144389 0.00199947 0.00273521
0.00115396 0.00159384 0.0021745
0.000907413 0.0012504 0.00170185
-0.00167424 -0.00224109 -0.00296355
-0.00219511 -0.00294075 -0.00389236
-0.00284057 -0.00380892 -0.00504665
-0.00362766 -0.00486919 -0.00645884
-0.00457171 -0.00614306 -0.00815893
-0.00568478 -0.00764785 -0.0101718
-0.00697386 -0.00939431 -0.0125139
-0.00843896 -0.0113839 -0.0151898
-0.0100712 -0.0136063 -0.0181883
-0.011851 -0.0160365 -0.0214789
-0.0137467 -0.0186328 -0.0250079
-0.0157137 -0.0213356 -0.028697
-0.0176947 -0.024067 -0.0324415
-0.0196206 -0.0267317 -0.0361119
-0.0214133 -0.0292209 -0.0395572
-0.0229891 -0.0314166 -0.0426117
-0.024264 -0.0331989 -0.0451043
-0.0251595 -0.0344544 -0.0468713
-0.0256093 -0.0350861 -0.0477701
-0.0255655 -0.0350228 -0.0476938
-0.0250041 -0.0342276 -0.046585
-0.023929 -0.0327042 -0.0444451
-0.022373 -0.0304991 -0.041339
-0.0203972 -0.0277001 -0.0373933
-0.0180864 -0.0244307 -0.0327871
-0.0155428 -0.0208398 -0.0277378
-0.0128781 -0.0170898 -0.022482
-0.0102048 -0.0133434 -0.0172549
-0.00762729 -0.00975067 -0.0122721
-0.00523563 -0.00643896 -0.00771319
-0.00309986 -0.00350544 -0.00371208
-0.00126753 -0.00101372 -0.000352395
0.000236659 0.00100616 0.00233145
0.00140926 0.00255468 0.00434873
0.00226485 0.00365765 0.00574399
0.00283198 0.00435988 0.00658716
0.00314868 0.00471845 0.00696364
0.00325814 0.00479656 0.00696528
0.00320496 0.00465811 0.00668298
0.00303201 0.00436351 0.00620113
0.00277819 0.00396679 0.00559389
0.00247699 0.00351379 0.00492317
0.00215578 0.00304139 0.00423798
0.00183567 0.00257765 0.00357486
0.00153192 0.00214239 0.00295902
0.00125456 0.00174825 0.00240596
0.00100925 0.00140198 0.00192328
0.000798184 0.00110569 0.00151252
-0.00167424 -0.0022369 -0.00295234
-0.0021993 -0.00294075 -0.00388476
-0.00285178 -0.00381652 -0.00504666
-0.00364988 -0.00488932 -0.00647237
-0.0046104 -0.00618255 -0.00819437
-0.00574715 -0.00771588 -0.0102406
-0.00706923 -0.00950287 -0.0126313
-0.00857903 -0.0115483 -0.0153753
-0.0102703 -0.0138453 -0.0184664
-0.0121261 -0.0163727 -0.0218794
-0.0141175 -0.0190928 -0.0255663
-0.0162024 -0.0219496 -0.0294538
-0.0183253 -0.0248679 -0.0334422
-0.0204185 -0.027755 -0.0374052
-0.0224037 -0.0305023 -0.0411934
-0.0241962 -0.0329905 -0.0446401
-0.025709 -0.0350963 -0.0475702
-0.0268589 -0.0367002 -0.0498118
-0.0275734 -0.0376965 -0.0512108
-0.0277965 -0.038003 -0.051645
-0.0274951 -0.0375698 -0.0510385
-0.0266631 -0.0363864 -0.0493725
-0.0253235 -0.0344848 -0.046691
-0.0235277 -0.0319393 -0.0431008
-0.0213527 -0.0288618 -0.0387643
-0.0188946 -0.0253923 -0.0338861
-0.0162617 -0.0216884 -0.0286955
-0.0135655 -0.0179116 -0.0234267
-0.0109127 -0.0142148 -0.0182994
-0.00839743 -0.010732 -0.0135029
-0.00609632 -0.00756957 -0.00918487
-0.00406485 -0.00480263 -0.00544538
-0.0023365 -0.00247373 -0.00233668
-0.000923712 -0.000595058 0.000132645
0.000179434 0.000847114 0.00199039
0.000993612 0.00188674 0.00329165
0.0015501 0.00257176 0.00410947
0.00188668 0.00295805 0.0045261
0.00204386 0.00310419 0.00462556
0.00206182 0.00306712 0.00448794
0.00197798 0.00289909 0.00418538
0.00182542 0.00264557 0.00377966
0.00163197 0.00234428 0.00332115
0.00141989 0.00202492 0.00284887
0.00120604 0.0017096 0.00239122
0.00100233 0.00141358 0.00196734
0.000816465 0.0011464 0.00158861
0.00065267 0.000912904 0.00126029
-0.00167424 -0.00223104 -0.00293666
-0.00220516 -0.00294075 -0.00387412
-0.00286746 -0.00382716 -0.00504666
-0.00368096 -0.00491748 -0.00649129
-0.00466449 -0.00623777 -0.00824392
-0.00583436 -0.00781101 -0.0103368
-0.00720258 -0.00965467 -0.0127954
-0.00877489 -0.0117781 -0.0156346
-0.0105486 -0.0141793 -0.0188553
-0.0125108 -0.0168428 -0.0224394
-0.014636 -0.019736 -0.0263469
-0.0168857 -0.0228079 -0.0305119
-0.0192071 -0.0259878 -0.034841
-0.0215341 -0.0291856 -0.039213
-0.0237886 -0.0322937 -0.0434806
-0.025884 -0.035191 -0.0474756
-0.0277293 -0.037749 -0.051017
-0.0292351 -0.03984 -0.0539222
-0.0303197 -0.0413462 -0.0560206
-0.0309161 -0.0421699 -0.0571687
-0.0309784 -0.0422431 -0.057265
-0.0304865 -0.0415353 -0.0562622
-0.0294494 -0.0400584 -0.0541751
-0.0279055 -0.0378678 -0.0510829
-0.0259204 -0.0350587 -0.0471242
-0.0235821 -0.0317595 -0.0424859
-0.0209937 -0.0281202 -0.0373872
-0.0182657 -0.0243009 -0.0320601
-0.0155074 -0.0204587 -0.0267308
-0.0128193 -0.0167364 -0.021602
-0.010287 -0.0132538 -0.0168404
-0.00797696 -0.0101019 -0.0125695
-0.00593507 -0.00734067 -0.00886623
-0.00418634 -0.00500016 -0.00576437
-0.00273697 -0.00308352 -0.00325956
-0.00157727 -0.00157195 -0.00131743
-0.000685414 -0.00043036 0.000117777
-3.12209e-05 0.000386961 0.00111488
0.000420157 0.00093111 0.0017483
0.000705094 0.0012542 0.00209212
0.000858954 0.00140598 0.00221567
0.000914253 0.00143144 0.00218055
0.000899473 0.00136942 0.00203905
0.000838464 0.00125198 0.00183363
0.000750321 0.00110438 0.00159721
0.000649618 0.000945581 0.00135398
0.000546879 0.000788979 0.00112061
0.000449185 0.000643318 0.000907579
-0.00167424 -0.00222226 -0.00291319
-0.00221394 -0.00294075 -0.0038582
-0.00289093 -0.00384309 -0.00504666
-0.00372748 -0.00495963 -0.00651961
-0.00474548 -0.00632045 -0.0083181
-0.00596494 -0.00795344 -0.0104808
-0.00740227 -0.00988197 -0.013041
-0.00906816 -0.0121221 -0.0160229
-0.0109654 -0.0146795 -0.0194373
-0.0130867 -0.0175466 -0.0232776
-0.0154124 -0.0206988 -0.0275152
-0.0179088 -0.0240929 -0.0320954
-0.0205274 -0.0276643 -0.0369345
-0.0232044 -0.0313272 -0.0419183
-0.025862 -0.0349752 -0.0469029
-0.0284108 -0.0384846 -0.0517181
-0.030754 -0.0417195 -0.056174
-0.0327924 -0.0445396 -0.0600719
-0.034431 -0.046809 -0.0632168
-0.0355864 -0.0484069 -0.0654334
-0.0361932 -0.0492382 -0.0665819
-0.0362106 -0.0492427 -0.0665724
-0.0356266 -0.0484021 -0.0653761
-0.0344601 -0.0467432 -0.0630307
-0.0327597 -0.0443369 -0.059639
-0.0306009 -0.0412929 -0.0553615
-0.0280793 -0.0377509 -0.0504016
-0.0253039 -0.0338686 -0.0449885
-0.0223879 -0.0298089 -0.0393575
-0.0194411 -0.0257283 -0.0337315
-0.0165624 -0.0217663 -0.028306
-0.0138353 -0.0180379 -0.0232391
-0.0113239 -0.0146292 -0.0186454
-0.00907212 -0.011597 -0.0145961
-0.00710425 -0.00896979 -0.011122
-0.00542712 -0.00675142 -0.00821996
-0.00403304 -0.00492604 -0.00586003
-0.00290321 -0.00346322 -0.00399354
-0.00201127 -0.00232302 -0.00256043
-0.00132654 -0.00146058 -0.00149558
-0.000816726 -0.00082988 -0.000733914
-0.000450166 -0.000386654 -0.000214062
-0.000197396 -9.0365e-05 0.000119151
-3.21878e-05 9.45446e-05 0.000313367
6.79158e-05 0.000198106 0.000408219
0.000121453 0.000244776 0.000435501
0.000143191 0.000253772 0.000419806
0.000144478 0.00023963 0.000379414
-0.00167424 -0.00220768 -0.00287417
-0.00222853 -0.00294075 -0.00383172
-0.00292995 -0.00386957 -0.00504666
-0.00380482 -0.0050297 -0.00656666
-0.0048801 -0.00645787 -0.00844135
-0.00618199 -0.00819016 -0.0107201
-0.00773415 -0.0102597 -0.0134492
-0.00955557 -0.0126938 -0.0166679
-0.0116581 -0.0155107 -0.0204042
-0.0140438 -0.0187159 -0.02467
-0.0167025 -0.0222985 -0.0294556
-0.0196089 -0.0262276 -0.0347247
-0.0227211 -0.0304491 -0.0404099
-0.0259796 -0.0348841 -0.0464087
-0.0293067 -0.0394284 -0.0525823
-0.0326087 -0.0439538 -0.0587571
-0.0357787 -0.0483121 -0.0647289
-0.0387016 -0.0523421 -0.0702719
-0.0412604 -0.0558779 -0.0751513
-0.0433439 -0.0587608 -0.0791391
-0.0448552 -0.0608506 -0.0820324
-0.0457188 -0.062038 -0.0836711
-0.0458879 -0.0622545 -0.0839542
-0.0453486 -0.0614796 -0.0828506
-0.0441218 -0.0597436 -0.0804039
-0.0422618 -0.0571256 -0.0767297
-0.0398522 -0.0537472 -0.0720055
-0.0369988 -0.0497621 -0.0664547
-0.0338214 -0.045343 -0.0603274
-0.0304452 -0.0406688 -0.0538796
-0.0269917 -0.0359116 -0.0473545
-0.0235719 -0.0312261 -0.0409677
-0.0202804 -0.0267423 -0.0348961
-0.0171927 -0.0225611 -0.0292735
-0.0143632 -0.0187532 -0.0241894
-0.0118261 -0.0153603 -0.0196925
-0.0095973 -0.0123985 -0.0157959
-0.00767692 -0.00986282 -0.0124845
-0.00605273 -0.00773192 -0.00972224
-0.00470347 -0.00597301 -0.00745898
-0.003602 -0.00454628 -0.00563666
-0.00271807 -0.00340865 -0.00419434
-0.00202059 -0.0025168 -0.00307206
-0.00147937 -0.00182932 -0.00221359
-0.00106636 -0.00130829 -0.0015681
-0.000756454 -0.000920088 -0.00109117
-0.00052781 -0.000635839 -0.000745058
-0.000361998 -0.000431371 -0.000498493
-0.00167424 -0.00217865 -0.00279652
-0.00225755 -0.00294074 -0.00377902
-0.00300758 -0.00392223 -0.00504662
-0.0039587 -0.00516908 -0.0066602
-0.00514795 -0.00673123 -0.00868645
-0.00661381 -0.00866104 -0.011196
-0.00839442 -0.011011 -0.0142608
-0.0105252 -0.0138309 -0.0179501
-0.013036 -0.0171636 -0.0223257
-0.0159476 -0.0210409 -0.0274361
-0.0192682 -0.0254784 -0.033309
-0.0229894 -0.0304697 -0.039944
-0.0270827 -0.0359814 -0.0473048
-0.0314961 -0.0419481 -0.0553115
-0.0361526 -0.048269 -0.0638349
-0.0409496 -0.0548069 -0.0726934
-0.0457602 -0.0613892 -0.0816539
-0.0504376 -0.0678129 -0.0904373
-0.0548212 -0.0738536 -0.0987304
-0.0587455 -0.0792772 -0.106203
-0.0620503 -0.0838558 -0.112529
-0.0645923 -0.0873834 -0.117414
-0.0662558 -0.0896935 -0.120616
-0.0669627 -0.0906724 -0.121971
-0.0666783 -0.0902703 -0.121405
-0.0654154 -0.0885055 -0.118945
-0.0632324 -0.0854629 -0.114715
-0.0602291 -0.0812869 -0.108924
-0.0565379 -0.0761683 -0.101848
-0.0523138 -0.0703291 -0.0938051
-0.0477226 -0.0640048 -0.0851295
-0.0429297 -0.0574286 -0.0761491
-0.0380907 -0.0508167 -0.0671642
-0.0333432 -0.0443581 -0.0584324
-0.0288019 -0.0382075 -0.0501606
-0.0245557 -0.0324821 -0.0425013
-0.0206673 -0.0272624 -0.0355546
-0.0171747 -0.0225941 -0.0293731
-0.014094 -0.0184932 -0.0239692
-0.0114227 -0.0149512 -0.0193231
-0.00914416 -0.0119409 -0.0153913
-0.00723084 -0.00942181 -0.012114
-0.00564848 -0.00734499 -0.00942191
-0.00435907 -0.00565754 -0.00724179
-0.00332345 -0.00430581 -0.00550068
-0.00250339 -0.00323803 -0.00412906
-0.00186303 -0.00240606 -0.003063
-0.00136983 -0.00176659 -0.00224543
-0.00167424 -0.00216988 -0.00277307
-0.00226632 -0.00294074 -0.0037631
-0.00303103 -0.00393813 -0.0050466
-0.00400517 -0.00521117 -0.00668844
-0.00522884 -0.00681378 -0.00876043
-0.00674422 -0.00880322 -0.0113396
-0.00859381 -0.0112379 -0.0145057
-0.010818 -0.0141741 -0.018337
-0.013452 -0.0176625 -0.0229054
-0.0165224 -0.0217425 -0.0282702
-0.0200427 -0.0264378 -0.0344704
-0.0240097 -0.0317492 -0.0415163
-0.0283987 -0.0376494 -0.0493806
-0.0331603 -0.0440769 -0.0579897
-0.0382173 -0.0509321 -0.067217
-0.0434645 -0.0580745 -0.0768782
-0.0487689 -0.0653242 -0.0867311
-0.0539741 -0.0724657 -0.0964806
-0.0589064 -0.0792568 -0.10579
-0.0633841 -0.0854414 -0.114299
-0.067228 -0.0907651 -0.121647
-0.0702746 -0.0949937 -0.127497
-0.0723877 -0.0979314 -0.131569
-0.0734697 -0.0994371 -0.133658
-0.0734697 -0.0994371 -0.133658
-0.0723877 -0.0979314 -0.131569
-0.0702746 -0.0949937 -0.127497
-0.067228 -0.0907651 -0.121647
-0.0633841 -0.0854414 -0.114299
-0.0589064 -0.0792568 -0.10579
-0.0539741 -0.0724657 -0.0964806
-0.0487689 -0.0653242 -0.0867311
-0.0434645 -0.0580745 -0.0768782
-0.0382173 -0.0509321 -0.067217
-0.0331603 -0.0440769 -0.0579897
-0.0283987 -0.0376494 -0.0493806
-0.0240097 -0.0317492 -0.0415163
-0.0200427 -0.0264378 -0.0344704
-0.0165224 -0.0217425 -0.0282702
-0.013452 -0.0176625 -0.0229054
-0.010818 -0.0141741 -0.018337
-0.00859381 -0.0112379 -0.0145057
-0.00674422 -0.00880322 -0.0113396
-0.00522884 -0.00681378 -0.00876043
-0.00400517 -0.00521117 -0.00668844
-0.00303103 -0.00393813 -0.0050466
-0.00226632 -0.00294074 -0.0037631
-0.00167424 -0.00216988 -0.00277307
-0.00167424 -0.00216988 -0.00277307
-0.00226632 -0.00294074 -0.0037631
-0.00303103 -0.00393813 -0.0050466
-0.00400517 -0.00521117 -0.00668844
-0.00522884 -0.00681378 -0.00876043
-0.00674422 -0.00880322 -0.0113396
-0.00859381 -0.0112379 -0.0145057
-0.010818 -0.0141741 -0.018337
-0.013452 -0.0176625 -0.0229054
-0.0165224 -0.0217425 -0.0282702
-0.0200427 -0.0264378 -0.0344704
-0.0240097 -0.0317492 -0.0415163
-0.0283987 -0.0376494 -0.0493806
-0.0331603 -0.0440769 -0.0579897
-0.0382173 -0.0509321 -0.067217
-0.0434645 -0.0580745 -0.0768782
-0.0487689 -0.0653242 -0.0867311
-0.0539741 -0.0724657 -0.0964806
-0.0589064 -0.0792568 -0.10579
-0.0633841 -0.0854414 -0.114299
-0.067228 -0.0907651 -0.121647
-0.0702746 -0.0949937 -0.127497
-0.0723877 -0.0979314 -0.131569
-0.0734697 -0.0994371 -0.133658
-0.0734697 -0.0994371 -0.133658
-0.0723877 -0.0979314 -0.131569
-0.0702746 -0.0949937 -0.127497
-0.067228 -0.0907651 -0.121647
-0.0633841 -0.0854414 -0.114299
-0.0589064 -0.0792568 -0.10579
-0.0539741 -0.0724657 -0.0964806
-0.0487689 -0.0653242 -0.0867311
-0.0434645 -0.0580745 -0.0768782
-0.0382173 -0.0509321 -0.067217
-0.0331603 -0.0440769 -0.0579897
-0.0283987 -0.0376494 -0.0493806
-0.0240097 -0.0317492 -0.0415163
-0.0200427 -0.0264378 -0.0344704
-0.0165224 -0.0217425 -0.0282702
-0.013452 -0.0176625 -0.0229054
-0.010818 -0.0141741 -0.018337
-0.00859381 -0.0112379 -0.0145057
-0.00674422 -0.00880322 -0.0113396
-0.00522884 -0.00681378 -0.00876043
-0.00400517 -0.00521117 -0.00668844
-0.00303103 -0.00393813 -0.0050466
-0.00226632 -0.00294074 -0.0037631
-0.00167424 -0.00216988 -0.00277307
-0.00136983 -0.00176659 -0.00224543
-0.00186303 -0.00240606 -0.003063
-0.00250339 -0.00323803 -0.00412905
-0.00332345 -0.00430581 -0.00550068
-0.00435907 -0.00565754 -0.00724179
-0.00564848 -0.00734499 -0.00942191
-0.00723084 -0.00942181 -0.012114
-0.00914416 -0.0119409 -0.0153913
-0.0114227 -0.0149512 -0.0193231
-0.014094 -0.0184932 -0.0239692
-0.0171747 -0.0225941 -0.0293731
-0.0206673 -0.0272624 -0.0355546
-0.0245557 -0.0324821 -0.0425013
-0.0288019 -0.0382075 -0.0501606
-0.0333432 -0.0443581 -0.0584324
-0.0380907 -0.0508167 -0.0671642
-0.0429297 -0.0574286 -0.0761491
-0.0477226 -0.0640048 -0.0851295
-0.0523138 -0.0703291 -0.0938051
-0.0565379 -0.0761683 -0.101848
-0.0602291 -0.0812869 -0.108924
-0.0632324 -0.0854629 -0.114715
-0.0654154 -0.0885055 -0.118945
-0.0666783 -0.0902703 -0.121405
-0.0669627 -0.0906724 -0.121971
-0.0662558 -0.0896935 -0.120616
-0.0645923 -0.0873834 -0.117414
-0.0620503 -0.0838558 -0.112529
-0.0587455 -0.0792772 -0.106203
-0.0548212 -0.0738536 -0.0987304
-0.0504376 -0.0678129 -0.0904373
-0.0457602 -0.0613892 -0.0816539
-0.0409496 -0.0548069 -0.0726934
-0.0361526 -0.048269 -0.0638349
-0.0314961 -0.0419481 -0.0553115
-0.0270827 -0.0359814 -0.0473048
-0.0229894 -0.0304697 -0.039944
-0.0192682 -0.0254784 -0.033309
-0.0159476 -0.0210409 -0.0274361
-0.013036 -0.0171636 -0.0223257
-0.0105252 -0.0138309 -0.0179501
-0.00839442 -0.011011 -0.0142608
-0.00661381 -0.00866104 -0.011196
-0.00514795 -0.00673123 -0.00868645
-0.0039587 -0.00516908 -0.0066602
-0.00300758 -0.00392223 -0.00504662
-0.00225755 -0.00294074 -0.00377902
-0.00167424 -0.00217865 -0.00279652
-0.000361998 -0.000431371 -0.000498493
-0.00052781 -0.000635839 -0.000745058
-0.000756454 -0.000920088 -0.00109117
-0.00106636 -0.00130829 -0.0015681
-0.00147937 -0.00182932 -0.00221359
-0.00202059 -0.0025168 -0.00307207
-0.00271807 -0.00340865 -0.00419434
-0.003602 -0.00454628 -0.00563666
-0.00470347 -0.00597301 -0.00745898
-0.00605273 -0.00773192 -0.00972224
-0.00767692 -0.00986282 -0.0124845
-0.0095973 -0.0123985 -0.0157959
-0.0118261 -0.0153603 -0.0196925
-0.0143632 -0.0187532 -0.0241894
-0.0171927 -0.0225611 -0.0292735
-0.0202804 -0.0267423 -0.0348961
-0.0235719 -0.0312261 -0.0409677
-0.0269917 -0.0359116 -0.0473545
-0.0304452 -0.0406688 -0.0538796
-0.0338214 -0.045343 -0.0603274
-0.0369988 -0.0497621 -0.0664547
-0.0398522 -0.0537472 -0.0720055
-0.0422618 -0.0571256 -0.0767297
-0.0441218 -0.0597436 -0.0804039
-0.0453486 -0.0614796 -0.0828506
-0.0458879 -0.0622545 -0.0839542
-0.0457188 -0.062038 -0.0836712
-0.0448552 -0.0608506 -0.0820324
-0.0433439 -0.0587608 -0.0791391
-0.0412604 -0.0558779 -0.0751513
-0.0387016 -0.0523421 -0.0702719
-0.0357787 -0.0483121 -0.0647289
-0.0326087 -0.0439538 -0.0587571
-0.0293067 -0.0394284 -0.0525823
-0.0259796 -0.0348841 -0.0464087
-0.0227211 -0.0304491 -0.0404099
-0.0196089 -0.0262276 -0.0347247
-0.0167025 -0.0222985 -0.0294556
-0.0140438 -0.0187159 -0.02467
-0.0116581 -0.0155107 -0.0204042
-0.00955557 -0.0126938 -0.0166679
-0.00773415 -0.0102597 -0.0134492
-0.00618199 -0.00819016 -0.0107201
-0.0048801 -0.00645787 -0.00844135
-0.00380482 -0.0050297 -0.00656666
-0.00292995 -0.00386957 -0.00504666
-0.00222853 -0.00294075 -0.00383172
-0.00167424 -0.00220768 -0.00287417
0.000144478 0.00023963 0.000379414
0.000143191 0.000253772 0.000419806
0.000121453 0.000244776 0.000435501
6.79158e-05 0.000198106 0.000408219
-3.21878e-05 9.45446e-05 0.000313367
-0.000197396 -9.0365e-05 0.000119151
-0.000450166 -0.000386654 -0.000214062
-0.000816726 -0.00082988 -0.000733914
-0.00132654 -0.00146058 -0.00149558
-0.00201127 -0.00232302 -0.00256043
-0.00290321 -0.00346322 -0.00399354
-0.00403304 -0.00492604 -0.00586003
-0.00542712 -0.00675142 -0.00821996
-0.00710425 -0.00896979 -0.011122
-0.00907212 -0.011597 -0.0145961
-0.0113239 -0.0146292 -0.0186454
-0.0138353 -0.0180379 -0.0232391
-0.0165624 -0.0217663 -0.028306
-0.0194411 -0.0257283 -0.0337315
-0.0223879 -0.0298089 -0.0393575
-0.0253039 -0.0338686 -0.0449885
-0.0280793 -0.0377509 -0.0504016
-0.0306009 -0.0412929 -0.0553615
-0.0327597 -0.0443369 -0.059639
-0.0344601 -0.0467432 -0.0630307
-0.0356266 -0.0484021 -0.0653761
-0.0362106 -0.0492427 -0.0665724
-0.0361931 -0.0492382 -0.0665819
-0.0355864 -0.0484069 -0.0654334
-0.034431 -0.046809 -0.0632168
-0.0327924 -0.0445396 -0.0600719
-0.030754 -0.0417195 -0.056174
-0.0284108 -0.0384846 -0.0517181
-0.025862 -0.0349752 -0.0469029
-0.0232044 -0.0313272 -0.0419183
-0.0205274 -0.0276643 -0.0369345
-0.0179088 -0.0240929 -0.0320954
-0.0154124 -0.0206988 -0.0275152
-0.0130867 -0.0175466 -0.0232776
-0.0109654 -0.0146795 -0.0194373
-0.00906816 -0.0121221 -0.0160229
-0.00740227 -0.00988197 -0.013041
-0.00596494 -0.00795344 -0.0104808
-0.00474548 -0.00632045 -0.0083181
-0.00372748 -0.00495963 -0.00651961
-0.00289093 -0.00384309 -0.00504666
-0.00221394 -0.00294075 -0.0038582
-0.00167424 -0.00222226 -0.00291319
0.000449185 0.000643318 0.000907579
0.000546879 0.000788979 0.00112061
0.000649618 0.000945581 0.00135398
0.000750321 0.00110438 0.00159721
0.000838464 0.00125198 0.00183363
0.000899473 0.00136942 0.00203905
0.000914253 0.00143144 0.00218055
0.000858954 0.00140598 0.00221567
0.000705094 0.0012542 0.00209212
0.000420157 0.00093111 0.0017483
-3.12209e-05 0.000386961 0.00111488
-0.000685414 -0.00043036 0.000117777
-0.00157727 -0.00157195 -0.00131743
-0.00273697 -0.00308352 -0.00325956
-0.00418634 -0.00500016 -0.00576437
-0.00593507 -0.00734067 -0.00886623
-0.00797696 -0.0101019 -0.0125695
-0.010287 -0.0132538 -0.0168404
-0.0128193 -0.0167364 -0.021602
-0.0155074 -0.0204587 -0.0267308
-0.0182657 -0.0243009 -0.0320601
-0.0209937 -0.0281202 -0.0373872
-0.0235821 -0.0317595 -0.0424859
-0.0259204 -0.0350587 -0.0471242
-0.0279055 -0.0378678 -0.0510829
-0.0294494 -0.0400584 -0.0541751
-0.0304865 -0.0415353 -0.0562622
-0.0309784 -0.0422431 -0.057265
-0.0309161 -0.0421699 -0.0571687
-0.0303197 -0.0413462 -0.0560206
-0.0292351 -0.03984 -0.0539222
-0.0277293 -0.037749 -0.051017
-0.025884 -0.035191 -0.0474756
-0.0237886 -0.0322937 -0.0434806
-0.0215341 -0.0291856 -0.039213
-0.0192071 -0.0259878 -0.034841
-0.0168857 -0.0228079 -0.0305119
-0.014636 -0.019736 -0.0263469
-0.0125108 -0.0168428 -0.0224394
-0.0105486 -0.0141793 -0.0188553
-0.00877489 -0.0117781 -0.0156346
-0.00720258 -0.00965467 -0.0127954
-0.00583436 -0.00781101 -0.0103368
-0.00466449 -0.00623777 -0.00824392
-0.00368096 -0.00491748 -0.00649129
-0.00286746 -0.00382716 -0.00504666
-0.00220516 -0.00294075 -0.00387412
-0.00167424 -0.00223104 -0.00293666
0.00065267 0.000912904 0.00126029
0.000816465 0.0011464 0.00158861
0.00100233 0.00141358 0.00196734
0.00120604 0.0017096 0.00239122
0.00141989 0.00202492 0.00284887
0.00163197 0.00234428 0.00332115
0.00182542 0.00264557 0.00377966
0.00197798 0.00289909 0.00418538
0.00206182 0.00306712 0.00448794
0.00204386 0.00310419 0.00462556
0.00188668 0.00295805 0.0045261
0.0015501 0.00257176 0.00410947
0.000993612 0.00188674 0.00329165
0.000179434 0.000847114 0.00199039
-0.000923712 -0.000595058 0.000132645
-0.0023365 -0.00247373 -0.00233668
-0.00406485 -0.00480263 -0.00544538
-0.00609632 -0.00756957 -0.00918487
-0.00839743 -0.010732 -0.0135029
-0.0109127 -0.0142148 -0.0182994
-0.0135655 -0.0179116 -0.0234267
-0.0162617 -0.0216884 -0.0286955
-0.0188946 -0.0253923 -0.0338861
-0.0213527 -0.0288618 -0.0387643
-0.0235277 -0.0319393 -0.0431008
-0.0253235 -0.0344848 -0.046691
-0.0266631 -0.0363864 -0.0493725
-0.0274951 -0.0375698 -0.0510385
-0.0277965 -0.038003 -0.051645
-0.0275734 -0.0376965 -0.0512108
-0.0268589 -0.0367002 -0.0498118
-0.025709 -0.0350963 -0.0475702
-0.0241962 -0.0329905 -0.0446401
-0.0224037 -0.0305023 -0.0411934
-0.0204185 -0.027755 -0.0374052
-0.0183253 -0.0248679 -0.0334422
-0.0162024 -0.0219496 -0.0294538
-0.0141175 -0.0190928 -0.0255663
-0.0121261 -0.0163727 -0.0218794
-0.0102703 -0.0138453 -0.0184664
-0.00857903 -0.0115483 -0.0153753
-0.00706923 -0.00950287 -0.0126313
-0.00574715 -0.00771588 -0.0102406
-0.0046104 -0.00618255 -0.00819437
-0.00364988 -0.00488932 -0.00647237
-0.00285178 -0.00381652 -0.00504666
-0.0021993 -0.00294075 -0.00388476
-0.00167424 -0.0022369 -0.00295234
0.000798184 0.00110569 0.00151252
0.00100925 0.00140198 0.00192328
0.00125456 0.00174825 0.00240596
0.00153192 0.00214239 0.00295902
0.00183567 0.00257765 0.00357486
0.00215578 0.00304139 0.00423798
0.00247699 0.00351379 0.00492317
0.00277819 0.00396679 0.00559389
0.00303201 0.00436351 0.00620113
0.00320496 0.00465811 0.00668298
0.00325814 0.00479657 0.00696528
0.00314868 0.00471845 0.00696364
0.00283198 0.00435988 0.00658716
0.00226485 0.00365765 0.00574399
0.00140926 0.00255468 0.00434873
0.000236659 0.00100616 0.00233145
-0.00126753 -0.00101372 -0.000352395
-0.00309986 -0.00350544 -0.00371208
-0.00523563 -0.00643896 -0.00771319
-0.00762729 -0.00975067 -0.0122721
-0.0102048 -0.0133434 -0.0172549
-0.0128781 -0.0170898 -0.022482
-0.0155428 -0.0208398 -0.0277378
-0.0180864 -0.0244307 -0.0327871
-0.0203972 -0.0277001 -0.0373933
-0.022373 -0.0304991 -0.041339
-0.023929 -0.0327042 -0.0444451
-0.0250041 -0.0342276 -0.046585
-0.0255655 -0.0350228 -0.0476938
-0.0256093 -0.0350861 -0.0477701
-0.0251595 -0.0344544 -0.0468714
-0.024264 -0.0331989 -0.0451043
-0.0229891 -0.0314166 -0.0426117
-0.0214133 -0.0292209 -0.0395572
-0.0196206 -0.0267317 -0.0361119
-0.0176947 -0.024067 -0.0324415
-0.0157137 -0.0213356 -0.028697
-0.0137467 -0.0186328 -0.0250079
-0.011851 -0.0160365 -0.0214789
-0.0100712 -0.0136063 -0.0181883
-0.00843896 -0.0113839 -0.0151898
-0.00697386 -0.00939431 -0.0125139
-0.00568478 -0.00764785 -0.0101718
-0.00457171 -0.00614306 -0.00815893
-0.00362766 -0.00486919 -0.00645884
-0.00284057 -0.00380892 -0.00504665
-0.00219511 -0.00294075 -0.00389236
-0.00167424 -0.00224109 -0.00296355
0.000907413 0.0012504 0.00170185
0.00115396 0.00159384 0.0021745
0.00144389 0.00199947 0.00273521
0.00177654 0.00246726 0.00338524
0.00214777 0.00299256 0.00411982
0.00254897 0.00356468 0.00492619
0.00296609 0.00416551 0.00578153
0.00337886 0.00476826 0.00665116
0.00376027 0.00533663 0.00748709
0.00407652 0.00582452 0.0082273
0.0042876 0.00617659 0.00879612
0.00434861 0.00632978 0.00910591
0.0042119 0.0062162 0.00906062
0.00383019 0.00576719 0.00856115
0.00316039 0.00491876 0.00751286
0.00216805 0.00361797 0.00583469
0.000832089 0.00182996 0.00346951
-0.00085079 -0.000455272 0.000394669
-0.00286249 -0.00321706 -0.00336877
-0.0051614 -0.00640037 -0.00774953
-0.00768228 -0.00991501 -0.012624
-0.0103386 -0.0136386 -0.0178196
-0.0130271 -0.017423 -0.0231243
-0.0156348 -0.0211051 -0.0283017
-0.0180475 -0.0245184 -0.0331099
-0.0201584 -0.0275075 -0.0373222
-0.0218767 -0.0299403 -0.0407467
-0.0231343 -0.0317188 -0.043242
-0.0238908 -0.0327856 -0.0447277
-0.024135 -0.0331265 -0.045187
-0.0238838 -0.0327685 -0.0446637
-0.0231793 -0.0317745 -0.043253
-0.0220829 -0.0302351 -0.0410886
-0.0206698 -0.028259 -0.0383286
-0.0190216 -0.0259635 -0.0351408
-0.0172212 -0.0234656 -0.0316902
-0.0153469 -0.0208748 -0.0281288
-0.0134683 -0.0182875 -0.0245887
-0.0116445 -0.0157841 -0.0211781
-0.00992178 -0.013427 -0.0179796
-0.00833382 -0.0112606 -0.0150505
-0.00690227 -0.00931281 -0.0124258
-0.00563796 -0.00759678 -0.0101201
-0.00454268 -0.00611342 -0.00813233
-0.00361098 -0.00485408 -0.00644869
-0.00283215 -0.00380321 -0.00504665
-0.00219197 -0.00294075 -0.00389807
-0.00167424 -0.00224423 -0.00297196
0.000992422 0.00136302 0.0018492
0.00126658 0.00174316 0.00237002
0.00159124 0.00219499 0.00299145
0.00196693 0.0027201 0.00371694
0.00239067 0.00331546 0.00454395
0.00285498 0.00397194 0.0054618
0.00334674 0.00467271 0.00644955
0.00384635 0.005392 0.00747397
0.00432705 0.00609396 0.00848787
0.00475482 0.00673228 0.00942914
0.00508879 0.00725057 0.0102209
0.00528245 0.00758376 0.010773
0.0052858 0.00766081 0.0109854
0.00504839 0.00740883 0.0107533
0.00452316 0.00675844 0.00997493
0.00367108 0.00565039 0.0085605
0.00246602 0.00404276 0.00644314
0.000899416 0.00191815 0.0035898
-0.00101575 -0.000710058 1.11477e-05
-0.00324249 -0.00379348 -0.00423109
-0.00571935 -0.00724741 -0.00902126
-0.00836233 -0.0109532 -0.0141924
-0.0110694 -0.0147645 -0.0195351
-0.013727 -0.0185173 -0.0248121
-0.016219 -0.0220425 -0.0297774
-0.018435 -0.0251795 -0.0341968
-0.0202795 -0.0277895 -0.0378688
-0.0216791 -0.0297664 -0.0406406
-0.0225875 -0.0310446 -0.0424194
-0.0229876 -0.0316014 -0.0431767
-0.022891 -0.0314563 -0.0429454
-0.0223351 -0.0306659 -0.0418119
-0.0213777 -0.0293154 -0.0399031
-0.0200911 -0.0275103 -0.0373724
-0.0185555 -0.0253656 -0.034385
-0.0168528 -0.0229976 -0.0311054
-0.0150613 -0.0205161 -0.0276864
-0.0132517 -0.0180188 -0.0242624
-0.0114838 -0.0155877 -0.0209441
-0.00980548 -0.0132874 -0.0178171
-0.00825199 -0.0111646 -0.0149422
-0.00684655 -0.00924938 -0.0123572
-0.00560153 -0.00755703 -0.0100799
-0.00452008 -0.00609034 -0.00811163
-0.003598 -0.00484231 -0.00644078
-0.0028256 -0.00379876 -0.00504664
-0.00218952 -0.00294075 -0.00390251
-0.00167424 -0.00224668 -0.00297851
0.00106047 0.00145317 0.00196715
0.00135673 0.00186267 0.00252651
0.00170919 0.00235148 0.00319655
0.00211931 0.00292247 0.00398245
0.00258509 0.00357392 0.00488342
0.00309992 0.00429791 0.0058905
0.00365142 0.00507869 0.00698424
0.00422052 0.00589125 0.00813256
0.00478071 0.00670013 0.00928889
0.00529774 0.00745886 0.0103911
0.00573006 0.00811018 0.0113613
0.00602989 0.00858742 0.0121073
0.00614535 0.00881704 0.0125259
0.00602341 0.00872273 0.0125077
0.00561389 0.00823082 0.0119453
0.00487406 0.00727699 0.0107418
0.00377375 0.00581369 0.00882272
0.0023002 0.00381759 0.00614651
0.000462286 0.00129625 0.00271564
-0.00170671 -0.00170727 -0.00141584
-0.00414835 -0.00511263 -0.00613863
-0.00678068 -0.00880416 -0.0112902
-0.00950254 -0.0126369 -0.0166633
-0.0122002 -0.0164464 -0.0220199
-0.0147555 -0.0200612 -0.0271107
-0.0170556 -0.0233164 -0.0316958
-0.0190012 -0.0260681 -0.0355658
-0.0205144 -0.0282038 -0.0385586
-0.0215443 -0.0296511 -0.0405719
-0.0220691 -0.0303807 -0.0415676
-0.0220963 -0.0304061 -0.0415701
-0.0216594 -0.0297785 -0.0406584
-0.0208132 -0.0285793 -0.0389542
-0.0196279 -0.026911 -0.0366069
-0.0181823 -0.024887 -0.0337799
-0.0165578 -0.0226229 -0.0306372
-0.0148328 -0.0202289 -0.0273324
-0.0130783 -0.0178036 -0.0240012
-0.0113552 -0.0154304 -0.0207567
-0.00971239 -0.0131756 -0.017687
-0.00818649 -0.0110877 -0.0148554
-0.00680195 -0.0091986 -0.0123023
-0.00557236 -0.00752522 -0.0100477
-0.00450199 -0.00607188 -0.00809505
-0.00358761 -0.0048329 -0.00643445
-0.00282036 -0.0037952 -0.00504664
-0.00218756 -0.00294075 -0.00390607
-0.00167424 -0.00224864 -0.00298375
0.00111616 0.00152695 0.00206368
0.00143051 0.0019605 0.0026546
0.00180572 0.00247957 0.00336443
0.00224404 0.00308812 0.00419977
0.00274423 0.00378547 0.00516128
0.0033004 0.00456472 0.0062414
0.0039008 0.00541098 0.00742189
0.00452679 0.00629989 0.00867161
0.00515202 0.00719628 0.00994451
0.00574211 0.00805354 0.0111784
0.00625493 0.00881376 0.0122946
0.00664167 0.00940889 0.0131993
0.00684887 0.00976337 0.0137866
0.00682145 0.00979809 0.0139436
0.00650661 0.00943587 0.0135578
0.00585865 0.00860824 0.012527
0.00484406 0.00726303 0.01077
0.00344666 0.00537207 0.00823866
0.00167196 0.00293816 0.00492864
-0.000449793 -2.50835e-18 0.000887723
-0.0028626 -0.00336562 -0.00377997
-0.00548622 -0.00704552 -0.00891558
-0.00822021 -0.0108959 -0.0143134
-0.0109505 -0.0147517 -0.0197352
-0.0135578 -0.0184396 -0.0249287
-0.0159267 -0.0217917 -0.0296493
-0.0179549 -0.0246593 -0.0336811
-0.0195611 -0.0269249 -0.0368547
-0.0206905 -0.0285105 -0.0390598
-0.0213174 -0.0293816 -0.0402506
-0.0214459 -0.0295464 -0.0404443
-0.0211063 -0.0290521 -0.0397143
-0.0203511 -0.0279768 -0.0381774
-0.0192487 -0.0264204 -0.0359803
-0.0178769 -0.0244952 -0.0332847
-0.0163164 -0.0223163 -0.030254
-0.0146457 -0.0199939 -0.0270425
-0.0129363 -0.0176275 -0.0237874
-0.0112499 -0.0153017 -0.0206033
-0.00963619 -0.0130841 -0.0175805
-0.00813288 -0.0110248 -0.0147844
-0.00676545 -0.00915705 -0.0122574
-0.00554849 -0.00749918 -0.0100214
-0.00448719 -0.00605676 -0.00808149
-0.0035791 -0.00482519 -0.00642927
-0.00281607 -0.00379229 -0.00504664
-0.00218595 -0.00294075 -0.00390898
-0.00167424 -0.00225025 -0.00298804
0.00167424 0.00226632 0.00303103
0.00216988 0.00294074 0.00393813
0.00277307 0.0037631 0.0050466
0.00349387 0.00474795 0.00637735
0.00433882 0.00590527 0.00794551
0.00530928 0.00723821 0.00975737
0.00639965 0.00874057 0.011807
0.00759561 0.0103944 0.0140725
0.00887261 0.0121675 0.0165132
0.0101946 0.0140119 0.0190659
0.0115139 0.0158627 0.0216442
0.0127711 0.0176384 0.0241374
0.0138973 0.019243 0.0264129
0.0148163 0.0205692 0.0283205
0.0154496 0.0215046 0.0297005
0.0157212 0.0219393 0.0303937
0.0155645 0.0217747 0.030255
0.014929 0.0209345 0.0291686
0.0137866 0.0193739 0.0270626
0.0121374 0.0170883 0.0239231
0.0100127 0.014119 0.0198029
0.00747602 0.0105549 0.0148253
0.00462049 0.00652876 0.00917924
0.00156319 0.00220971 0.00310834
-0.00156319 -0.00220971 -0.00310834
-0.00462049 -0.00652876 -0.00917924
-0.00747602 -0.0105549 -0.0148253
-0.0100127 -0.014119 -0.0198029
-0.0121374 -0.0170883 -0.0239231
-0.0137866 -0.0193739 -0.0270626
-0.014929 -0.0209345 -0.0291686
-0.0155645 -0.0217747 -0.030255
-0.0157212 -0.0219393 -0.0303937
-0.0154496 -0.0215046 -0.0297005
-0.0148163 -0.0205692 -0.0283205
-0.0138973 -0.019243 -0.0264129
-0.0127711 -0.0176384 -0.0241374
-0.0115139 -0.0158627 -0.0216442
-0.0101946 -0.0140119 -0.0190659
-0.00887261 -0.0121675 -0.0165132
-0.00759561 -0.0103944 -0.0140725
-0.00639965 -0.00874057 -0.011807
-0.00530928 -0.00723821 -0.00975737
-0.00433882 -0.00590527 -0.00794551
-0.00349387 -0.00474795 -0.00637735
-0.00277307 -0.0037631 -0.0050466
-0.00216988 -0.00294074 -0.00393813
-0.00167424 -0.00226632 -0.00303103
-0.999997 -0.999995 -0.999992
-0.999995 -0.999991 -0.999985
-0.999992 -0.999985 -0.999975
-0.999986 -0.999975 -0.999957
-0.999977 -0.999959 -0.99993
-0.999963 -0.999935 -0.999888
-0.999943 -0.999899 -0.999825
-0.999913 -0.999846 -0.999733
-0.99987 -0.99977 -0.999601
-0.999812 -0.999665 -0.999418
-0.999733 -0.999525 -0.999171
-0.99963 -0.99934 -0.998846
-0.9995 -0.999106 -0.998431
-0.99934 -0.998816 -0.997915
-0.99915 -0.998471 -0.997296
-0.998931 -0.998071 -0.996577
-0.998689 -0.997626 -0.995772
-0.998431 -0.997151 -0.994907
-0.998168 -0.996666 -0.99402
-0.997915 -0.996197 -0.993158
-0.997687 -0.995772 -0.992376
-0.9975 -0.995422 -0.991728
-0.997366 -0.995172 -0.991265
-0.997296 -0.995041 -0.991023
-0.997296 -0.995041 -0.991023
-0.997366 -0.995172 -0.991265
-0.9975 -0.995422 -0.991728
-0.997687 -0.995772 -0.992376
-0.997915 -0.996197 -0.993158
-0.998168 -0.996666 -0.99402
-0.998431 -0.997151 -0.994907
-0.998689 -0.997626 -0.995772
-0.998931 -0.998071 -0.996577
-0.99915 -0.998471 -0.997296
-0.99934 -0.998816 -0.997915
-0.9995 -0.999106 -0.998431
-0.99963 -0.99934 -0.998846
-0.999733 -0.999525 -0.999171
-0.999812 -0.999665 -0.999418
-0.99987 -0.99977 -0.999601
-0.999913 -0.999846 -0.999733
-0.999943 -0.999899 -0.999825
-0.999963 -0.999935 -0.999888
-0.999977 -0.999959 -0.99993
-0.999986 -0.999975 -0.999957
-0.999992 -0.999985 -0.999975
-0.999995 -0.999991 -0.999985
-0.999997 -0.999995 -0.999992
-0.999998 -0.999996 -0.999994
-0.999996 -0.999994 -0.999989
-0.999994 -0.999989 -0.999982
-0.99999 -0.999982 -0.999969
-0.999983 -0.999971 -0.99995
-0.999973 -0.999953 -0.999919
-0.999958 -0.999927 -0.999874
-0.999937 -0.999888 -0.999807
-0.999906 -0.999834 -0.999712
-0.999864 -0.999758 -0.99958
-0.999807 -0.999657 -0.999401
-0.999733 -0.999523 -0.999166
-0.999639 -0.999354 -0.998866
-0.999523 -0.999145 -0.998493
-0.999386 -0.998895 -0.998045
-0.999228 -0.998606 -0.997524
-0.999053 -0.998284 -0.996941
-0.998866 -0.99794 -0.996314
-0.998676 -0.997589 -0.995671
-0.998493 -0.997249 -0.995045
-0.998328 -0.996941 -0.994476
-0.998192 -0.996687 -0.994005
-0.998096 -0.996506 -0.993668
-0.998045 -0.996411 -0.993492
-0.998045 -0.996411 -0.993492
-0.998096 -0.996506 -0.993668
-0.998192 -0.996687 -0.994005
-0.998328 -0.996941 -0.994476
-0.998493 -0.997249 -0.995045
-0.998676 -0.997589 -0.995671
-0.998866 -0.99794 -0.996314
-0.999053 -0.998284 -0.996941
-0.999228 -0.998606 -0.997524
-0.999386 -0.998895 -0.998045
-0.999523 -0.999145 -0.998493
-0.999639 -0.999354 -0.998866
-0.999733 -0.999523 -0.999166
-0.999807 -0.999657 -0.999401
-0.999864 -0.999758 -0.99958
-0.999906 -0.999834 -0.999712
-0.999937 -0.999888 -0.999807
-0.999958 -0.999927 -0.999874
-0.999973 -0.999953 -0.999919
-0.999983 -0.999971 -0.99995
-0.99999 -0.999982 -0.999969
-0.999994 -0.999989 -0.999982
-0.999996 -0.999994 -0.999989
-0.999998 -0.999996 -0.999994
-0.999998 -0.999997 -0.999994
-0.999997 -0.999994 -0.99999
-0.999994 -0.99999 -0.999982
-0.99999 -0.999983 -0.99997
-0.999984 -0.999972 -0.999951
-0.999974 -0.999955 -0.999922
-0.99996 -0.999929 -0.999877
-0.999939 -0.999892 -0.999813
-0.999909 -0.999839 -0.999721
-0.999868 -0.999766 -0.999593
-0.999813 -0.999667 -0.999419
-0.999741 -0.999538 -0.999191
-0.99965 -0.999373 -0.9989
-0.999538 -0.99917 -0.998538
-0.999404 -0.998928 -0.998104
-0.999251 -0.998648 -0.997598
-0.999081 -0.998335 -0.997032
-0.9989 -0.998002 -0.996424
-0.998716 -0.997661 -0.995799
-0.998538 -0.997331 -0.995192
-0.998378 -0.997032 -0.99464
-0.998246 -0.996786 -0.994183
-0.998152 -0.99661 -0.993856
-0.998104 -0.996518 -0.993685
-0.998104 -0.996518 -0.993685
-0.998152 -0.99661 -0.993856
-0.998246 -0.996786 -0.994183
-0.998378 -0.997032 -0.99464
-0.998538 -0.997331 -0.995192
-0.998716 -0.997661 -0.995799
-0.9989 -0.998002 -0.996424
-0.999081 -0.998335 -0.997032
-0.999251 -0.998648 -0.997598
-0.999404 -0.998928 -0.998104
-0.999538 -0.99917 -0.998538
-0.99965 -0.999373 -0.9989
-0.999741 -0.999538 -0.999191
-0.999813 -0.999667 -0.999419
-0.999868 -0.999766 -0.999593
-0.999909 -0.999839 -0.999721
-0.999939 -0.999892 -0.999813
-0.99996 -0.999929 -0.999877
-0.999974 -0.999955 -0.999922
-0.999984 -0.999972 -0.999951
-0.99999 -0.999983 -0.99997
-0.999994 -0.99999 -0.999982
-0.999997 -0.999994 -0.99999
-0.999998 -0.999997 -0.999994
-0.999998 -0.999997 -0.999994
-0.999997 -0.999994 -0.99999
-0.999994 -0.99999 -0.999983
-0.999991 -0.999983 -0.999971
-0.999984 -0.999973 -0.999953
-0.999975 -0.999956 -0.999924
-0.999961 -0.999932 -0.999882
-0.999941 -0.999896 -0.999819
-0.999912 -0.999845 -0.99973
-0.999873 -0.999774 -0.999607
-0.999819 -0.999679 -0.99944
-0.99975 -0.999554 -0.99922
-0.999662 -0.999396 -0.998939
-0.999554 -0.9992 -0.99859
-0.999426 -0.998966 -0.998171
-0.999278 -0.998695 -0.997683
-0.999114 -0.998394 -0.997138
-0.998939 -0.998072 -0.996551
-0.998761 -0.997744 -0.995948
-0.99859 -0.997425 -0.995362
-0.998436 -0.997138 -0.994829
-0.998309 -0.9969 -0.994388
-0.998218 -0.99673 -0.994073
-0.998171 -0.996641 -0.993908
-0.998171 -0.996641 -0.993908
-0.998218 -0.99673 -0.994073
-0.998309 -0.9969 -0.994388
-0.998436 -0.997138 -0.994829
-0.99859 -0.997425 -0.995362
-0.998761 -0.997744 -0.995948
-0.998939 -0.998072 -0.996551
-0.999114 -0.998394 -0.997138
-0.999278 -0.998695 -0.997683
-0.999426 -0.998966 -0.998171
-0.999554 -0.9992 -0.99859
-0.999662 -0.999396 -0.998939
-0.99975 -0.999554 -0.99922
-0.999819 -0.999679 -0.99944
-0.999873 -0.999774 -0.999607
-0.999912 -0.999845 -0.99973
-0.999941 -0.999896 -0.999819
-0.999961 -0.999932 -0.999882
-0.999975 -0.999956 -0.999924
-0.999984 -0.999973 -0.999953
-0.999991 -0.999983 -0.999971
-0.999994 -0.99999 -0.999983
-0.999997 -0.999994 -0.99999
-0.999998 -0.999997 -0.999994
-0.999998 -0.999997 -0.999995
-0.999997 -0.999994 -0.99999
-0.999995 -0.99999 -0.999984
-0.999991 -0.999984 -0.999972
-0.999985 -0.999974 -0.999955
-0.999976 -0.999958 -0.999928
-0.999963 -0.999934 -0.999887
-0.999944 -0.9999 -0.999827
-0.999916 -0.999851 -0.999742
-0.999878 -0.999784 -0.999624
-0.999827 -0.999692 -0.999464
-0.999761 -0.999573 -0.999253
-0.999677 -0.999421 -0.998984
-0.999573 -0.999234 -0.99865
-0.99945 -0.99901 -0.998248
-0.999308 -0.998751 -0.997782
-0.999151 -0.998463 -0.997259
-0.998984 -0.998154 -0.996697
-0.998814 -0.997839 -0.99612
-0.99865 -0.997535 -0.995558
-0.998502 -0.997259 -0.995048
-0.998381 -0.997031 -0.994626
-0.998294 -0.996869 -0.994323
-0.998248 -0.996784 -0.994165
-0.998248 -0.996784 -0.994165
-0.998294 -0.996869 -0.994323
-0.998381 -0.997031 -0.994626
-0.998502 -0.997259 -0.995048
-0.99865 -0.997535 -0.995558
-0.998814 -0.997839 -0.99612
-0.998984 -0.998154 -0.996697
-0.999151 -0.998463 -0.997259
-0.999308 -0.998751 -0.997782
-0.99945 -0.99901 -0.998248
-0.999573 -0.999234 -0.99865
-0.999677 -0.999421 -0.998984
-0.999761 -0.999573 -0.999253
-0.999827 -0.999692 -0.999464
-0.999878 -0.999784 -0.999624
-0.999916 -0.999851 -0.999742
-0.999944 -0.9999 -0.999827
-0.999963 -0.999934 -0.999887
-0.999976 -0.999958 -0.999928
-0.999985 -0.999974 -0.999955
-0.999991 -0.999984 -0.999972
-0.999995 -0.99999 -0.999984
-0.999997 -0.999994 -0.99999
-0.999998 -0.999997 -0.999995
-0.999998 -0.999997 -0.999995
-0.999997 -0.999995 -0.999991
-0.999995 -0.999991 -0.999984
-0.999991 -0.999985 -0.999974
-0.999986 -0.999975 -0.999957
-0.999977 -0.99996 -0.999931
-0.999965 -0.999938 -0.999893
-0.999946 -0.999905 -0.999836
-0.99992 -0.999859 -0.999755
-0.999884 -0.999795 -0.999643
-0.999836 -0.999708 -0.999491
-0.999773 -0.999595 -0.999292
-0.999693 -0.999451 -0.999036
-0.999595 -0.999273 -0.998719
-0.999478 -0.999061 -0.998338
-0.999344 -0.998815 -0.997896
-0.999195 -0.998542 -0.997399
-0.999036 -0.998249 -0.996866
-0.998875 -0.99795 -0.996318
-0.998719 -0.997661 -0.995785
-0.998579 -0.997399 -0.995301
-0.998463 -0.997183 -0.9949
-0.998381 -0.997029 -0.994612
-0.998338 -0.996949 -0.994462
-0.998338 -0.996949 -0.994462
-0.998381 -0.997029 -0.994612
-0.998463 -0.997183 -0.9949
-0.998579 -0.997399 -0.995301
-0.998719 -0.997661 -0.995785
-0.998875 -0.99795 -0.996318
-0.999036 -0.998249 -0.996866
-0.999195 -0.998542 -0.997399
-0.999344 -0.998815 -0.997896
-0.999478 -0.999061 -0.998338
-0.999595 -0.999273 -0.998719
-0.999693 -0.999451 -0.999036
-0.999773 -0.999595 -0.999292
-0.999836 -0.999708 -0.999491
-0.999884 -0.999795 -0.999643
-0.99992 -0.999859 -0.999755
-0.999946 -0.999905 -0.999836
-0.999965 -0.999938 -0.999893
-0.999977 -0.99996 -0.999931
-0.999986 -0.999975 -0.999957
-0.999991 -0.999985 -0.999974
-0.999995 -0.999991 -0.999984
-0.999997 -0.999995 -0.999991
-0.999998 -0.999997 -0.999995
-0.999998 -0.999997 -0.999995
-0.999997 -0.999995 -0.999992
-0.999995 -0.999992 -0.999985
-0.999992 -0.999986 -0.999975
-0.999987 -0.999977 -0.99996
-0.999979 -0.999963 -0.999936
-0.999967 -0.999942 -0.999899
-0.99995 -0.999911 -0.999846
-0.999925 -0.999868 -0.99977
-0.999892 -0.999807 -0.999665
-0.999846 -0.999726 -0.999522
-0.999787 -0.99962 -0.999335
-0.999712 -0.999485 -0.999095
-0.99962 -0.999318 -0.998798
-0.99951 -0.999118 -0.99844
-0.999384 -0.998888 -0.998024
-0.999244 -0.998631 -0.997558
-0.999095 -0.998356 -0.997057
-0.998944 -0.998076 -0.996543
-0.998798 -0.997804 -0.996042
-0.998666 -0.997558 -0.995587
-0.998558 -0.997355 -0.99521
-0.99848 -0.99721 -0.99494
-0.99844 -0.997135 -0.9948
-0.99844 -0.997135 -0.9948
-0.99848 -0.99721 -0.99494
-0.998558 -0.997355 -0.99521
-0.998666 -0.997558 -0.995587
-0.998798 -0.997804 -0.996042
-0.998944 -0.998076 -0.996543
-0.999095 -0.998356 -0.997057
-0.999244 -0.998631 -0.997558
-0.999384 -0.998888 -0.998024
-0.99951 -0.999118 -0.99844
-0.99962 -0.999318 -0.998798
-0.999712 -0.999485 -0.999095
-0.999787 -0.99962 -0.999335
-0.999846 -0.999726 -0.999522
-0.999892 -0.999807 -0.999665
-0.999925 -0.999868 -0.99977
-0.99995 -0.999911 -0.999846
-0.999967 -0.999942 -0.999899
-0.999979 -0.999963 -0.999936
-0.999987 -0.999977 -0.99996
-0.999992 -0.999986 -0.999975
-0.999995 -0.999992 -0.999985
-0.999997 -0.999995 -0.999992
-0.999998 -0.999997 -0.999995
-0.999999 -0.999997 -0.999996
-0.999997 -0.999995 -0.999992
-0.999996 -0.999992 -0.999986
-0.999992 -0.999987 -0.999977
-0.999988 -0.999978 -0.999963
-0.99998 -0.999965 -0.99994
-0.999969 -0.999946 -0.999906
-0.999953 -0.999917 -0.999857
-0.99993 -0.999877 -0.999786
-0.999899 -0.999821 -0.999688
-0.999857 -0.999745 -0.999556
-0.999802 -0.999646 -0.999381
-0.999732 -0.99952 -0.999158
-0.999646 -0.999365 -0.998881
-0.999544 -0.999179 -0.998548
-0.999427 -0.998965 -0.998161
-0.999297 -0.998726 -0.997727
-0.999158 -0.99847 -0.997261
-0.999017 -0.998209 -0.996781
-0.998881 -0.997956 -0.996315
-0.998758 -0.997727 -0.995892
-0.998657 -0.997538 -0.995541
-0.998586 -0.997403 -0.995289
-0.998548 -0.997333 -0.995158
-0.998548 -0.997333 -0.995158
-0.998586 -0.997403 -0.995289
-0.998657 -0.997538 -0.995541
-0.998758 -0.997727 -0.995892
-0.998881 -0.997956 -0.996315
-0.999017 -0.998209 -0.996781
-0.999158 -0.99847 -0.997261
-0.999297 -0.998726 -0.997727
-0.999427 -0.998965 -0.998161
-0.999544 -0.999179 -0.998548
-0.999646 -0.999365 -0.998881
-0.999732 -0.99952 -0.999158
-0.999802 -0.999646 -0.999381
-0.999857 -0.999745 -0.999556
-0.999899 -0.999821 -0.999688
-0.99993 -0.999877 -0.999786
-0.999953 -0.999917 -0.999857
-0.999969 -0.999946 -0.999906
-0.99998 -0.999965 -0.99994
-0.999988 -0.999978 -0.999963
-0.999992 -0.999987 -0.999977
-0.999996 -0.999992 -0.999986
-0.999997 -0.999995 -0.999992
-0.999999 -0.999997 -0.999996
-0.999999 -0.999998 -0.999996
-0.999998 -0.999996 -0.999993
-0.999996 -0.999993 -0.999987
-0.999993 -0.999988 -0.999978
-0.999988 -0.99998 -0.999965
-0.999981 -0.999967 -0.999944
-0.999971 -0.999949 -0.999912
-0.999956 -0.999922 -0.999865
-0.999935 -0.999884 -0.999799
-0.999905 -0.999831 -0.999707
-0.999865 -0.99976 -0.999582
-0.999814 -0.999668 -0.999418
-0.999748 -0.999549 -0.999209
-0.999668 -0.999403 -0.998948
-0.999572 -0.999229 -0.998635
-0.999461 -0.999027 -0.998271
-0.999339 -0.998802 -0.997864
-0.999209 -0.998562 -0.997425
-0.999076 -0.998316 -0.996974
-0.998948 -0.998079 -0.996536
-0.998833 -0.997864 -0.996138
-0.998738 -0.997686 -0.995808
-0.998671 -0.997559 -0.995571
-0.998635 -0.997493 -0.995448
-0.998635 -0.997493 -0.995448
-0.998671 -0.997559 -0.995571
-0.998738 -0.997686 -0.995808
-0.998833 -0.997864 -0.996138
-0.998948 -0.998079 -0.996536
-0.999076 -0.998316 -0.996974
-0.999209 -0.998562 -0.997425
-0.999339 -0.998802 -0.997864
-0.999461 -0.999027 -0.998271
-0.999572 -0.999229 -0.998635
-0.999668 -0.999403 -0.998948
-0.999748 -0.999549 -0.999209
-0.999814 -0.999668 -0.999418
-0.999865 -0.99976 -0.999582
-0.999905 -0.999831 -0.999707
-0.999935 -0.999884 -0.999799
-0.999956 -0.999922 -0.999865
-0.999971 -0.999949 -0.999912
-0.999981 -0.999967 -0.999944
-0.999988 -0.99998 -0.999965
-0.999993 -0.999988 -0.999978
-0.999996 -0.999993 -0.999987
-0.999998 -0.999996 -0.999993
-0.999999 -0.999998 -0.999996
-0.999999 -0.999997 -0.999996
-0.999997 -0.999996 -0.999992
-0.999996 -0.999992 -0.999987
-0.999993 -0.999987 -0.999978
-0.999988 -0.999979 -0.999963
-0.999981 -0.999966 -0.999941
-0.99997 -0.999947 -0.999908
-0.999954 -0.999919 -0.99986
-0.999932 -0.99988 -0.999791
-0.999901 -0.999825 -0.999696
-0.99986 -0.999751 -0.999566
-0.999806 -0.999655 -0.999396
-0.999738 -0.999532 -0.999178
-0.999655 -0.99938 -0.998907
-0.999555 -0.999199 -0.998582
-0.99944 -0.998989 -0.998204
-0.999313 -0.998756 -0.997781
-0.999178 -0.998506 -0.997325
-0.99904 -0.998251 -0.996857
-0.998907 -0.998004 -0.996402
-0.998788 -0.997781 -0.995988
-0.998689 -0.997596 -0.995645
-0.998619 -0.997464 -0.995399
-0.998582 -0.997396 -0.995271
-0.998582 -0.997396 -0.995271
-0.998619 -0.997464 -0.995399
-0.998689 -0.997596 -0.995645
-0.998788 -0.997781 -0.995988
-0.998907 -0.998004 -0.996402
-0.99904 -0.998251 -0.996857
-0.999178 -0.998506 -0.997325
-0.999313 -0.998756 -0.997781
-0.99944 -0.998989 -0.998204
-0.999555 -0.999199 -0.998582
-0.999655 -0.99938 -0.998907
-0.999738 -0.999532 -0.999178
-0.999806 -0.999655 -0.999396
-0.99986 -0.999751 -0.999566
-0.999901 -0.999825 -0.999696
-0.999932 -0.99988 -0.999791
-0.999954 -0.999919 -0.99986
-0.99997 -0.999947 -0.999908
-0.999981 -0.999966 -0.999941
-0.999988 -0.999979 -0.999963
-0.999993 -0.999987 -0.999978
-0.999996 -0.999992 -0.999987
-0.999997 -0.999996 -0.999992
-0.999999 -0.999997 -0.999996
-0.999998 -0.999996 -0.999993
-0.999996 -0.999993 -0.999988
-0.999993 -0.999988 -0.999979
-0.999988 -0.999979 -0.999964
-0.999981 -0.999966 -0.999942
-0.999969 -0.999946 -0.999907
-0.999952 -0.999915 -0.999854
-0.999927 -0.999871 -0.999777
-0.999892 -0.999808 -0.999667
-0.999843 -0.999721 -0.999514
-0.999777 -0.999603 -0.999308
-0.999691 -0.999449 -0.999037
-0.999583 -0.999253 -0.99869
-0.999449 -0.999012 -0.998259
-0.99929 -0.998723 -0.997742
-0.999108 -0.998389 -0.99714
-0.998905 -0.998018 -0.996467
-0.99869 -0.99762 -0.995744
-0.99847 -0.997215 -0.995001
-0.998259 -0.996822 -0.994279
-0.998069 -0.996467 -0.993624
-0.997912 -0.996174 -0.993081
-0.9978 -0.995965 -0.992693
-0.997742 -0.995856 -0.99249
-0.997742 -0.995856 -0.99249
-0.9978 -0.995965 -0.992693
-0.997912 -0.996174 -0.993081
-0.998069 -0.996467 -0.993624
-0.998259 -0.996822 -0.994279
-0.99847 -0.997215 -0.995001
-0.99869 -0.99762 -0.995744
-0.998905 -0.998018 -0.996467
-0.999108 -0.998389 -0.99714
-0.99929 -0.998723 -0.997742
-0.999449 -0.999012 -0.998259
-0.999583 -0.999253 -0.99869
-0.999691 -0.999449 -0.999037
-0.999777 -0.999603 -0.999308
-0.999843 -0.999721 -0.999514
-0.999892 -0.999808 -0.999667
-0.999927 -0.999871 -0.999777
-0.999952 -0.999915 -0.999854
-0.999969 -0.999946 -0.999907
-0.999981 -0.999966 -0.999942
-0.999988 -0.999979 -0.999964
-0.999993 -0.999988 -0.999979
-0.999996 -0.999993 -0.999988
-0.999998 -0.999996 -0.999993
-0.999997 -0.999995 -0.999992
-0.999995 -0.999991 -0.999985
-0.999992 -0.999985 -0.999975
-0.999986 -0.999975 -0.999957
-0.999977 -0.999959 -0.99993
-0.999963 -0.999935 -0.999888
-0.999943 -0.999899 -0.999825
-0.999913 -0.999846 -0.999733
-0.99987 -0.99977 -0.999601
-0.999812 -0.999665 -0.999418
-0.999733 -0.999525 -0.999171
-0.99963 -0.99934 -0.998846
-0.9995 -0.999106 -0.998431
-0.99934 -0.998816 -0.997915
-0.99915 -0.998471 -0.997296
-0.998931 -0.998071 -0.996577
-0.998689 -0.997626 -0.995772
-0.998431 -0.997151 -0.994907
-0.998168 -0.996666 -0.99402
-0.997915 -0.996197 -0.993158
-0.997687 -0.995772 -0.992376
-0.9975 -0.995422 -0.991728
-0.997366 -0.995172 -0.991265
-0.997296 -0.995041 -0.991023
-0.997296 -0.995041 -0.991023
-0.997366 -0.995172 -0.991265
-0.9975 -0.995422 -0.991728
-0.997687 -0.995772 -0.992376
-0.997915 -0.996197 -0.993158
-0.998168 -0.996666 -0.99402
-0.998431 -0.997151 -0.994907
-0.998689 -0.997626 -0.995772
-0.998931 -0.998071 -0.996577
-0.99915 -0.998471 -0.997296
-0.99934 -0.998816 -0.997915
-0.9995 -0.999106 -0.998431
-0.99963 -0.99934 -0.998846
-0.999733 -0.999525 -0.999171
-0.999812 -0.999665 -0.999418
-0.99987 -0.99977 -0.999601
-0.999913 -0.999846 -0.999733
-0.999943 -0.999899 -0.999825
-0.999963 -0.999935 -0.999888
-0.999977 -0.999959 -0.99993
-0.999986 -0.999975 -0.999957
-0.999992 -0.999985 -0.999975
-0.999995 -0.999991 -0.999985
-0.999997 -0.999995 -0.999992
-0.999997 -0.999995 -0.999992
-0.999995 -0.999991 -0.999985
-0.999992 -0.999985 -0.999975
-0.999986 -0.999975 -0.999957
-0.999977 -0.999959 -0.99993
-0.999963 -0.999935 -0.999888
-0.999943 -0.999899 -0.999825
-0.999913 -0.999846 -0.999733
-0.99987 -0.99977 -0.999601
-0.999812 -0.999665 -0.999418
-0.999733 -0.999525 -0.999171
-0.99963 -0.99934 -0.998846
-0.9995 -0.999106 -0.998431
-0.99934 -0.998816 -0.997915
-0.99915 -0.998471 -0.997296
-0.998931 -0.998071 -0.996577
-0.998689 -0.997626 -0.995772
-0.998431 -0.997151 -0.994907
-0.998168 -0.996666 -0.99402
-0.997915 -0.996197 -0.993158
-0.997687 -0.995772 -0.992376
-0.9975 -0.995422 -0.991728
-0.997366 -0.995172 -0.991265
-0.997296 -0.995041 -0.991023
-0.997296 -0.995041 -0.991023
-0.997366 -0.995172 -0.991265
-0.9975 -0.995422 -0.991728
-0.997687 -0.995772 -0.992376
-0.997915 -0.996197 -0.993158
-0.998168 -0.996666 -0.99402
-0.998431 -0.997151 -0.994907
-0.998689 -0.997626 -0.995772
-0.998931 -0.998071 -0.996577
-0.99915 -0.998471 -0.997296
-0.99934 -0.998816 -0.997915
-0.9995 -0.999106 -0.998431
-0.99963 -0.99934 -0.998846
-0.999733 -0.999525 -0.999171
-0.999812 -0.999665 -0.999418
-0.99987 -0.99977 -0.999601
-0.999913 -0.999846 -0.999733
-0.999943 -0.999899 -0.999825
-0.999963 -0.999935 -0.999888
-0.999977 -0.999959 -0.99993
-0.999986 -0.999975 -0.999957
-0.999992 -0.999985 -0.999975
-0.999995 -0.999991 -0.999985
-0.999997 -0.999995 -0.999992
-0.999998 -0.999996 -0.999993
-0.999996 -0.999993 -0.999988
-0.999993 -0.999988 -0.999979
-0.999988 -0.999979 -0.999964
-0.999981 -0.999966 -0.999942
-0.999969 -0.999946 -0.999907
-0.999952 -0.999915 -0.999854
-0.999927 -0.999871 -0.999777
-0.999892 -0.999808 -0.999667
-0.999843 -0.999721 -0.999514
-0.999777 -0.999603 -0.999308
-0.999691 -0.999449 -0.999037
-0.999583 -0.999253 -0.99869
-0.999449 -0.999012 -0.998259
-0.99929 -0.998723 -0.997742
-0.999108 -0.998389 -0.99714
-0.998905 -0.998018 -0.996467
-0.99869 -0.99762 -0.995744
-0.99847 -0.997215 -0.995001
-0.998259 -0.996822 -0.994279
-0.998069 -0.996467 -0.993624
-0.997912 -0.996174 -0.993081
-0.9978 -0.995965 -0.992693
-0.997742 -0.995856 -0.99249
-0.997742 -0.995856 -0.99249
-0.9978 -0.995965 -0.992693
-0.997912 -0.996174 -0.993081
-0.998069 -0.996467 -0.993624
-0.998259 -0.996822 -0.994279
-0.99847 -0.997215 -0.995001
-0.99869 -0.99762 -0.995744
-0.998905 -0.998018 -0.996467
-0.999108 -0.998389 -0.99714
-0.99929 -0.998723 -0.997742
-0.999449 -0.999012 -0.998259
-0.999583 -0.999253 -0.99869
-0.999691 -0.999449 -0.999037
-0.999777 -0.999603 -0.999308
-0.999843 -0.999721 -0.999514
-0.999892 -0.999808 -0.999667
-0.999927 -0.999871 -0.999777
-0.999952 -0.999915 -0.999854
-0.999969 -0.999946 -0.999907
-0.999981 -0.999966 -0.999942
-0.999988 -0.999979 -0.999964
-0.999993 -0.999988 -0.999979
-0.999996 -0.999993 -0.999988
-0.999998 -0.999996 -0.999993
-0.999999 -0.999997 -0.999996
-0.999997 -0.999996 -0.999992
-0.999996 -0.999992 -0.999987
-0.999993 -0.999987 -0.999978
-0.999988 -0.999979 -0.999963
-0.999981 -0.999966 -0.999942
-0.99997 -0.999947 -0.999908
-0.999954 -0.999919 -0.99986
-0.999932 -0.99988 -0.999791
-0.999901 -0.999825 -0.999696
-0.99986 -0.999751 -0.999566
-0.999806 -0.999655 -0.999396
-0.999738 -0.999532 -0.999178
-0.999655 -0.99938 -0.998907
-0.999555 -0.999199 -0.998582
-0.99944 -0.998989 -0.998204
-0.999313 -0.998756 -0.997781
-0.999178 -0.998506 -0.997325
-0.99904 -0.998251 -0.996857
-0.998907 -0.998004 -0.996402
-0.998788 -0.997781 -0.995988
-0.998689 -0.997596 -0.995645
-0.998619 -0.997464 -0.995399
-0.998582 -0.997396 -0.995271
-0.998582 -0.997396 -0.995271
-0.998619 -0.997464 -0.995399
-0.998689 -0.997596 -0.995645
-0.998788 -0.997781 -0.995988
-0.998907 -0.998004 -0.996402
-0.99904 -0.998251 -0.996857
-0.999178 -0.998506 -0.997325
-0.999313 -0.998756 -0.997781
-0.99944 -0.998989 -0.998204
-0.999555 -0.999199 -0.998582
-0.999655 -0.99938 -0.998907
-0.999738 -0.999532 -0.999178
-0.999806 -0.999655 -0.999396
-0.99986 -0.999751 -0.999566
-0.999901 -0.999825 -0.999696
-0.999932 -0.99988 -0.999791
-0.999954 -0.999919 -0.99986
-0.99997 -0.999947 -0.999908
-0.999981 -0.999966 -0.999942
-0.999988 -0.999979 -0.999963
-0.999993 -0.999987 -0.999978
-0.999996 -0.999992 -0.999987
-0.999997 -0.999996 -0.999992
-0.999999 -0.999997 -0.999996
-0.999999 -0.999997 -0.999996
-0.999997 -0.999996 -0.999993
-0.999996 -0.999993 -0.999987
-0.999993 -0.999988 -0.999978
-0.999988 -0.99998 -0.999965
-0.999981 -0.999967 -0.999944
-0.999971 -0.999949 -0.999912
-0.999956 -0.999922 -0.999865
-0.999935 -0.999884 -0.999799
-0.999905 -0.999831 -0.999707
-0.999865 -0.99976 -0.999582
-0.999814 -0.999667 -0.999418
-0.999748 -0.999549 -0.999209
-0.999667 -0.999403 -0.998948
-0.999572 -0.999229 -0.998635
-0.999461 -0.999027 -0.998271
-0.999339 -0.998802 -0.997864
-0.999209 -0.998562 -0.997425
-0.999076 -0.998316 -0.996974
-0.998948 -0.998079 -0.996536
-0.998833 -0.997864 -0.996138
-0.998738 -0.997686 -0.995808
-0.998671 -0.997559 -0.995571
-0.998635 -0.997493 -0.995448
-0.998635 -0.997493 -0.995448
-0.998671 -0.997559 -0.995571
-0.998738 -0.997686 -0.995808
-0.998833 -0.997864 -0.996138
-0.998948 -0.998079 -0.996536
-0.999076 -0.998316 -0.996974
-0.999209 -0.998562 -0.997425
-0.999339 -0.998802 -0.997864
-0.999461 -0.999027 -0.998271
-0.999572 -0.999229 -0.998635
-0.999667 -0.999403 -0.998948
-0.999748 -0.999549 -0.999209
-0.999814 -0.999667 -0.999418
-0.999865 -0.99976 -0.999582
-0.999905 -0.999831 -0.999707
-0.999935 -0.999884 -0.999799
-0.999956 -0.999922 -0.999865
-0.999971 -0.999949 -0.999912
-0.999981 -0.999967 -0.999944
-0.999988 -0.99998 -0.999965
-0.999993 -0.999988 -0.999978
-0.999996 -0.999993 -0.999987
-0.999997 -0.999996 -0.999993
-0.999999 -0.999997 -0.999996
-0.999999 -0.999997 -0.999996
-0.999997 -0.999995 -0.999992
-0.999996 -0.999992 -0.999986
-0.999992 -0.999987 -0.999977
-0.999988 -0.999978 -0.999963
-0.99998 -0.999965 -0.99994
-0.999969 -0.999946 -0.999906
-0.999953 -0.999917 -0.999857
-0.99993 -0.999877 -0.999786
-0.999899 -0.999821 -0.999688
-0.999857 -0.999745 -0.999556
-0.999802 -0.999646 -0.999381
-0.999732 -0.99952 -0.999158
-0.999646 -0.999365 -0.998881
-0.999544 -0.999179 -0.998548
-0.999427 -0.998965 -0.998161
-0.999297 -0.998726 -0.997727
-0.999158 -0.99847 -0.997261
-0.999017 -0.998209 -0.996781
-0.998881 -0.997956 -0.996315
-0.998758 -0.997727 -0.995892
-0.998657 -0.997538 -0.995541
-0.998586 -0.997403 -0.995289
-0.998548 -0.997333 -0.995158
-0.998548 -0.997333 -0.995158
-0.998586 -0.997403 -0.995289
-0.998657 -0.997538 -0.995541
-0.998758 -0.997727 -0.995892
-0.998881 -0.997956 -0.996315
-0.999017 -0.998209 -0.996781
-0.999158 -0.99847 -0.997261
-0.999297 -0.998726 -0.997727
-0.999427 -0.998965 -0.998161
-0.999544 -0.999179 -0.998548
-0.999646 -0.999365 -0.998881
-0.999732 -0.99952 -0.999158
-0.999802 -0.999646 -0.999381
-0.999857 -0.999745 -0.999556
-0.999899 -0.999821 -0.999688
-0.99993 -0.999877 -0.999786
-0.999953 -0.999917 -0.999857
-0.999969 -0.999946 -0.999906
-0.99998 -0.999965 -0.99994
-0.999988 -0.999978 -0.999963
-0.999992 -0.999987 -0.999977
-0.999996 -0.999992 -0.999986
-0.999997 -0.999995 -0.999992
-0.999999 -0.999997 -0.999996
-0.999998 -0.999997 -0.999995
-0.999997 -0.999995 -0.999992
-0.999995 -0.999992 -0.999985
-0.999992 -0.999986 -0.999975
-0.999987 -0.999977 -0.99996
-0.999979 -0.999963 -0.999936
-0.999967 -0.999942 -0.999899
-0.99995 -0.999911 -0.999846
-0.999925 -0.999868 -0.99977
-0.999891 -0.999807 -0.999665
-0.999846 -0.999726 -0.999522
-0.999787 -0.99962 -0.999335
-0.999712 -0.999485 -0.999095
-0.99962 -0.999318 -0.998798
-0.99951 -0.999118 -0.99844
-0.999384 -0.998888 -0.998024
-0.999244 -0.998631 -0.997558
-0.999095 -0.998356 -0.997057
-0.998944 -0.998076 -0.996543
-0.998798 -0.997804 -0.996042
-0.998666 -0.997558 -0.995587
-0.998558 -0.997355 -0.99521
-0.99848 -0.99721 -0.99494
-0.99844 -0.997135 -0.9948
-0.99844 -0.997135 -0.9948
-0.99848 -0.99721 -0.99494
-0.998558 -0.997355 -0.99521
-0.998666 -0.997558 -0.995587
-0.998798 -0.997804 -0.996042
-0.998944 -0.998076 -0.996543
-0.999095 -0.998356 -0.997057
-0.999244 -0.998631 -0.997558
-0.999384 -0.998888 -0.998024
-0.99951 -0.999118 -0.99844
-0.99962 -0.999318 -0.998798
-0.999712 -0.999485 -0.999095
-0.999787 -0.99962 -0.999335
-0.999846 -0.999726 -0.999522
-0.999891 -0.999807 -0.999665
-0.999925 -0.999868 -0.99977
-0.99995 -0.999911 -0.999846
-0.999967 -0.999942 -0.999899
-0.999979 -0.999963 -0.999936
-0.999987 -0.999977 -0.99996
-0.999992 -0.999986 -0.999975
-0.999995 -0.999992 -0.999985
-0.999997 -0.999995 -0.999992
-0.999998 -0.999997 -0.999995
-0.999998 -0.999997 -0.999995
-0.999997 -0.999995 -0.999991
-0.999995 -0.999991 -0.999984
-0.999991 -0.999985 -0.999974
-0.999986 -0.999975 -0.999957
-0.999977 -0.99996 -0.999931
-0.999965 -0.999938 -0.999893
-0.999946 -0.999905 -0.999836
-0.99992 -0.999859 -0.999755
-0.999884 -0.999795 -0.999643
-0.999836 -0.999708 -0.999491
-0.999773 -0.999595 -0.999292
-0.999693 -0.999451 -0.999036
-0.999595 -0.999273 -0.998719
-0.999478 -0.999061 -0.998338
-0.999344 -0.998815 -0.997896
-0.999195 -0.998542 -0.997399
-0.999036 -0.998249 -0.996866
-0.998875 -0.99795 -0.996318
-0.998719 -0.997661 -0.995785
-0.998579 -0.997399 -0.995301
-0.998463 -0.997183 -0.9949
-0.998381 -0.997029 -0.994612
-0.998338 -0.996949 -0.994462
-0.998338 -0.996949 -0.994462
-0.998381 -0.997029 -0.994612
-0.998463 -0.997183 -0.9949
-0.998579 -0.997399 -0.995301
-0.998719 -0.997661 -0.995785
-0.998875 -0.99795 -0.996318
-0.999036 -0.998249 -0.996866
-0.999195 -0.998542 -0.997399
-0.999344 -0.998815 -0.997896
-0.999478 -0.999061 -0.998338
-0.999595 -0.999273 -0.998719
-0.999693 -0.999451 -0.999036
-0.999773 -0.999595 -0.999292
-0.999836 -0.999708 -0.999491
-0.999884 -0.999795 -0.999643
-0.99992 -0.999859 -0.999755
-0.999946 -0.999905 -0.999836
-0.999965 -0.999938 -0.999893
-0.999977 -0.99996 -0.999931
-0.999986 -0.999975 -0.999957
-0.999991 -0.999985 -0.999974
-0.999995 -0.999991 -0.999984
-0.999997 -0.999995 -0.999991
-0.999998 -0.999997 -0.999995
-0.999998 -0.999997 -0.999995
-0.999997 -0.999994 -0.99999
-0.999995 -0.99999 -0.999984
-0.999991 -0.999984 -0.999972
-0.999985 -0.999974 -0.999955
-0.999976 -0.999958 -0.999928
-0.999963 -0.999934 -0.999887
-0.999944 -0.9999 -0.999827
-0.999916 -0.999851 -0.999742
-0.999878 -0.999784 -0.999624
-0.999827 -0.999692 -0.999464
-0.999761 -0.999573 -0.999253
-0.999677 -0.999421 -0.998984
-0.999573 -0.999234 -0.99865
-0.99945 -0.99901 -0.998248
-0.999308 -0.998751 -0.997782
-0.999151 -0.998463 -0.997259
-0.998984 -0.998154 -0.996697
-0.998814 -0.99784 -0.99612
-0.99865 -0.997535 -0.995558
-0.998502 -0.997259 -0.995048
-0.998381 -0.997031 -0.994626
-0.998294 -0.996869 -0.994323
-0.998248 -0.996784 -0.994165
-0.998248 -0.996784 -0.994165
-0.998294 -0.996869 -0.994323
-0.998381 -0.997031 -0.994626
-0.998502 -0.997259 -0.995048
-0.99865 -0.997535 -0.995558
-0.998814 -0.99784 -0.99612
-0.998984 -0.998154 -0.996697
-0.999151 -0.998463 -0.997259
-0.999308 -0.998751 -0.997782
-0.99945 -0.99901 -0.998248
-0.999573 -0.999234 -0.99865
-0.999677 -0.999421 -0.998984
-0.999761 -0.999573 -0.999253
-0.999827 -0.999692 -0.999464
-0.999878 -0.999784 -0.999624
-0.999916 -0.999851 -0.999742
-0.999944 -0.9999 -0.999827
-0.999963 -0.999934 -0.999887
-0.999976 -0.999958 -0.999928
-0.999985 -0.999974 -0.999955
-0.999991 -0.999984 -0.999972
-0.999995 -0.99999 -0.999984
-0.999997 -0.999994 -0.99999
-0.999998 -0.999997 -0.999995
-0.999998 -0.999997 -0.999994
-0.999997 -0.999994 -0.99999
-0.999994 -0.99999 -0.999983
-0.999991 -0.999983 -0.999971
-0.999985 -0.999973 -0.999953
-0.999975 -0.999956 -0.999924
-0.999961 -0.999932 -0.999882
-0.999941 -0.999896 -0.999819
-0.999912 -0.999845 -0.99973
-0.999873 -0.999774 -0.999607
-0.999819 -0.999679 -0.99944
-0.99975 -0.999554 -0.99922
-0.999662 -0.999396 -0.998939
-0.999554 -0.9992 -0.99859
-0.999425 -0.998966 -0.998171
-0.999278 -0.998695 -0.997683
-0.999114 -0.998394 -0.997138
-0.998939 -0.998072 -0.996551
-0.998761 -0.997744 -0.995948
-0.99859 -0.997425 -0.995362
-0.998436 -0.997138 -0.994829
-0.998309 -0.9969 -0.994388
-0.998218 -0.99673 -0.994073
-0.998171 -0.996641 -0.993908
-0.998171 -0.996641 -0.993908
-0.998218 -0.99673 -0.994073
-0.998309 -0.9969 -0.994388
-0.998436 -0.997138 -0.994829
-0.99859 -0.997425 -0.995362
-0.998761 -0.997744 -0.995948
-0.998939 -0.998072 -0.996551
-0.999114 -0.998394 -0.997138
-0.999278 -0.998695 -0.997683
-0.999425 -0.998966 -0.998171
-0.999554 -0.9992 -0.99859
-0.999662 -0.999396 -0.998939
-0.99975 -0.999554 -0.99922
-0.999819 -0.999679 -0.99944
-0.999873 -0.999774 -0.999607
-0.999912 -0.999845 -0.99973
-0.999941 -0.999896 -0.999819
-0.999961 -0.999932 -0.999882
-0.999975 -0.999956 -0.999924
-0.999985 -0.999973 -0.999953
-0.999991 -0.999983 -0.999971
-0.999994 -0.99999 -0.999983
-0.999997 -0.999994 -0.99999
-0.999998 -0.999997 -0.999994
-0.999998 -0.999997 -0.999994
-0.999997 -0.999994 -0.99999
-0.999994 -0.99999 -0.999982
-0.99999 -0.999983 -0.99997
-0.999984 -0.999972 -0.999951
-0.999974 -0.999955 -0.999922
-0.99996 -0.999929 -0.999877
-0.999939 -0.999892 -0.999813
-0.999909 -0.999839 -0.999721
-0.999868 -0.999766 -0.999593
-0.999813 -0.999667 -0.999419
-0.999741 -0.999538 -0.999191
-0.99965 -0.999373 -0.9989
-0.999538 -0.99917 -0.998538
-0.999404 -0.998928 -0.998104
-0.999251 -0.998647 -0.997598
-0.999081 -0.998335 -0.997032
-0.9989 -0.998002 -0.996424
-0.998716 -0.997661 -0.995799
-0.998538 -0.997331 -0.995192
-0.998378 -0.997032 -0.99464
-0.998246 -0.996786 -0.994183
-0.998152 -0.99661 -0.993856
-0.998104 -0.996518 -0.993685
-0.998104 -0.996518 -0.993685
-0.998152 -0.99661 -0.993856
-0.998246 -0.996786 -0.994183
-0.998378 -0.997032 -0.99464
-0.998538 -0.997331 -0.995192
-0.998716 -0.997661 -0.995799
-0.9989 -0.998002 -0.996424
-0.999081 -0.998335 -0.997032
-0.999251 -0.998647 -0.997598
-0.999404 -0.998928 -0.998104
-0.999538 -0.99917 -0.998538
-0.99965 -0.999373 -0.9989
-0.999741 -0.999538 -0.999191
-0.999813 -0.999667 -0.999419
-0.999868 -0.999766 -0.999593
-0.999909 -0.999839 -0.999721
-0.999939 -0.999892 -0.999813
-0.99996 -0.999929 -0.999877
-0.999974 -0.999955 -0.999922
-0.999984 -0.999972 -0.999951
-0.99999 -0.999983 -0.99997
-0.999994 -0.99999 -0.999982
-0.999997 -0.999994 -0.99999
-0.999998 -0.999997 -0.999994
-0.999998 -0.999997 -0.999994
-0.999997 -0.999994 -0.999989
-0.999994 -0.999989 -0.999982
-0.99999 -0.999982 -0.999969
-0.999983 -0.999971 -0.99995
-0.999973 -0.999953 -0.999919
-0.999959 -0.999927 -0.999874
-0.999937 -0.999888 -0.999807
-0.999906 -0.999834 -0.999712
-0.999864 -0.999758 -0.99958
-0.999807 -0.999657 -0.999401
-0.999733 -0.999523 -0.999166
-0.999639 -0.999354 -0.998866
-0.999523 -0.999145 -0.998493
-0.999386 -0.998895 -0.998045
-0.999228 -0.998606 -0.997524
-0.999053 -0.998284 -0.996941
-0.998866 -0.99794 -0.996314
-0.998676 -0.997589 -0.995671
-0.998493 -0.997249 -0.995045
-0.998328 -0.996941 -0.994476
-0.998192 -0.996687 -0.994005
-0.998096 -0.996506 -0.993668
-0.998045 -0.996411 -0.993492
-0.998045 -0.996411 -0.993492
-0.998096 -0.996506 -0.993668
-0.998192 -0.996687 -0.994005
-0.998328 -0.996941 -0.994476
-0.998493 -0.997249 -0.995045
-0.998676 -0.997589 -0.995671
-0.998866 -0.99794 -0.996314
-0.999053 -0.998284 -0.996941
-0.999228 -0.998606 -0.997524
-0.999386 -0.998895 -0.998045
-0.999523 -0.999145 -0.998493
-0.999639 -0.999354 -0.998866
-0.999733 -0.999523 -0.999166
-0.999807 -0.999657 -0.999401
-0.999864 -0.999758 -0.99958
-0.999906 -0.999834 -0.999712
-0.999937 -0.999888 -0.999807
-0.999959 -0.999927 -0.999874
-0.999973 -0.999953 -0.999919
-0.999983 -0.999971 -0.99995
-0.99999 -0.999982 -0.999969
-0.999994 -0.999989 -0.999982
-0.999997 -0.999994 -0.999989
-0.999998 -0.999997 -0.999994
-0.999997 -0.999995 -0.999992
-0.999995 -0.999991 -0.999985
-0.999992 -0.999985 -0.999975
-0.999986 -0.999975 -0.999957
-0.999977 -0.999959 -0.99993
-0.999963 -0.999935 -0.999888
-0.999943 -0.999899 -0.999825
-0.999913 -0.999846 -0.999733
-0.99987 -0.99977 -0.999601
-0.999812 -0.999665 -0.999418
-0.999733 -0.999525 -0.999171
-0.99963 -0.99934 -0.998846
-0.9995 -0.999106 -0.998431
-0.99934 -0.998816 -0.997915
-0.99915 -0.998471 -0.997296
-0.998931 -0.998071 -0.996577
-0.998689 -0.997626 -0.995772
-0.998431 -0.997151 -0.994907
-0.998168 -0.996666 -0.99402
-0.997915 -0.996197 -0.993158
-0.997687 -0.995772 -0.992376
-0.9975 -0.995422 -0.991728
-0.997366 -0.995172 -0.991264
-0.997296 -0.995041 -0.991023
-0.997296 -0.995041 -0.991023
-0.997366 -0.995172 -0.991264
-0.9975 -0.995422 -0.991728
-0.997687 -0.995772 -0.992376
-0.997915 -0.996197 -0.993158
-0.998168 -0.996666 -0.99402
-0.998431 -0.997151 -0.994907
-0.998689 -0.997626 -0.995772
-0.998931 -0.998071 -0.996577
-0.99915 -0.998471 -0.997296
-0.99934 -0.998816 -0.997915
-0.9995 -0.999106 -0.998431
-0.99963 -0.99934 -0.998846
-0.999733 -0.999525 -0.999171
-0.999812 -0.999665 -0.999418
-0.99987 -0.99977 -0.999601
-0.999913 -0.999846 -0.999733
-0.999943 -0.999899 -0.999825
-0.999963 -0.999935 -0.999888
-0.999977 -0.999959 -0.99993
-0.999986 -0.999975 -0.999957
-0.999992 -0.999985 -0.999975
-0.999995 -0.999991 -0.999985
-0.999997 -0.999995 -0.999992
</DataArray>
<DataArray type="Float32" Name="m_xy" format="ascii">
0.0027407
0.0037127
0.00496951
0.00657249
0.00858885
0.0110897
0.0141472
0.0178307
0.0222018
0.027308
0.0331763
0.0398055
0.0471589
0.0551578
0.063676
0.0725383
0.0815209
0.0903575
0.0987503
0.106385
0.112951
0.118162
0.121781
0.123635
0.123635
0.121781
0.118162
0.112951
0.106385
0.0987503
0.0903575
0.0815209
0.0725383
0.063676
0.0551578
0.0471589
0.0398055
0.0331763
0.027308
0.0222018
0.0178307
0.0141472
0.0110897
0.00858885
0.00657249
0.00496951
0.0037127
0.0027407
0.00181444
0.00248498
0.0033624
0.00449488
0.00593644
0.00774581
0.00998455
0.0127143
0.0159932
0.0198709
0.0243836
0.0295473
0.0353513
0.0417523
0.0486686
0.0559764
0.0635093
0.0710606
0.0783906
0.0852371
0.0913315
0.096416
0.100264
0.102696
0.1036
0.102932
0.100731
0.0971056
0.0922286
0.0863213
0.0796353
0.0724342
0.0649754
0.0574962
0.0502028
0.0432635
0.0368056
0.0309165
0.0256461
0.021012
0.0170048
0.0135948
0.0107374
0.00837854
0.00645942
0.00492021
0.00370292
0.00275345
0.001722
0.00236247
0.00320202
0.00428754
0.00567174
0.00741211
0.00956913
0.0122037
0.0153735
0.0191286
0.023506
0.0285233
0.0341726
0.0404139
0.04717
0.0543222
0.06171
0.0691325
0.0763557
0.083123
0.0891697
0.0942411
0.0981115
0.100602
0.101595
0.101047
0.0989873
0.0955206
0.0908127
0.0850784
0.0785634
0.071526
0.0642196
0.0568788
0.0497079
0.0428744
0.0365061
0.0306909
0.0254802
0.0208932
0.0169224
0.0135397
0.0107022
0.00835755
0.00644814
0.0049153
0.00370194
0.00275472
0.00160908
0.00221279
0.00300608
0.00403424
0.00534836
0.00700441
0.00906159
0.0115799
0.0146165
0.0182218
0.0224337
0.0272722
0.0327323
0.0387785
0.0453388
0.052301
0.0595113
0.0667763
0.073869
0.0805393
0.0865276
0.0915829
0.0954807
0.0980413
0.0991449
0.0987416
0.0968558
0.0935832
0.0890821
0.0835594
0.0772534
0.070416
0.0632961
0.0561243
0.0491031
0.0423991
0.0361401
0.0304153
0.0252775
0.0207481
0.0168216
0.0134723
0.0106593
0.00833191
0.00643436
0.00490929
0.00370075
0.00275628
0.001468
0.00202579
0.0027613
0.00371779
0.00494435
0.00649507
0.00842751
0.0108005
0.0136707
0.0170887
0.0210941
0.0257091
0.0309329
0.0367352
0.0430508
0.0497754
0.0567638
0.0638318
0.0707613
0.0773102
0.0832255
0.0882604
0.0921925
0.0948409
0.0960822
0.0958603
0.0941914
0.0911616
0.0869191
0.0816608
0.075616
0.0690289
0.0621419
0.0551815
0.0483474
0.0418051
0.0356828
0.0300708
0.0250243
0.0205668
0.0166958
0.0133882
0.0106056
0.00829988
0.00641714
0.00490179
0.00369927
0.00275822
0.00128673
0.00178552
0.00244678
0.00331118
0.00442524
0.00584062
0.00761279
0.00979903
0.0124554
0.0156329
0.0193727
0.0237005
0.0286206
0.0341095
0.0401106
0.0465296
0.0532327
0.0600473
0.0667668
0.0731593
0.0789804
0.083989
0.0879648
0.0907261
0.0921444
0.0921558
0.0907656
0.0880481
0.0841382
0.07922
0.0735112
0.0672458
0.0606584
0.0539698
0.0473762
0.0410418
0.0350951
0.0296282
0.0246989
0.0203338
0.0165341
0.0132801
0.0105367
0.00825873
0.00639502
0.00489215
0.00369736
0.00276072
0.00104527
0.00146547
0.00202781
0.00276955
0.00373374
0.0049688
0.00652746
0.00846495
0.0108364
0.0136934
0.0170794
0.0210246
0.0255399
0.0306111
0.0361929
0.0422046
0.0485273
0.0550039
0.0614431
0.0676269
0.073322
0.078295
0.0823289
0.0852403
0.0868945
0.0872167
0.0861984
0.0838972
0.0804308
0.0759663
0.0707056
0.0648692
0.0586812
0.0523549
0.0460819
0.0400246
0.0343121
0.0290385
0.0242653
0.0200235
0.0163187
0.013136
0.0104448
0.0082039
0.00636555
0.00487931
0.00369482
0.00276406
0.000707703
0.00101801
0.00144204
0.00201223
0.00276685
0.00374978
0.00500985
0.00659948
0.00857254
0.0109813
0.0138725
0.0172824
0.0212315
0.0257182
0.0307134
0.0361551
0.0419451
0.0479483
0.0539947
0.0598857
0.0654038
0.0703263
0.0744409
0.077562
0.079546
0.0803033
0.0798055
0.0780873
0.075242
0.0714127
0.0667793
0.0615436
0.0559148
0.0500956
0.0442713
0.0386018
0.0332168
0.0282138
0.0236589
0.0195894
0.0160175
0.0129346
0.0103164
0.00812725
0.00632435
0.00486136
0.00369128
0.00276872
0.000203415
0.000349031
0.000565855
0.000879116
0.00131986
0.00192518
0.00273809
0.00380676
0.00518311
0.00692051
0.00907054
0.0116788
0.0147796
0.0183907
0.0225067
0.0270938
0.0320852
0.0373782
0.0428349
0.0482858
0.0535374
0.058383
0.0626174
0.0660519
0.0685297
0.0699388
0.0702214
0.0693774
0.0674637
0.0645871
0.0608946
0.0565597
0.0517694
0.0467104
0.0415587
0.0364704
0.0315762
0.0269784
0.0227507
0.0189394
0.0155664
0.012633
0.0101241
0.00801248
0.00626268
0.0048345
0.00368598
0.00277572
0.00064002
0.000768357
0.000896441
0.00101105
0.00109325
0.00111747
0.00105107
0.000855055
0.000493206
0.000275551
0.00111282
0.00237643
0.00406235
0.00621484
0.00886708
0.0120315
0.0156929
0.0198028
0.0242766
0.0289932
0.0337987
0.0385137
0.0429449
0.0468987
0.0501966
0.0526895
0.0542703
0.0548814
0.0545184
0.0532283
0.0511024
0.0482674
0.0448728
0.0410794
0.037047
0.0329257
0.028848
0.0249244
0.0212408
0.0178588
0.0148165
0.0121316
0.00980446
0.00782174
0.00616019
0.00478988
0.00367721
0.00278737
0.00231242
0.00298496
0.00379788
0.00476169
0.00588112
0.00715274
0.00856248
0.0100832
0.0116725
0.0132715
0.0148047
0.0161806
0.0172949
0.0180354
0.0182887
0.0179492
0.0169292
0.0151694
0.0126488
0.00939251
0.00547677
0.00104332
0.00380675
0.00878554
0.0137092
0.0183536
0.0225136
0.0260177
0.0287399
0.030607
0.0316005
0.0317526
0.0311385
0.029866
0.0280634
0.0258684
0.023417
0.0208358
0.0182358
0.0157084
0.0133245
0.0111342
0.00916862
0.00744239
0.00595643
0.00470123
0.00365985
0.00281062
0.00281767
0.00365463
0.00467449
0.00589493
0.00732787
0.00897664
0.010833
0.0128739
0.0150589
0.0173281
0.0196009
0.0217765
0.0237366
0.0253499
0.026479
0.0269905
0.0267655
0.0257124
0.0237785
0.0209601
0.017309
0.0129343
0.00799835
0.00270673
0.00270673
0.00799835
0.0129343
0.017309
0.0209601
0.0237785
0.0257124
0.0267655
0.0269905
0.026479
0.0253499
0.0237366
0.0217765
0.0196009
0.0173281
0.0150589
0.0128739
0.010833
0.00897664
0.00732787
0.00589493
0.00467449
0.00365463
0.00281767
0.00281767
0.00365463
0.00467449
0.00589493
0.00732787
0.00897664
0.010833
0.0128739
0.0150589
0.0173281
0.0196009
0.0217765
0.0237366
0.0253499
0.026479
0.0269905
0.0267655
0.0257124
0.0237785
0.0209601
0.017309
0.0129343
0.00799835
0.00270673
0.00270673
0.00799835
0.0129343
0.017309
0.0209601
0.0237785
0.0257124
0.0267655
0.0269905
0.026479
0.0253499
0.0237366
0.0217765
0.0196009
0.0173281
0.0150589
0.0128739
0.010833
0.00897664
0.00732787
0.00589493
0.00467449
0.00365463
0.00281767
0.00281062
0.00365985
0.00470123
0.00595643
0.00744239
0.00916862
0.0111342
0.0133245
0.0157084
0.0182358
0.0208358
0.023417
0.0258684
0.0280634
0.029866
0.0311385
0.0317526
0.0316005
0.030607
0.0287399
0.0260177
0.0225136
0.0183536
0.0137092
0.00878554
0.00380675
0.00104332
0.00547677
0.00939251
0.0126488
0.0151694
0.0169292
0.0179492
0.0182887
0.0180354
0.0172949
0.0161806
0.0148047
0.0132715
0.0116725
0.0100832
0.00856248
0.00715274
0.00588112
0.00476169
0.00379788
0.00298496
0.00231242
0.00278737
0.00367721
0.00478988
0.00616019
0.00782174
0.00980446
0.0121316
0.0148165
0.0178588
0.0212409
0.0249244
0.028848
0.0329257
0.037047
0.0410794
0.0448728
0.0482674
0.0511024
0.0532283
0.0545185
0.0548814
0.0542703
0.0526895
0.0501966
0.0468987
0.0429449
0.0385137
0.0337987
0.0289932
0.0242766
0.0198028
0.0156929
0.0120315
0.00886708
0.00621484
0.00406235
0.00237643
0.00111282
0.000275551
0.000493206
0.000855055
0.00105107
0.00111747
0.00109325
0.00101105
0.000896441
0.000768357
0.00064002
0.00277572
0.00368598
0.0048345
0.00626268
0.00801247
0.0101241
0.012633
0.0155664
0.0189394
0.0227507
0.0269784
0.0315761
0.0364704
0.0415587
0.0467104
0.0517694
0.0565597
0.0608946
0.0645871
0.0674637
0.0693774
0.0702214
0.0699388
0.0685297
0.0660519
0.0626174
0.058383
0.0535374
0.0482858
0.0428349
0.0373782
0.0320852
0.0270938
0.0225067
0.0183907
0.0147796
0.0116788
0.00907054
0.00692051
0.00518311
0.00380676
0.00273809
0.00192518
0.00131986
0.000879116
0.000565855
0.000349031
0.000203415
0.00276872
0.00369128
0.00486136
0.00632435
0.00812725
0.0103164
0.0129346
0.0160175
0.0195894
0.0236589
0.0282138
0.0332168
0.0386018
0.0442713
0.0500956
0.0559148
0.0615436
0.0667793
0.0714127
0.075242
0.0780873
0.0798055
0.0803033
0.079546
0.077562
0.0744409
0.0703263
0.0654038
0.0598857
0.0539947
0.0479483
0.0419451
0.0361551
0.0307134
0.0257182
0.0212315
0.0172824
0.0138725
0.0109813
0.00857254
0.00659948
0.00500985
0.00374978
0.00276685
0.00201223
0.00144204
0.00101801
0.000707703
0.00276406
0.00369482
0.00487931
0.00636555
0.0082039
0.0104448
0.013136
0.0163187
0.0200235
0.0242653
0.0290385
0.0343121
0.0400246
0.0460819
0.0523549
0.0586812
0.0648692
0.0707056
0.0759663
0.0804308
0.0838972
0.0861984
0.0872167
0.0868945
0.0852403
0.0823289
0.078295
0.073322
0.0676269
0.0614431
0.0550039
0.0485273
0.0422046
0.0361929
0.0306111
0.0255399
0.0210246
0.0170794
0.0136934
0.0108364
0.00846495
0.00652746
0.0049688
0.00373374
0.00276955
0.00202781
0.00146547
0.00104527
0.00276072
0.00369736
0.00489215
0.00639502
0.00825873
0.0105367
0.0132801
0.0165341
0.0203338
0.0246989
0.0296283
0.0350951
0.0410418
0.0473762
0.0539698
0.0606584
0.0672458
0.0735112
0.07922
0.0841382
0.0880481
0.0907656
0.0921558
0.0921444
0.0907261
0.0879648
0.083989
0.0789804
0.0731593
0.0667668
0.0600473
0.0532327
0.0465296
0.0401106
0.0341095
0.0286206
0.0237005
0.0193727
0.0156329
0.0124554
0.00979903
0.00761279
0.00584062
0.00442524
0.00331118
0.00244678
0.00178552
0.00128673
0.00275822
0.00369927
0.00490179
0.00641714
0.00829988
0.0106056
0.0133882
0.0166958
0.0205668
0.0250243
0.0300708
0.0356828
0.0418051
0.0483474
0.0551815
0.0621419
0.0690289
0.075616
0.0816608
0.0869191
0.0911616
0.0941914
0.0958603
0.0960822
0.0948409
0.0921925
0.0882604
0.0832254
0.0773102
0.0707613
0.0638318
0.0567638
0.0497754
0.0430508
0.0367352
0.0309329
0.0257091
0.0210941
0.0170887
0.0136707
0.0108005
0.00842751
0.00649507
0.00494435
0.00371779
0.0027613
0.00202579
0.001468
0.00275628
0.00370075
0.00490929
0.00643436
0.00833191
0.0106593
0.0134723
0.0168216
0.0207481
0.0252775
0.0304153
0.0361401
0.0423991
0.0491031
0.0561243
0.0632961
0.070416
0.0772534
0.0835594
0.0890821
0.0935832
0.0968558
0.0987416
0.0991449
0.0980413
0.0954807
0.0915829
0.0865276
0.0805393
0.073869
0.0667763
0.0595113
0.052301
0.0453388
0.0387785
0.0327323
0.0272722
0.0224337
0.0182218
0.0146165
0.0115799
0.00906159
0.00700441
0.00534836
0.00403424
0.00300608
0.00221279
0.00160908
0.00275472
0.00370194
0.0049153
0.00644814
0.00835755
0.0107022
0.0135397
0.0169224
0.0208932
0.0254802
0.0306909
0.0365061
0.0428744
0.0497079
0.0568788
0.0642196
0.071526
0.0785634
0.0850784
0.0908127
0.0955206
0.0989873
0.101047
0.101595
0.100602
0.0981115
0.0942411
0.0891697
0.083123
0.0763557
0.0691325
0.06171
0.0543222
0.04717
0.0404139
0.0341726
0.0285233
0.023506
0.0191286
0.0153735
0.0122037
0.00956913
0.00741211
0.00567174
0.00428754
0.00320202
0.00236247
0.001722
0.00275345
0.00370292
0.00492021
0.00645942
0.00837854
0.0107374
0.0135948
0.0170048
0.021012
0.0256461
0.0309165
0.0368056
0.0432635
0.0502028
0.0574962
0.0649754
0.0724342
0.0796353
0.0863213
0.0922286
0.0971056
0.100731
0.102932
0.1036
0.102696
0.100264
0.096416
0.0913315
0.0852371
0.0783906
0.0710606
0.0635093
0.0559764
0.0486686
0.0417523
0.0353513
0.0295473
0.0243836
0.0198709
0.0159932
0.0127143
0.00998455
0.00774581
0.00593644
0.00449488
0.0033624
0.00248498
0.00181444
0.0027407
0.0037127
0.00496951
0.00657249
0.00858885
0.0110897
0.0141472
0.0178307
0.0222018
0.027308
0.0331763
0.0398055
0.0471589
0.0551578
0.063676
0.0725383
0.0815209
0.0903575
0.0987503
0.106385
0.112951
0.118162
0.121781
0.123635
0.123635
0.121781
0.118162
0.112951
0.106385
0.0987503
0.0903575
0.0815209
0.0725383
0.063676
0.0551578
0.0471589
0.0398055
0.0331763
0.027308
0.0222018
0.0178307
0.0141472
0.0110897
0.00858885
0.00657249
0.00496951
0.0037127
0.0027407
0.00281767
0.00365463
0.00467449
0.00589493
0.00732787
0.00897664
0.010833
0.0128739
0.0150589
0.0173281
0.0196009
0.0217765
0.0237366
0.0253499
0.026479
0.0269905
0.0267655
0.0257124
0.0237785
0.0209601
0.017309
0.0129343
0.00799835
0.00270673
0.00270673
0.00799835
0.0129343
0.017309
0.0209601
0.0237785
0.0257124
0.0267655
0.0269905
0.026479
0.0253499
0.0237366
0.0217765
0.0196009
0.0173281
0.0150589
0.0128739
0.010833
0.00897664
0.00732787
0.00589493
0.00467449
0.00365463
0.00281767
0.00280476
0.0036642
0.00472353
0.0060077
0.00753785
0.00932864
0.0113852
0.0137
0.0162496
0.0189922
0.021865
0.0247841
0.0276449
0.0303249
0.0326887
0.0345958
0.0359096
0.0365091
0.0363003
0.0352271
0.0332805
0.0305034
0.0269914
0.0228874
0.0183719
0.0136489
0.00892961
0.00441836
0.000449793
0.00338056
0.00638268
0.00873021
0.0104128
0.0114617
0.0119388
0.011926
0.0115169
0.0108077
0.00989098
0.00885041
0.0077576
0.00667045
0.00563287
0.00467553
0.00381736
0.0030674
0.00242692
0.0018914
0.00280347
0.00366516
0.00472842
0.00601895
0.00755881
0.00936377
0.0114403
0.0137824
0.0163685
0.0191582
0.0220909
0.0250843
0.028035
0.0308214
0.0333085
0.0353548
0.0368223
0.0375869
0.0375504
0.0366516
0.0348754
0.0322582
0.0288886
0.0249033
0.0204775
0.0158111
0.0111126
0.0065839
0.00241405
0.00137621
0.00445701
0.0069311
0.00875849
0.00996304
0.0106004
0.0107474
0.010493
0.00993019
0.0091488
0.00823085
0.00724704
0.00625508
0.0052992
0.00441086
0.00361003
0.00290702
0.0023044
0.00179897
0.0028019
0.00366633
0.00473441
0.00603271
0.00758442
0.00940669
0.0115077
0.0138832
0.0165137
0.0193611
0.022367
0.025451
0.0285115
0.031428
0.0340656
0.0362822
0.0379375
0.0389037
0.0390778
0.0383922
0.0368242
0.0344022
0.0312067
0.0273666
0.0230505
0.0184532
0.0137804
0.00923233
0.00499041
0.00123932
0.00211855
0.00473552
0.00673823
0.00813237
0.00896532
0.0093074
0.00924216
0.00885813
0.00824209
0.00747393
0.00662329
0.0057476
0.00489154
0.0040875
0.00335674
0.00271109
0.00215472
0.00168604
0.00279994
0.00366779
0.00474188
0.00604989
0.00761641
0.00946032
0.0115918
0.014009
0.0166951
0.0196146
0.0227119
0.0259091
0.0291068
0.0321858
0.0350116
0.0374408
0.0393306
0.0405489
0.0409861
0.0405669
0.0392591
0.0370811
0.0341031
0.0304444
0.0262654
0.0217547
0.0171142
0.0125429
0.00822221
0.0043062
0.000964944
0.00201025
0.00421784
0.00584656
0.00692321
0.00750874
0.00767961
0.0075189
0.00710937
0.00652834
0.00584406
0.00511362
0.00438226
0.00368352
0.00304031
0.00246632
0.00196773
0.00154496
0.00279742
0.00366968
0.00475149
0.00607198
0.00765753
0.00952924
0.0116999
0.0141708
0.0169281
0.0199403
0.023155
0.0264977
0.0298717
0.0331595
0.0362269
0.0389295
0.0411207
0.0426627
0.0434382
0.0433612
0.0423879
0.0405236
0.0378252
0.0343998
0.030397
0.0259976
0.0213988
0.0167983
0.0123795
0.00829892
0.00467945
0.00162304
0.00103362
0.0029176
0.00430209
0.00519891
0.00567256
0.00579849
0.00565418
0.0053135
0.00484291
0.00429909
0.00372793
0.00316449
0.00263374
0.00215181
0.00172747
0.00136369
0.00279406
0.00367219
0.00476429
0.0061014
0.00771231
0.00962105
0.0118439
0.0143862
0.0172386
0.0203742
0.0237453
0.0272819
0.0308906
0.0344565
0.0378459
0.0409125
0.0435052
0.0454786
0.0467046
0.0470837
0.0465561
0.0451098
0.0427841
0.0396696
0.0359018
0.0316508
0.0271078
0.0224688
0.0179206
0.0136269
0.00971923
0.00629192
0.00340273
0.00109879
0.000865909
0.00213238
0.00300279
0.00350851
0.00371663
0.00369572
0.00350957
0.00321422
0.00285639
0.00247314
0.00209219
0.00173288
0.00140742
0.00112222
0.00278937
0.0036757
0.0047822
0.00614256
0.00778892
0.00974944
0.0120453
0.0146875
0.0176728
0.0209809
0.0245707
0.0283783
0.0323154
0.0362701
0.0401096
0.0436851
0.0468391
0.0494158
0.0512717
0.0522887
0.0523845
0.0515228
0.0497186
0.0470392
0.0436003
0.0395573
0.0350924
0.0304002
0.0256718
0.0210818
0.0167775
0.0128717
0.00943984
0.00652128
0.004123
0.00222684
0.000809322
0.000388218
0.00102152
0.00143881
0.0016476
0.00169849
0.00163841
0.00150681
0.00133515
0.00114723
0.000959982
0.000784618
0.00278236
0.00368097
0.00480904
0.0062042
0.00790365
0.00994172
0.0123469
0.0151386
0.0183229
0.0218893
0.0258066
0.0300198
0.0344483
0.0389851
0.0434983
0.0478355
0.0518298
0.0553093
0.0581083
0.0600801
0.0611093
0.0611232
0.0601001
0.0580726
0.0551267
0.0513957
0.0470487
0.0422773
0.0372799
0.0322475
0.0273512
0.0227328
0.0184999
0.014724
0.0114424
0.00866229
0.00636642
0.00451912
0.00307272
0.00197307
0.00116436
0.000593423
0.000217097
9.98736e-05
0.000209424
0.000273251
0.000291383
0.000279816
0.00277072
0.00368976
0.00485367
0.0063067
0.00809441
0.0102614
0.0128483
0.0158884
0.0194034
0.0233991
0.0278603
0.0327474
0.037992
0.0434953
0.0491272
0.054729
0.060118
0.0650961
0.0694605
0.0730173
0.0755962
0.0770644
0.077339
0.0763952
0.0742699
0.0710591
0.0669101
0.0620094
0.0565674
0.0508022
0.0449244
0.0391242
0.0335626
0.0283654
0.0236217
0.0193854
0.015679
0.0124984
0.00981927
0.0076026
0.00580027
0.00435968
0.00322755
0.00235265
0.00168782
0.00119113
0.000826362
0.000563137
0.00274765
0.00370736
0.00494261
0.00651081
0.00847413
0.0108975
0.0138459
0.0173802
0.0215528
0.0264016
0.0319439
0.0381696
0.0450348
0.0524561
0.0603068
0.0684154
0.0765678
0.0845136
0.0919767
0.0986707
0.104317
0.108665
0.111511
0.112719
0.112226
0.110056
0.106312
0.101169
0.0948586
0.0876523
0.0798377
0.0717008
0.0635078
0.0554924
0.0478473
0.0407194
0.0342107
0.0283807
0.0232516
0.0188154
0.01504
0.0118767
0.00926576
0.00714207
0.00543924
0.00409289
0.00304303
0.00223546
0.0027407
0.0037127
0.00496951
0.00657249
0.00858885
0.0110897
0.0141472
0.0178307
0.0222018
0.027308
0.0331763
0.0398055
0.0471589
0.0551578
0.063676
0.0725383
0.0815209
0.0903575
0.0987503
0.106385
0.112951
0.118162
0.121781
0.123635
0.123635
0.121781
0.118162
0.112951
0.106385
0.0987503
0.0903575
0.0815209
0.0725383
0.063676
0.0551578
0.0471589
0.0398055
0.0331763
0.027308
0.0222018
0.0178307
0.0141472
0.0110897
0.00858885
0.00657249
0.00496951
0.0037127
0.0027407
0.0027407
0.0037127
0.00496951
0.00657249
0.00858885
0.0110897
0.0141472
0.0178307
0.0222018
0.027308
0.0331763
0.0398055
0.0471589
0.0551578
0.063676
0.0725383
0.0815209
0.0903575
0.0987503
0.106385
0.112951
0.118162
0.121781
0.123635
0.123635
0.121781
0.118162
0.112951
0.106385
0.0987503
0.0903575
0.0815209
0.0725383
0.063676
0.0551578
0.0471589
0.0398055
0.0331763
0.027308
0.0222018
0.0178307
0.0141472
0.0110897
0.00858885
0.00657249
0.00496951
0.0037127
0.0027407
0.00223546
0.00304303
0.00409289
0.00543924
0.00714207
0.00926576
0.0118767
0.01504
0.0188154
0.0232516
0.0283807
0.0342107
0.0407194
0.0478473
0.0554924
0.0635078
0.0717008
0.0798377
0.0876523
0.0948586
0.101169
0.106312
0.110056
0.112226
0.112719
0.111511
0.108665
0.104317
0.0986707
0.0919767
0.0845136
0.0765678
0.0684154
0.0603068
0.0524561
0.0450348
0.0381696
0.0319439
0.0264016
0.0215528
0.0173802
0.0138459
0.0108975
0.00847413
0.00651081
0.00494261
0.00370736
0.00274765
0.000563137
0.000826362
0.00119113
0.00168782
0.00235265
0.00322755
0.00435968
0.00580027
0.0076026
0.00981927
0.0124984
0.015679
0.0193854
0.0236217
0.0283654
0.0335626
0.0391242
0.0449244
0.0508022
0.0565674
0.0620094
0.0669101
0.0710591
0.0742699
0.0763952
0.077339
0.0770644
0.0755962
0.0730173
0.0694605
0.0650961
0.060118
0.054729
0.0491272
0.0434953
0.037992
0.0327474
0.0278603
0.0233991
0.0194034
0.0158884
0.0128483
0.0102614
0.00809441
0.0063067
0.00485367
0.00368976
0.00277072
0.000279816
0.000291383
0.000273251
0.000209424
9.98736e-05
0.000217097
0.000593423
0.00116436
0.00197307
0.00307272
0.00451912
0.00636642
0.00866229
0.0114424
0.014724
0.0184999
0.0227328
0.0273512
0.0322475
0.0372799
0.0422773
0.0470487
0.0513957
0.0551267
0.0580726
0.0601001
0.0611232
0.0611093
0.0600801
0.0581083
0.0553093
0.0518298
0.0478355
0.0434983
0.0389851
0.0344483
0.0300198
0.0258066
0.0218893
0.0183229
0.0151386
0.0123469
0.00994172
0.00790365
0.0062042
0.00480904
0.00368097
0.00278236
0.000784618
0.000959982
0.00114723
0.00133515
0.00150681
0.00163841
0.00169849
0.0016476
0.00143881
0.00102152
0.000388218
0.000809322
0.00222684
0.004123
0.00652128
0.00943984
0.0128717
0.0167775
0.0210818
0.0256718
0.0304002
0.0350924
0.0395573
0.0436003
0.0470392
0.0497186
0.0515228
0.0523845
0.0522887
0.0512717
0.0494158
0.0468391
0.0436851
0.0401096
0.0362701
0.0323154
0.0283783
0.0245707
0.0209809
0.0176728
0.0146875
0.0120453
0.00974944
0.00778892
0.00614256
0.0047822
0.0036757
0.00278937
0.00112222
0.00140742
0.00173288
0.00209219
0.00247314
0.00285639
0.00321422
0.00350957
0.00369572
0.00371663
0.00350851
0.00300279
0.00213238
0.000865909
0.00109879
0.00340273
0.00629192
0.00971923
0.0136269
0.0179206
0.0224688
0.0271078
0.0316508
0.0359018
0.0396696
0.0427841
0.0451098
0.0465561
0.0470837
0.0467046
0.0454786
0.0435052
0.0409125
0.0378459
0.0344565
0.0308906
0.0272819
0.0237453
0.0203742
0.0172386
0.0143862
0.0118439
0.00962105
0.00771231
0.0061014
0.00476429
0.00367219
0.00279406
0.00136369
0.00172747
0.00215182
0.00263374
0.00316449
0.00372793
0.00429909
0.00484291
0.0053135
0.00565418
0.00579849
0.00567256
0.00519891
0.00430209
0.0029176
0.00103362
0.00162304
0.00467945
0.00829892
0.0123795
0.0167983
0.0213988
0.0259976
0.030397
0.0343998
0.0378252
0.0405236
0.0423879
0.0433612
0.0434382
0.0426627
0.0411207
0.0389295
0.0362269
0.0331595
0.0298717
0.0264977
0.023155
0.0199403
0.0169281
0.0141708
0.0116999
0.00952924
0.00765753
0.00607198
0.00475149
0.00366968
0.00279742
0.00154496
0.00196773
0.00246632
0.00304031
0.00368352
0.00438226
0.00511362
0.00584406
0.00652834
0.00710937
0.0075189
0.00767961
0.00750874
0.00692321
0.00584656
0.00421784
0.00201025
0.000964944
0.0043062
0.00822221
0.0125429
0.0171142
0.0217547
0.0262654
0.0304444
0.0341031
0.0370811
0.0392591
0.0405669
0.0409861
0.0405489
0.0393306
0.0374408
0.0350116
0.0321858
0.0291068
0.0259091
0.0227119
0.0196146
0.0166951
0.014009
0.0115918
0.00946032
0.00761641
0.00604989
0.00474188
0.00366779
0.00279994
0.00168604
0.00215472
0.00271109
0.00335674
0.0040875
0.00489154
0.0057476
0.00662329
0.00747393
0.00824208
0.00885813
0.00924216
0.0093074
0.00896532
0.00813237
0.00673823
0.00473552
0.00211855
0.00123932
0.00499041
0.00923233
0.0137804
0.0184532
0.0230505
0.0273666
0.0312067
0.0344022
0.0368242
0.0383922
0.0390778
0.0389037
0.0379375
0.0362822
0.0340656
0.031428
0.0285115
0.025451
0.022367
0.0193611
0.0165137
0.0138832
0.0115077
0.00940669
0.00758442
0.00603271
0.00473441
0.00366633
0.0028019
0.00179897
0.0023044
0.00290702
0.00361003
0.00441086
0.0052992
0.00625508
0.00724704
0.00823085
0.0091488
0.00993019
0.010493
0.0107474
0.0106004
0.00996304
0.00875849
0.0069311
0.00445701
0.00137621
0.00241405
0.0065839
0.0111126
0.0158111
0.0204775
0.0249033
0.0288886
0.0322582
0.0348754
0.0366516
0.0375504
0.0375869
0.0368223
0.0353548
0.0333085
0.0308214
0.028035
0.0250843
0.0220909
0.0191582
0.0163685
0.0137824
0.0114403
0.00936377
0.00755881
0.00601895
0.00472842
0.00366516
0.00280347
0.0018914
0.00242692
0.0030674
0.00381736
0.00467553
0.00563287
0.00667045
0.0077576
0.00885041
0.00989098
0.0108077
0.0115169
0.011926
0.0119388
0.0114617
0.0104128
0.00873021
0.00638268
0.00338056
0.000449793
0.00441836
0.00892961
0.0136489
0.0183719
0.0228874
0.0269914
0.0305034
0.0332805
0.0352271
0.0363003
0.0365091
0.0359096
0.0345958
0.0326887
0.0303249
0.0276449
0.0247841
0.021865
0.0189922
0.0162496
0.0137
0.0113852
0.00932864
0.00753785
0.0060077
0.00472353
0.0036642
0.00280476
0.00281767
0.00365463
0.00467449
0.00589493
0.00732787
0.00897664
0.010833
0.0128739
0.0150589
0.0173281
0.0196009
0.0217765
0.0237366
0.0253499
0.026479
0.0269905
0.0267655
0.0257124
0.0237785
0.0209601
0.017309
0.0129343
0.00799835
0.00270673
0.00270673
0.00799835
0.0129343
0.017309
0.0209601
0.0237785
0.0257124
0.0267655
0.0269905
0.026479
0.0253499
0.0237366
0.0217765
0.0196009
0.0173281
0.0150589
0.0128739
0.010833
0.00897664
0.00732787
0.00589493
0.00467449
0.00365463
0.00281767
1.41421
1.4142
1.4142
1.41419
1.41417
1.41414
1.4141
1.41404
1.41396
1.41384
1.41369
1.41349
1.41323
1.41291
1.41253
1.41209
1.41161
1.41109
1.41056
1.41005
1.40959
1.40921
1.40894
1.4088
1.4088
1.40894
1.40921
1.40959
1.41005
1.41056
1.41109
1.41161
1.41209
1.41253
1.41291
1.41323
1.41349
1.41369
1.41384
1.41396
1.41404
1.4141
1.41414
1.41417
1.41419
1.4142
1.4142
1.41421
1.41421
1.41421
1.4142
1.41419
1.41418
1.41416
1.41413
1.41409
1.41403
1.41395
1.41383
1.41369
1.4135
1.41327
1.413
1.41268
1.41233
1.41196
1.41157
1.4112
1.41087
1.41059
1.4104
1.41029
1.41029
1.4104
1.41059
1.41087
1.4112
1.41157
1.41196
1.41233
1.41268
1.413
1.41327
1.4135
1.41369
1.41383
1.41395
1.41403
1.41409
1.41413
1.41416
1.41418
1.41419
1.4142
1.41421
1.41421
1.41421
1.41421
1.4142
1.41419
1.41418
1.41416
1.41413
1.41409
1.41404
1.41395
1.41385
1.4137
1.41352
1.4133
1.41303
1.41273
1.41239
1.41202
1.41165
1.41129
1.41097
1.4107
1.41051
1.41041
1.41041
1.41051
1.4107
1.41097
1.41129
1.41165
1.41202
1.41239
1.41273
1.41303
1.4133
1.41352
1.4137
1.41385
1.41395
1.41404
1.41409
1.41413
1.41416
1.41418
1.41419
1.4142
1.41421
1.41421
1.41421
1.41421
1.4142
1.4142
1.41418
1.41417
1.41414
1.4141
1.41404
1.41396
1.41386
1.41372
1.41355
1.41333
1.41308
1.41278
1.41245
1.4121
1.41174
1.4114
1.41108
1.41083
1.41064
1.41055
1.41055
1.41064
1.41083
1.41108
1.4114
1.41174
1.4121
1.41245
1.41278
1.41308
1.41333
1.41355
1.41372
1.41386
1.41396
1.41404
1.4141
1.41414
1.41417
1.41418
1.4142
1.4142
1.41421
1.41421
1.41421
1.41421
1.4142
1.4142
1.41418
1.41417
1.41414
1.4141
1.41405
1.41397
1.41387
1.41374
1.41358
1.41337
1.41312
1.41284
1.41253
1.41219
1.41185
1.41152
1.41122
1.41097
1.41079
1.4107
1.4107
1.41079
1.41097
1.41122
1.41152
1.41185
1.41219
1.41253
1.41284
1.41312
1.41337
1.41358
1.41374
1.41387
1.41397
1.41405
1.4141
1.41414
1.41417
1.41418
1.4142
1.4142
1.41421
1.41421
1.41421
1.41421
1.4142
1.4142
1.41419
1.41417
1.41414
1.41411
1.41406
1.41399
1.41389
1.41377
1.41361
1.41341
1.41318
1.41291
1.41261
1.41229
1.41197
1.41165
1.41137
1.41114
1.41097
1.41088
1.41088
1.41097
1.41114
1.41137
1.41165
1.41197
1.41229
1.41261
1.41291
1.41318
1.41341
1.41361
1.41377
1.41389
1.41399
1.41406
1.41411
1.41414
1.41417
1.41419
1.4142
1.4142
1.41421
1.41421
1.41421
1.41421
1.4142
1.4142
1.41419
1.41417
1.41415
1.41412
1.41407
1.414
1.41391
1.41379
1.41365
1.41346
1.41324
1.41299
1.41271
1.41241
1.41211
1.41181
1.41154
1.41132
1.41117
1.41108
1.41108
1.41117
1.41132
1.41154
1.41181
1.41211
1.41241
1.41271
1.41299
1.41324
1.41346
1.41365
1.41379
1.41391
1.414
1.41407
1.41412
1.41415
1.41417
1.41419
1.4142
1.4142
1.41421
1.41421
1.41421
1.41421
1.4142
1.4142
1.41419
1.41418
1.41415
1.41412
1.41408
1.41402
1.41393
1.41382
1.41368
1.41351
1.41331
1.41308
1.41282
1.41254
1.41225
1.41198
1.41173
1.41152
1.41138
1.4113
1.4113
1.41138
1.41152
1.41173
1.41198
1.41225
1.41254
1.41282
1.41308
1.41331
1.41351
1.41368
1.41382
1.41393
1.41402
1.41408
1.41412
1.41415
1.41418
1.41419
1.4142
1.4142
1.41421
1.41421
1.41421
1.41421
1.41421
1.4142
1.41419
1.41418
1.41416
1.41413
1.41409
1.41403
1.41395
1.41385
1.41372
1.41356
1.41337
1.41314
1.4129
1.41264
1.41237
1.41211
1.41188
1.41169
1.41155
1.41148
1.41148
1.41155
1.41169
1.41188
1.41211
1.41237
1.41264
1.4129
1.41314
1.41337
1.41356
1.41372
1.41385
1.41395
1.41403
1.41409
1.41413
1.41416
1.41418
1.41419
1.4142
1.41421
1.41421
1.41421
1.41421
1.41421
1.41421
1.4142
1.41419
1.41418
1.41415
1.41412
1.41408
1.41402
1.41394
1.41383
1.4137
1.41353
1.41333
1.4131
1.41285
1.41258
1.4123
1.41203
1.41179
1.41159
1.41144
1.41137
1.41137
1.41144
1.41159
1.41179
1.41203
1.4123
1.41258
1.41285
1.4131
1.41333
1.41353
1.4137
1.41383
1.41394
1.41402
1.41408
1.41412
1.41415
1.41418
1.41419
1.4142
1.41421
1.41421
1.41421
1.41421
1.41421
1.4142
1.41419
1.41418
1.41415
1.41412
1.41407
1.414
1.4139
1.41378
1.41361
1.41339
1.41313
1.41281
1.41244
1.41204
1.4116
1.41116
1.41074
1.41035
1.41003
1.40981
1.40969
1.40969
1.40981
1.41003
1.41035
1.41074
1.41116
1.4116
1.41204
1.41244
1.41281
1.41313
1.41339
1.41361
1.41378
1.4139
1.414
1.41407
1.41412
1.41415
1.41418
1.41419
1.4142
1.41421
1.41421
1.41421
1.4142
1.4142
1.41419
1.41417
1.41414
1.4141
1.41404
1.41396
1.41384
1.41369
1.41349
1.41323
1.41291
1.41253
1.41209
1.41161
1.41109
1.41056
1.41005
1.40959
1.40921
1.40894
1.4088
1.4088
1.40894
1.40921
1.40959
1.41005
1.41056
1.41109
1.41161
1.41209
1.41253
1.41291
1.41323
1.41349
1.41369
1.41384
1.41396
1.41404
1.4141
1.41414
1.41417
1.41419
1.4142
1.4142
1.41421
1.41421
1.4142
1.4142
1.41419
1.41417
1.41414
1.4141
1.41404
1.41396
1.41384
1.41369
1.41349
1.41323
1.41291
1.41253
1.41209
1.41161
1.41109
1.41056
1.41005
1.40959
1.40921
1.40894
1.4088
1.4088
1.40894
1.40921
1.40959
1.41005
1.41056
1.41109
1.41161
1.41209
1.41253
1.41291
1.41323
1.41349
1.41369
1.41384
1.41396
1.41404
1.4141
1.41414
1.41417
1.41419
1.4142
1.4142
1.41421
1.41421
1.41421
1.4142
1.41419
1.41418
1.41415
1.41412
1.41407
1.414
1.4139
1.41378
1.41361
1.41339
1.41313
1.41281
1.41244
1.41204
1.4116
1.41116
1.41074
1.41035
1.41003
1.40981
1.40969
1.40969
1.40981
1.41003
1.41035
1.41074
1.41116
1.4116
1.41204
1.41244
1.41281
1.41313
1.41339
1.41361
1.41378
1.4139
1.414
1.41407
1.41412
1.41415
1.41418
1.41419
1.4142
1.41421
1.41421
1.41421
1.41421
1.41421
1.4142
1.41419
1.41418
1.41415
1.41412
1.41408
1.41402
1.41394
1.41383
1.4137
1.41353
1.41333
1.4131
1.41285
1.41258
1.4123
1.41203
1.41179
1.41159
1.41144
1.41137
1.41137
1.41144
1.41159
1.41179
1.41203
1.4123
1.41258
1.41285
1.4131
1.41333
1.41353
1.4137
1.41383
1.41394
1.41402
1.41408
1.41412
1.41415
1.41418
1.41419
1.4142
1.41421
1.41421
1.41421
1.41421
1.41421
1.41421
1.4142
1.41419
1.41418
1.41416
1.41413
1.41409
1.41403
1.41395
1.41385
1.41372
1.41356
1.41337
1.41314
1.4129
1.41264
1.41237
1.41211
1.41188
1.41169
1.41155
1.41148
1.41148
1.41155
1.41169
1.41188
1.41211
1.41237
1.41264
1.4129
1.41314
1.41337
1.41356
1.41372
1.41385
1.41395
1.41403
1.41409
1.41413
1.41416
1.41418
1.41419
1.4142
1.41421
1.41421
1.41421
1.41421
1.41421
1.4142
1.4142
1.41419
1.41418
1.41415
1.41412
1.41408
1.41402
1.41393
1.41382
1.41368
1.41351
1.41331
1.41308
1.41282
1.41254
1.41225
1.41198
1.41173
1.41152
1.41138
1.4113
1.4113
1.41138
1.41152
1.41173
1.41198
1.41225
1.41254
1.41282
1.41308
1.41331
1.41351
1.41368
1.41382
1.41393
1.41402
1.41408
1.41412
1.41415
1.41418
1.41419
1.4142
1.4142
1.41421
1.41421
1.41421
1.41421
1.4142
1.4142
1.41419
1.41417
1.41415
1.41412
1.41407
1.414
1.41391
1.41379
1.41365
1.41346
1.41324
1.41299
1.41271
1.41241
1.41211
1.41181
1.41154
1.41132
1.41117
1.41108
1.41108
1.41117
1.41132
1.41154
1.41181
1.41211
1.41241
1.41271
1.41299
1.41324
1.41346
1.41365
1.41379
1.41391
1.414
1.41407
1.41412
1.41415
1.41417
1.41419
1.4142
1.4142
1.41421
1.41421
1.41421
1.41421
1.4142
1.4142
1.41419
1.41417
1.41414
1.41411
1.41406
1.41399
1.41389
1.41377
1.41361
1.41341
1.41318
1.41291
1.41261
1.41229
1.41197
1.41165
1.41137
1.41114
1.41097
1.41088
1.41088
1.41097
1.41114
1.41137
1.41165
1.41197
1.41229
1.41261
1.41291
1.41318
1.41341
1.41361
1.41377
1.41389
1.41399
1.41406
1.41411
1.41414
1.41417
1.41419
1.4142
1.4142
1.41421
1.41421
1.41421
1.41421
1.4142
1.4142
1.41418
1.41417
1.41414
1.4141
1.41405
1.41397
1.41387
1.41374
1.41358
1.41337
1.41312
1.41284
1.41253
1.41219
1.41185
1.41152
1.41122
1.41097
1.41079
1.4107
1.4107
1.41079
1.41097
1.41122
1.41152
1.41185
1.41219
1.41253
1.41284
1.41312
1.41337
1.41358
1.41374
1.41387
1.41397
1.41405
1.4141
1.41414
1.41417
1.41418
1.4142
1.4142
1.41421
1.41421
1.41421
1.41421
1.4142
1.4142
1.41418
1.41417
1.41414
1.4141
1.41404
1.41396
1.41386
1.41372
1.41355
1.41333
1.41308
1.41278
1.41245
1.4121
1.41174
1.4114
1.41108
1.41083
1.41064
1.41055
1.41055
1.41064
1.41083
1.41108
1.4114
1.41174
1.4121
1.41245
1.41278
1.41308
1.41333
1.41355
1.41372
1.41386
1.41396
1.41404
1.4141
1.41414
1.41417
1.41418
1.4142
1.4142
1.41421
1.41421
1.41421
1.41421
1.4142
1.41419
1.41418
1.41416
1.41413
1.41409
1.41404
1.41395
1.41385
1.4137
1.41352
1.4133
1.41303
1.41273
1.41239
1.41202
1.41165
1.41129
1.41097
1.4107
1.41051
1.41041
1.41041
1.41051
1.4107
1.41097
1.41129
1.41165
1.41202
1.41239
1.41273
1.41303
1.4133
1.41352
1.4137
1.41385
1.41395
1.41404
1.41409
1.41413
1.41416
1.41418
1.41419
1.4142
1.41421
1.41421
1.41421
1.41421
1.4142
1.41419
1.41418
1.41416
1.41413
1.41409
1.41403
1.41395
1.41383
1.41369
1.4135
1.41327
1.413
1.41268
1.41233
1.41196
1.41157
1.4112
1.41087
1.41059
1.4104
1.41029
1.41029
1.4104
1.41059
1.41087
1.4112
1.41157
1.41196
1.41233
1.41268
1.413
1.41327
1.4135
1.41369
1.41383
1.41395
1.41403
1.41409
1.41413
1.41416
1.41418
1.41419
1.4142
1.41421
1.41421
1.41421
1.4142
1.4142
1.41419
1.41417
1.41414
1.4141
1.41404
1.41396
1.41384
1.41369
1.41349
1.41323
1.41291
1.41253
1.41209
1.41161
1.41109
1.41056
1.41005
1.40959
1.40921
1.40894
1.4088
1.4088
1.40894
1.40921
1.40959
1.41005
1.41056
1.41109
1.41161
1.41209
1.41253
1.41291
1.41323
1.41349
1.41369
1.41384
1.41396
1.41404
1.4141
1.41414
1.41417
1.41419
1.4142
1.4142
1.41421
</DataArray>
<DataArray type="Float32" Name="m_norm" format="ascii">
0.00389889
0.00528631
0.00708267
0.00937725
0.0122684
0.0158609
0.0202623
0.0255769
0.0318994
0.0393056
0.0478422
0.0575159
0.0682818
0.0800324
0.0925892
0.105698
0.119029
0.132185
0.144718
0.156148
0.165999
0.173833
0.179279
0.182072
0.182072
0.179279
0.173833
0.165999
0.156148
0.144718
0.132185
0.119029
0.105698
0.0925892
0.0800324
0.0682818
0.0575159
0.0478422
0.0393056
0.0318994
0.0255769
0.0202623
0.0158609
0.0122684
0.00937725
0.00708267
0.00528631
0.00389889
0.00255985
0.00351047
0.00475658
0.00636803
0.00842357
0.0110095
0.0142169
0.0181384
0.0228625
0.0284669
0.0350109
0.0425254
0.0510033
0.0603889
0.0705697
0.0813691
0.0925439
0.103788
0.11474
0.125003
0.134165
0.141828
0.14764
0.151323
0.152699
0.151704
0.148394
0.142942
0.135615
0.126757
0.116756
0.106014
0.0949208
0.0838334
0.0730571
0.0628377
0.0533582
0.0447406
0.037051
0.0303083
0.0244927
0.0195552
0.0154265
0.0120244
0.00926118
0.00704819
0.00530029
0.00393849
0.00242624
0.00333327
0.00452447
0.00606775
0.0080399
0.0105253
0.0136136
0.0173961
0.0219605
0.0273851
0.0337301
0.0410289
0.049278
0.0584272
0.0683701
0.078938
0.0898965
0.100948
0.111741
0.121886
0.130978
0.138623
0.14447
0.148242
0.149756
0.14894
0.145845
0.140632
0.133559
0.124959
0.115212
0.104712
0.093843
0.0829581
0.07236
0.0622938
0.052943
0.0444308
0.0368259
0.0301495
0.0243845
0.0194847
0.0153831
0.0120001
0.00924961
0.00704476
0.00530169
0.00394245
0.002263
0.00311679
0.00424091
0.0057009
0.00757117
0.00993386
0.0128766
0.0164891
0.0208586
0.0260634
0.0321652
0.0392004
0.04717
0.0560301
0.0656823
0.0759673
0.0866612
0.0974778
0.108076
0.118077
0.127082
0.134704
0.140596
0.144475
0.146157
0.145562
0.142729
0.137807
0.131045
0.122761
0.113324
0.10312
0.0925257
0.0818883
0.0715081
0.0616292
0.0524355
0.0440524
0.0365509
0.0299554
0.0242523
0.0193985
0.0153302
0.0119704
0.00923548
0.00704058
0.00530341
0.00394729
0.00205909
0.00284635
0.00388666
0.0052426
0.0069856
0.00919494
0.0119558
0.0153561
0.019482
0.0244121
0.0302101
0.0369158
0.0445362
0.0530349
0.0623237
0.0722549
0.0826179
0.0931403
0.103495
0.113314
0.122211
0.129805
0.135751
0.139765
0.141657
0.141337
0.138832
0.134276
0.127901
0.120013
0.110964
0.10113
0.0908792
0.0805513
0.0704435
0.0607986
0.0518015
0.0435795
0.0362072
0.029713
0.0240871
0.0192908
0.015264
0.0119332
0.00921782
0.00703535
0.00530556
0.00395334
0.00179711
0.0024989
0.00343153
0.00465377
0.00623323
0.00824554
0.0107727
0.0139002
0.0177131
0.0222903
0.0276978
0.0339802
0.0411516
0.0491858
0.0580072
0.0674834
0.0774206
0.0875643
0.0976049
0.107191
0.115948
0.123505
0.129519
0.133707
0.135869
0.135903
0.13382
0.129734
0.123859
0.116478
0.10793
0.0985724
0.0887624
0.0788326
0.069075
0.0597311
0.0509866
0.0429718
0.0357657
0.0294014
0.0238749
0.0191524
0.015179
0.0118855
0.00919515
0.00702864
0.00530833
0.00396111
0.00144819
0.00203613
0.00282533
0.00386948
0.00523109
0.00698093
0.00919674
0.0119609
0.0153567
0.0194637
0.0243509
0.0300691
0.0366421
0.0440571
0.0522554
0.0611247
0.0704938
0.080132
0.0897531
0.099027
0.107597
0.115103
0.121209
0.125627
0.128148
0.128655
0.127134
0.123677
0.118467
0.111765
0.103884
0.0951618
0.0859404
0.0765416
0.0672511
0.0583084
0.0499006
0.0421621
0.0351773
0.0289864
0.0235922
0.0189681
0.0150658
0.011822
0.00916496
0.00701971
0.00531202
0.00397148
0.00096065
0.00138941
0.00197806
0.00277321
0.0038302
0.005213
0.00699344
0.0092494
0.012062
0.0155113
0.0196707
0.0245996
0.0303354
0.0368838
0.0442098
0.0522292
0.0608024
0.0697318
0.0787642
0.0875995
0.0959056
0.103339
0.109571
0.114311
0.117335
0.118502
0.11777
0.115192
0.110916
0.105166
0.0982189
0.0903875
0.0819908
0.0733355
0.0646991
0.056318
0.0483816
0.0410295
0.0343544
0.0284059
0.0231968
0.0187104
0.0149075
0.0117332
0.00912276
0.00700725
0.00531721
0.00398599
0.000236916
0.000426309
0.00071404
0.0011359
0.00173641
0.00256934
0.00369755
0.00519228
0.00713119
0.00959526
0.0126643
0.0164106
0.0208917
0.0261411
0.0321591
0.0389037
0.0462823
0.0541471
0.0622943
0.070469
0.078376
0.0856977
0.0921157
0.0973357
0.101113
0.103271
0.103721
0.102464
0.0995903
0.095267
0.0897237
0.083229
0.0760697
0.06853
0.0608745
0.0533357
0.0461058
0.039333
0.033122
0.0275366
0.0226047
0.0183246
0.0146706
0.0116002
0.00905964
0.00698865
0.00532502
0.00400775
0.000990883
0.00119872
0.00141218
0.00161316
0.00177521
0.00186225
0.00182781
0.00161638
0.00117418
0.000584478
0.0011656
0.00286075
0.00522903
0.00830514
0.0121397
0.0167575
0.0221432
0.0282313
0.0348997
0.0419685
0.0492047
0.0563335
0.0630555
0.0690694
0.074096
0.0779024
0.0803212
0.0812638
0.0807256
0.078782
0.0755778
0.0713111
0.0662139
0.0605328
0.0545112
0.0483747
0.0423207
0.0365118
0.0310729
0.0260915
0.0216208
0.0176834
0.0142769
0.0113795
0.00895489
0.00695786
0.00533811
0.00404401
0.00340797
0.00440395
0.00561008
0.00704312
0.00871161
0.0106123
0.0127264
0.0150158
0.0174197
0.0198522
0.0222018
0.024332
0.0260853
0.0272902
0.0277714
0.0273631
0.0259245
0.0233572
0.0196211
0.0147479
0.00885065
0.00215834
0.00525404
0.0128218
0.02032
0.0273927
0.0337193
0.0390335
0.043142
0.0459357
0.0473911
0.0475644
0.0465776
0.0446016
0.0418368
0.0384954
0.0347849
0.0308963
0.0269951
0.0232165
0.0196636
0.0164084
0.0134945
0.010941
0.0087471
0.0068971
0.00536455
0.00411645
0.0041384
0.00537263
0.00687888
0.00868451
0.0108087
0.0132584
0.0160237
0.0190728
0.0223485
0.0257638
0.0292004
0.0325089
0.0355115
0.0380088
0.0397902
0.0406481
0.0403951
0.0388836
0.036025
0.0318063
0.0263013
0.0196745
0.0121751
0.00412167
0.00412167
0.0121751
0.0196745
0.0263013
0.0318063
0.036025
0.0388836
0.0403951
0.0406481
0.0397902
0.0380088
0.0355115
0.0325089
0.0292004
0.0257638
0.0223485
0.0190728
0.0160237
0.0132584
0.0108087
0.00868451
0.00687888
0.00537263
0.0041384
0.0041384
0.00537263
0.00687888
0.00868451
0.0108087
0.0132584
0.0160237
0.0190728
0.0223485
0.0257638
0.0292004
0.0325089
0.0355115
0.0380088
0.0397902
0.0406481
0.0403951
0.0388836
0.036025
0.0318063
0.0263013
0.0196745
0.0121751
0.00412167
0.00412167
0.0121751
0.0196745
0.0263013
0.0318063
0.036025
0.0388836
0.0403951
0.0406481
0.0397902
0.0380088
0.0355115
0.0325089
0.0292004
0.0257638
0.0223485
0.0190728
0.0160237
0.0132584
0.0108087
0.00868451
0.00687888
0.00537263
0.0041384
0.00411645
0.00536455
0.0068971
0.0087471
0.010941
0.0134945
0.0164084
0.0196636
0.0232165
0.0269951
0.0308963
0.0347849
0.0384954
0.0418368
0.0446016
0.0465776
0.0475644
0.0473911
0.0459357
0.043142
0.0390335
0.0337193
0.0273927
0.02032
0.0128218
0.00525404
0.00215834
0.00885065
0.0147479
0.0196211
0.0233572
0.0259245
0.0273631
0.0277714
0.0272902
0.0260853
0.024332
0.0222018
0.0198522
0.0174197
0.0150158
0.0127264
0.0106123
0.00871161
0.00704312
0.00561008
0.00440395
0.00340797
0.00404401
0.00533811
0.00695786
0.00895489
0.0113795
0.0142769
0.0176834
0.0216208
0.0260915
0.0310729
0.0365118
0.0423207
0.0483747
0.0545112
0.0605328
0.0662139
0.0713111
0.0755778
0.078782
0.0807256
0.0812638
0.0803212
0.0779024
0.074096
0.0690694
0.0630555
0.0563335
0.0492047
0.0419685
0.0348997
0.0282313
0.0221432
0.0167575
0.0121397
0.00830515
0.00522903
0.00286075
0.0011656
0.000584478
0.00117418
0.00161638
0.00182781
0.00186225
0.00177521
0.00161316
0.00141218
0.00119872
0.000990883
0.00400775
0.00532502
0.00698865
0.00905964
0.0116002
0.0146706
0.0183246
0.0226047
0.0275366
0.033122
0.039333
0.0461058
0.0533357
0.0608745
0.06853
0.0760697
0.083229
0.0897237
0.095267
0.0995903
0.102464
0.103721
0.103271
0.101113
0.0973357
0.0921157
0.0856977
0.078376
0.070469
0.0622943
0.0541471
0.0462823
0.0389037
0.0321591
0.0261411
0.0208917
0.0164106
0.0126643
0.00959526
0.00713119
0.00519228
0.00369755
0.00256934
0.00173641
0.0011359
0.00071404
0.000426309
0.000236916
0.00398599
0.00531721
0.00700725
0.00912276
0.0117332
0.0149075
0.0187104
0.0231968
0.0284059
0.0343544
0.0410295
0.0483816
0.056318
0.0646991
0.0733355
0.0819908
0.0903875
0.0982189
0.105166
0.110916
0.115192
0.11777
0.118502
0.117335
0.114311
0.109571
0.103339
0.0959056
0.0875995
0.0787642
0.0697318
0.0608024
0.0522292
0.0442098
0.0368838
0.0303354
0.0245996
0.0196707
0.0155113
0.012062
0.0092494
0.00699344
0.005213
0.0038302
0.00277321
0.00197806
0.00138941
0.00096065
0.00397148
0.00531202
0.00701971
0.00916496
0.011822
0.0150658
0.0189681
0.0235922
0.0289864
0.0351773
0.0421621
0.0499007
0.0583084
0.0672511
0.0765416
0.0859404
0.0951618
0.103884
0.111765
0.118467
0.123677
0.127134
0.128655
0.128148
0.125627
0.121209
0.115103
0.107597
0.099027
0.0897531
0.080132
0.0704938
0.0611247
0.0522554
0.0440571
0.0366421
0.0300691
0.0243509
0.0194637
0.0153567
0.0119609
0.00919674
0.00698093
0.00523109
0.00386948
0.00282533
0.00203613
0.00144819
0.00396111
0.00530833
0.00702864
0.00919515
0.0118855
0.015179
0.0191524
0.0238749
0.0294014
0.0357657
0.0429718
0.0509866
0.0597311
0.069075
0.0788326
0.0887624
0.0985724
0.10793
0.116478
0.123859
0.129734
0.13382
0.135903
0.135869
0.133707
0.129519
0.123505
0.115948
0.107191
0.0976049
0.0875643
0.0774206
0.0674834
0.0580072
0.0491858
0.0411516
0.0339802
0.0276978
0.0222903
0.0177131
0.0139002
0.0107727
0.00824554
0.00623323
0.00465377
0.00343153
0.0024989
0.00179711
0.00395334
0.00530556
0.00703535
0.00921782
0.0119332
0.015264
0.0192908
0.0240871
0.029713
0.0362072
0.0435795
0.0518015
0.0607986
0.0704435
0.0805513
0.0908792
0.10113
0.110964
0.120013
0.127901
0.134276
0.138832
0.141337
0.141657
0.139765
0.135751
0.129805
0.122211
0.113314
0.103495
0.0931403
0.0826179
0.0722549
0.0623237
0.0530349
0.0445362
0.0369158
0.0302101
0.0244121
0.019482
0.0153561
0.0119558
0.00919494
0.00698559
0.0052426
0.00388666
0.00284635
0.00205909
0.00394729
0.00530341
0.00704058
0.00923548
0.0119704
0.0153302
0.0193985
0.0242523
0.0299554
0.0365509
0.0440524
0.0524355
0.0616292
0.0715081
0.0818883
0.0925257
0.10312
0.113324
0.122761
0.131045
0.137807
0.142729
0.145562
0.146157
0.144475
0.140596
0.134704
0.127082
0.118077
0.108076
0.0974778
0.0866612
0.0759673
0.0656823
0.0560301
0.04717
0.0392004
0.0321652
0.0260634
0.0208586
0.0164891
0.0128766
0.00993386
0.00757117
0.0057009
0.00424091
0.00311679
0.002263
0.00394245
0.00530169
0.00704476
0.00924961
0.0120001
0.0153831
0.0194847
0.0243845
0.0301495
0.0368259
0.0444308
0.052943
0.0622938
0.07236
0.0829581
0.093843
0.104712
0.115212
0.124959
0.133559
0.140632
0.145845
0.14894
0.149756
0.148242
0.14447
0.138623
0.130978
0.121886
0.111741
0.100948
0.0898965
0.078938
0.0683701
0.0584272
0.049278
0.0410289
0.0337301
0.0273851
0.0219605
0.0173961
0.0136136
0.0105253
0.0080399
0.00606775
0.00452447
0.00333327
0.00242624
0.00393849
0.00530029
0.00704819
0.00926118
0.0120244
0.0154265
0.0195552
0.0244927
0.0303083
0.037051
0.0447406
0.0533582
0.0628377
0.0730571
0.0838334
0.0949208
0.106014
0.116756
0.126757
0.135615
0.142942
0.148394
0.151704
0.152699
0.151323
0.14764
0.141828
0.134165
0.125003
0.11474
0.103788
0.0925439
0.0813691
0.0705697
0.0603889
0.0510033
0.0425254
0.0350109
0.0284669
0.0228625
0.0181384
0.0142169
0.0110095
0.00842357
0.00636803
0.00475658
0.00351047
0.00255985
0.00389889
0.00528631
0.00708267
0.00937725
0.0122684
0.0158609
0.0202623
0.0255769
0.0318994
0.0393056
0.0478422
0.0575159
0.0682818
0.0800324
0.0925892
0.105698
0.119029
0.132185
0.144718
0.156148
0.165999
0.173833
0.179279
0.182072
0.182072
0.179279
0.173833
0.165999
0.156148
0.144718
0.132185
0.119029
0.105698
0.0925892
0.0800324
0.0682818
0.0575159
0.0478422
0.0393056
0.0318994
0.0255769
0.0202623
0.0158609
0.0122684
0.00937725
0.00708267
0.00528631
0.00389889
0.0041384
0.00537263
0.00687888
0.00868451
0.0108087
0.0132584
0.0160237
0.0190728
0.0223485
0.0257638
0.0292004
0.0325089
0.0355115
0.0380088
0.0397902
0.0406481
0.0403951
0.0388836
0.036025
0.0318063
0.0263013
0.0196745
0.0121751
0.00412167
0.00412167
0.0121751
0.0196745
0.0263013
0.0318063
0.036025
0.0388836
0.0403951
0.0406481
0.0397902
0.0380088
0.0355115
0.0325089
0.0292004
0.0257638
0.0223485
0.0190728
0.0160237
0.0132584
0.0108087
0.00868451
0.00687888
0.00537263
0.0041384
0.00409818
0.00535784
0.00691233
0.00879932
0.0110512
0.0136913
0.0167292
0.0201561
0.02394
0.0280214
0.0323097
0.0366818
0.0409823
0.0450274
0.0486121
0.0515207
0.0535418
0.0544854
0.0542016
0.0525986
0.0496574
0.0454409
0.0400951
0.0338419
0.026963
0.0197779
0.0126185
0.00581464
0.000995172
0.0059766
0.0104218
0.0138639
0.0162896
0.0177535
0.0183564
0.0182291
0.0175175
0.0163696
0.0149261
0.0133125
0.0116352
0.00997895
0.00840739
0.00696416
0.00567541
0.00455283
0.00359678
0.00279932
0.00409417
0.00535637
0.00691568
0.00881079
0.0110754
0.0137345
0.0167996
0.0202642
0.0240989
0.0282467
0.03262
0.0370982
0.0415283
0.0457279
0.0494926
0.052606
0.0548543
0.0560433
0.0560169
0.0546756
0.051991
0.0480158
0.0428856
0.0368126
0.03007
0.0229707
0.0158417
0.0090017
0.00279862
0.00304445
0.0075924
0.0112196
0.01386
0.0155548
0.0163955
0.0165046
0.0160216
0.0150893
0.0138447
0.0124109
0.010893
0.0093758
0.00792335
0.00658054
0.00537515
0.00432073
0.00341958
0.0026657
0.00408928
0.00535458
0.00691977
0.00882481
0.011105
0.0137873
0.0168857
0.0203963
0.024293
0.028522
0.0329992
0.0376071
0.0421954
0.0465838
0.0505684
0.053932
0.0564579
0.0579466
0.0582349
0.0572133
0.0548423
0.0511621
0.0462956
0.0404428
0.0338669
0.0268727
0.0197819
0.0129081
0.00654266
0.00123937
0.00416832
0.0079962
0.0108943
0.0128699
0.0140004
0.0143981
0.0141942
0.0135253
0.0125236
0.0113094
0.00998641
0.00863896
0.00733201
0.00611188
0.00500833
0.00403718
0.00320309
0.00250246
0.00408316
0.00535235
0.00692489
0.00884233
0.011142
0.0138533
0.0169932
0.0205614
0.0245355
0.028866
0.0334729
0.0382428
0.0430288
0.047653
0.0519124
0.0555886
0.0584612
0.0603246
0.061006
0.0603841
0.0584051
0.0550936
0.0505566
0.0449793
0.0386117
0.031749
0.0247069
0.0177958
0.0112987
0.00546735
0.00104254
0.00400982
0.00719956
0.00951973
0.0110102
0.0117676
0.0119119
0.0115718
0.0108734
0.00993356
0.00885386
0.0077185
0.0065933
0.00552642
0.00455009
0.00368294
0.00293265
0.00229852
0.00407531
0.00534949
0.00693148
0.00886485
0.0111895
0.0139381
0.0171314
0.0207735
0.0248471
0.029308
0.0340815
0.0390595
0.0440996
0.0490267
0.0536392
0.057717
0.0610353
0.0633801
0.0645667
0.0644584
0.0629833
0.0601459
0.0560326
0.0508094
0.0447098
0.0380166
0.0310378
0.0240814
0.0174315
0.0113298
0.00597301
0.00166086
0.0025503
0.00523678
0.00717645
0.00839163
0.00898166
0.00906298
0.00875397
0.00816623
0.00739901
0.00653604
0.00564428
0.00477427
0.00396136
0.00322784
0.00258518
0.0020365
0.00406486
0.00534568
0.00694026
0.00889487
0.0112529
0.0140511
0.0173155
0.0210562
0.0252622
0.0298968
0.0348923
0.0401476
0.0455259
0.0508567
0.0559394
0.0605522
0.0644641
0.0674502
0.0693099
0.0698862
0.0690826
0.066877
0.0633287
0.0585778
0.0528357
0.0463686
0.0394749
0.0324601
0.0256128
0.0191839
0.0133726
0.00832108
0.00412779
0.00110677
0.00217058
0.00392199
0.00508965
0.00572671
0.00593373
0.00581377
0.0054621
0.00496156
0.00438053
0.00377259
0.00317729
0.0026217
0.00212239
0.00168752
0.00405026
0.00534037
0.00695257
0.00893688
0.0113415
0.0142092
0.017573
0.0214514
0.0258428
0.0307201
0.0360261
0.041669
0.0475203
0.0534152
0.0591552
0.064516
0.0692578
0.0731404
0.0759414
0.0774749
0.0776107
0.0762892
0.0735315
0.0694417
0.0642003
0.0580502
0.0512765
0.0441817
0.0370618
0.0301842
0.0237715
0.0179909
0.0129507
0.00870374
0.00525584
0.00258737
0.000817847
0.00118053
0.00202485
0.00253913
0.00276112
0.002764
0.00261574
0.00237333
0.00208176
0.00177465
0.00147558
0.00119972
0.00402843
0.00533247
0.00697106
0.00899986
0.0114743
0.0144459
0.0179587
0.0220433
0.0267121
0.031953
0.0377236
0.0439466
0.0505058
0.0572449
0.0639686
0.0704485
0.076432
0.0816563
0.0858658
0.0888321
0.0903742
0.0903767
0.0888035
0.0857047
0.0812144
0.0755408
0.0689486
0.061736
0.0542107
0.046666
0.0393614
0.032509
0.0262659
0.0207326
0.015957
0.0119416
0.00865281
0.00603082
0.00399968
0.00247584
0.00137636
0.000630852
0.000247647
0.0003289
0.000458805
0.000514129
0.00051102
0.000471436
0.00399221
0.00531944
0.00700192
0.0091047
0.0116951
0.0148397
0.0186
0.0230274
0.0281571
0.0340018
0.0405441
0.0477305
0.0554649
0.0636051
0.071961
0.0802973
0.0883403
0.0957896
0.102335
0.107678
0.111553
0.113753
0.114147
0.112696
0.109457
0.104579
0.0982942
0.0908922
0.0826999
0.0740532
0.0652737
0.0566485
0.0484168
0.0407619
0.0338099
0.0276331
0.0222562
0.0176656
0.0138181
0.0106506
0.00808795
0.00604974
0.00445585
0.00323031
0.00230384
0.00161538
0.00111265
0.000752077
0.00392047
0.00529391
0.00706384
0.00931391
0.0121353
0.0156239
0.0198766
0.0249856
0.0310316
0.038076
0.0461508
0.0552489
0.0653137
0.07623
0.0878169
0.0998249
0.111937
0.12378
0.134935
0.144965
0.153444
0.159982
0.164265
0.166079
0.165329
0.16205
0.156403
0.148659
0.139181
0.128383
0.116709
0.104593
0.0924352
0.0805838
0.0693213
0.0588594
0.0493407
0.0408441
0.033394
0.0269704
0.0215196
0.0169648
0.0132146
0.0101712
0.00773581
0.00581385
0.00431763
0.00316847
0.00389889
0.00528631
0.00708267
0.00937725
0.0122684
0.0158609
0.0202623
0.0255769
0.0318994
0.0393056
0.0478422
0.0575159
0.0682818
0.0800324
0.0925892
0.105698
0.119029
0.132185
0.144718
0.156148
0.165999
0.173833
0.179279
0.182072
0.182072
0.179279
0.173833
0.165999
0.156148
0.144718
0.132185
0.119029
0.105698
0.0925892
0.0800324
0.0682818
0.0575159
0.0478422
0.0393056
0.0318994
0.0255769
0.0202623
0.0158609
0.0122684
0.00937725
0.00708267
0.00528631
0.00389889
0.00389889
0.00528631
0.00708267
0.00937725
0.0122684
0.0158609
0.0202623
0.0255769
0.0318994
0.0393056
0.0478422
0.0575159
0.0682818
0.0800324
0.0925892
0.105698
0.119029
0.132185
0.144718
0.156148
0.165999
0.173833
0.179279
0.182072
0.182072
0.179279
0.173833
0.165999
0.156148
0.144718
0.132185
0.119029
0.105698
0.0925892
0.0800324
0.0682818
0.0575159
0.0478422
0.0393056
0.0318994
0.0255769
0.0202623
0.0158609
0.0122684
0.00937725
0.00708267
0.00528631
0.00389889
0.00316847
0.00431763
0.00581385
0.00773581
0.0101712
0.0132146
0.0169648
0.0215196
0.0269704
0.033394
0.0408441
0.0493407
0.0588594
0.0693213
0.0805838
0.0924352
0.104593
0.116709
0.128383
0.139181
0.148659
0.156403
0.16205
0.165329
0.166079
0.164265
0.159982
0.153444
0.144965
0.134935
0.12378
0.111937
0.0998248
0.0878169
0.07623
0.0653137
0.0552489
0.0461508
0.038076
0.0310316
0.0249856
0.0198766
0.0156239
0.0121353
0.00931391
0.00706384
0.00529391
0.00392047
0.000752077
0.00111265
0.00161538
0.00230384
0.00323031
0.00445585
0.00604974
0.00808795
0.0106506
0.0138181
0.0176656
0.0222562
0.0276331
0.0338099
0.0407619
0.0484168
0.0566485
0.0652737
0.0740532
0.0826999
0.0908922
0.0982942
0.104579
0.109457
0.112696
0.114147
0.113753
0.111553
0.107678
0.102335
0.0957896
0.0883403
0.0802973
0.071961
0.0636051
0.0554649
0.0477305
0.0405441
0.0340018
0.0281571
0.0230274
0.0186
0.0148397
0.0116951
0.0091047
0.00700192
0.00531944
0.00399221
0.000471436
0.00051102
0.000514129
0.000458805
0.0003289
0.000247647
0.000630852
0.00137636
0.00247584
0.00399968
0.00603082
0.00865281
0.0119416
0.015957
0.0207326
0.0262659
0.032509
0.0393614
0.046666
0.0542107
0.061736
0.0689486
0.0755408
0.0812144
0.0857047
0.0888035
0.0903767
0.0903742
0.0888321
0.0858658
0.0816563
0.076432
0.0704485
0.0639686
0.0572449
0.0505058
0.0439466
0.0377236
0.031953
0.0267121
0.0220433
0.0179587
0.0144459
0.0114743
0.00899986
0.00697106
0.00533247
0.00402843
0.00119972
0.00147558
0.00177465
0.00208176
0.00237333
0.00261574
0.002764
0.00276112
0.00253913
0.00202485
0.00118053
0.000817847
0.00258737
0.00525584
0.00870374
0.0129507
0.0179909
0.0237715
0.0301842
0.0370618
0.0441817
0.0512765
0.0580502
0.0642003
0.0694417
0.0735315
0.0762892
0.0776107
0.0774749
0.0759414
0.0731404
0.0692578
0.064516
0.0591552
0.0534152
0.0475203
0.041669
0.0360261
0.0307201
0.0258428
0.0214514
0.017573
0.0142092
0.0113415
0.00893688
0.00695257
0.00534037
0.00405026
0.00168752
0.00212239
0.0026217
0.00317729
0.00377259
0.00438053
0.00496155
0.0054621
0.00581377
0.00593373
0.00572671
0.00508965
0.00392199
0.00217058
0.00110677
0.00412779
0.00832108
0.0133726
0.0191839
0.0256128
0.0324601
0.0394749
0.0463686
0.0528357
0.0585778
0.0633287
0.066877
0.0690826
0.0698862
0.0693099
0.0674502
0.0644641
0.0605522
0.0559394
0.0508567
0.0455259
0.0401476
0.0348923
0.0298968
0.0252622
0.0210562
0.0173155
0.0140511
0.0112529
0.00889487
0.00694026
0.00534568
0.00406486
0.0020365
0.00258518
0.00322784
0.00396136
0.00477427
0.00564428
0.00653604
0.00739901
0.00816623
0.00875397
0.00906298
0.00898166
0.00839163
0.00717645
0.00523678
0.0025503
0.00166086
0.00597301
0.0113298
0.0174315
0.0240814
0.0310378
0.0380166
0.0447099
0.0508094
0.0560326
0.0601459
0.0629833
0.0644584
0.0645667
0.0633801
0.0610353
0.057717
0.0536392
0.0490267
0.0440996
0.0390595
0.0340815
0.029308
0.0248471
0.0207735
0.0171314
0.0139381
0.0111895
0.00886485
0.00693148
0.00534949
0.00407531
0.00229852
0.00293265
0.00368294
0.00455009
0.00552642
0.0065933
0.0077185
0.00885386
0.00993356
0.0108734
0.0115718
0.0119119
0.0117676
0.0110102
0.00951973
0.00719956
0.00400982
0.00104254
0.00546735
0.0112987
0.0177958
0.0247069
0.031749
0.0386117
0.0449793
0.0505566
0.0550936
0.0584051
0.0603841
0.061006
0.0603246
0.0584612
0.0555886
0.0519124
0.047653
0.0430288
0.0382428
0.0334729
0.028866
0.0245355
0.0205614
0.0169932
0.0138533
0.011142
0.00884233
0.00692489
0.00535235
0.00408316
0.00250246
0.00320309
0.00403718
0.00500833
0.00611188
0.00733201
0.00863896
0.00998641
0.0113094
0.0125236
0.0135253
0.0141942
0.0143981
0.0140004
0.0128699
0.0108943
0.0079962
0.00416832
0.00123937
0.00654266
0.0129081
0.0197819
0.0268727
0.0338669
0.0404428
0.0462956
0.0511621
0.0548423
0.0572133
0.0582349
0.0579466
0.0564579
0.053932
0.0505684
0.0465838
0.0421954
0.0376071
0.0329992
0.028522
0.024293
0.0203963
0.0168857
0.0137873
0.011105
0.00882481
0.00691977
0.00535458
0.00408928
0.0026657
0.00341958
0.00432073
0.00537515
0.00658054
0.00792335
0.0093758
0.010893
0.0124109
0.0138447
0.0150893
0.0160216
0.0165046
0.0163955
0.0155548
0.01386
0.0112196
0.0075924
0.00304445
0.00279862
0.0090017
0.0158417
0.0229707
0.03007
0.0368126
0.0428856
0.0480158
0.051991
0.0546756
0.0560169
0.0560433
0.0548543
0.052606
0.0494926
0.0457279
0.0415283
0.0370982
0.03262
0.0282467
0.0240989
0.0202642
0.0167996
0.0137345
0.0110754
0.00881079
0.00691568
0.00535637
0.00409417
0.00279932
0.00359678
0.00455283
0.00567541
0.00696416
0.00840739
0.00997895
0.0116352
0.0133125
0.0149261
0.0163696
0.0175175
0.0182291
0.0183564
0.0177535
0.0162896
0.0138639
0.0104218
0.0059766
0.000995172
0.00581464
0.0126185
0.0197779
0.026963
0.0338419
0.0400951
0.0454409
0.0496574
0.0525986
0.0542016
0.0544854
0.0535418
0.0515207
0.0486121
0.0450274
0.0409823
0.0366818
0.0323097
0.0280214
0.02394
0.0201561
0.0167292
0.0136913
0.0110512
0.00879932
0.00691233
0.00535784
0.00409818
0.0041384
0.00537263
0.00687888
0.00868451
0.0108087
0.0132584
0.0160237
0.0190728
0.0223485
0.0257638
0.0292004
0.0325089
0.0355115
0.0380088
0.0397902
0.0406481
0.0403951
0.0388836
0.036025
0.0318063
0.0263013
0.0196745
0.0121751
0.00412167
0.00412167
0.0121751
0.0196745
0.0263013
0.0318063
0.036025
0.0388836
0.0403951
0.0406481
0.0397902
0.0380088
0.0355115
0.0325089
0.0292004
0.0257638
0.0223485
0.0190728
0.0160237
0.0132584
0.0108087
0.00868451
0.00687888
0.00537263
0.0041384
1.73204
1.73203
1.73202
1.732
1.73197
1.73193
1.73186
1.73176
1.73161
1.73141
1.73114
1.73079
1.73034
1.72978
1.72912
1.72834
1.72748
1.72656
1.72562
1.7247
1.72388
1.72319
1.7227
1.72245
1.72245
1.7227
1.72319
1.72388
1.7247
1.72562
1.72656
1.72748
1.72834
1.72912
1.72978
1.73034
1.73079
1.73114
1.73141
1.73161
1.73176
1.73186
1.73193
1.73197
1.732
1.73202
1.73203
1.73204
1.73204
1.73204
1.73203
1.73202
1.732
1.73196
1.73191
1.73184
1.73173
1.73159
1.7314
1.73114
1.73081
1.73041
1.72993
1.72937
1.72875
1.72808
1.7274
1.72673
1.72613
1.72564
1.72528
1.7251
1.7251
1.72528
1.72564
1.72613
1.72673
1.7274
1.72808
1.72875
1.72937
1.72993
1.73041
1.73081
1.73114
1.7314
1.73159
1.73173
1.73184
1.73191
1.73196
1.732
1.73202
1.73203
1.73204
1.73204
1.73204
1.73204
1.73203
1.73202
1.732
1.73196
1.73192
1.73184
1.73174
1.7316
1.73142
1.73117
1.73085
1.73046
1.72999
1.72945
1.72885
1.7282
1.72753
1.72689
1.72631
1.72583
1.72548
1.7253
1.7253
1.72548
1.72583
1.72631
1.72689
1.72753
1.7282
1.72885
1.72945
1.72999
1.73046
1.73085
1.73117
1.73142
1.7316
1.73174
1.73184
1.73192
1.73196
1.732
1.73202
1.73203
1.73204
1.73204
1.73204
1.73204
1.73203
1.73202
1.732
1.73197
1.73192
1.73185
1.73175
1.73162
1.73144
1.7312
1.73089
1.73052
1.73007
1.72954
1.72896
1.72833
1.72769
1.72707
1.72651
1.72605
1.72571
1.72554
1.72554
1.72571
1.72605
1.72651
1.72707
1.72769
1.72833
1.72896
1.72954
1.73007
1.73052
1.73089
1.7312
1.73144
1.73162
1.73175
1.73185
1.73192
1.73197
1.732
1.73202
1.73203
1.73204
1.73204
1.73204
1.73204
1.73203
1.73202
1.732
1.73197
1.73193
1.73186
1.73177
1.73164
1.73146
1.73124
1.73094
1.73058
1.73015
1.72965
1.72909
1.72849
1.72788
1.72729
1.72675
1.7263
1.72598
1.72582
1.72582
1.72598
1.7263
1.72675
1.72729
1.72788
1.72849
1.72909
1.72965
1.73015
1.73058
1.73094
1.73124
1.73146
1.73164
1.73177
1.73186
1.73193
1.73197
1.732
1.73202
1.73203
1.73204
1.73204
1.73205
1.73204
1.73203
1.73202
1.732
1.73198
1.73193
1.73187
1.73178
1.73166
1.73149
1.73128
1.731
1.73066
1.73025
1.72977
1.72924
1.72867
1.72809
1.72753
1.72702
1.72659
1.72629
1.72613
1.72613
1.72629
1.72659
1.72702
1.72753
1.72809
1.72867
1.72924
1.72977
1.73025
1.73066
1.731
1.73128
1.73149
1.73166
1.73178
1.73187
1.73193
1.73198
1.732
1.73202
1.73203
1.73204
1.73205
1.73205
1.73204
1.73203
1.73202
1.73201
1.73198
1.73194
1.73188
1.7318
1.73168
1.73153
1.73132
1.73106
1.73074
1.73036
1.72991
1.72941
1.72888
1.72833
1.7278
1.72732
1.72693
1.72664
1.7265
1.7265
1.72664
1.72693
1.72732
1.7278
1.72833
1.72888
1.72941
1.72991
1.73036
1.73074
1.73106
1.73132
1.73153
1.73168
1.7318
1.73188
1.73194
1.73198
1.73201
1.73202
1.73203
1.73204
1.73205
1.73205
1.73204
1.73204
1.73203
1.73201
1.73198
1.73195
1.73189
1.73182
1.73171
1.73156
1.73137
1.73113
1.73083
1.73048
1.73006
1.7296
1.7291
1.72859
1.7281
1.72765
1.72728
1.72702
1.72688
1.72688
1.72702
1.72728
1.72765
1.7281
1.72859
1.7291
1.7296
1.73006
1.73048
1.73083
1.73113
1.73137
1.73156
1.73171
1.73182
1.73189
1.73195
1.73198
1.73201
1.73203
1.73204
1.73204
1.73205
1.73205
1.73204
1.73204
1.73203
1.73201
1.73199
1.73195
1.7319
1.73183
1.73173
1.73159
1.73142
1.73119
1.73091
1.73057
1.73018
1.72974
1.72928
1.7288
1.72834
1.72791
1.72757
1.72732
1.72719
1.72719
1.72732
1.72757
1.72791
1.72834
1.7288
1.72928
1.72974
1.73018
1.73057
1.73091
1.73119
1.73142
1.73159
1.73173
1.73183
1.7319
1.73195
1.73199
1.73201
1.73203
1.73204
1.73204
1.73205
1.73205
1.73204
1.73204
1.73203
1.73201
1.73199
1.73195
1.7319
1.73182
1.73172
1.73158
1.73139
1.73115
1.73086
1.73051
1.73011
1.72965
1.72917
1.72867
1.72819
1.72775
1.72739
1.72713
1.727
1.727
1.72713
1.72739
1.72775
1.72819
1.72867
1.72917
1.72965
1.73011
1.73051
1.73086
1.73115
1.73139
1.73158
1.73172
1.73182
1.7319
1.73195
1.73199
1.73201
1.73203
1.73204
1.73204
1.73205
1.73204
1.73204
1.73203
1.73201
1.73199
1.73195
1.73189
1.73181
1.73169
1.73152
1.73129
1.731
1.73062
1.73016
1.7296
1.72896
1.72824
1.72746
1.72668
1.72591
1.72522
1.72465
1.72424
1.72402
1.72402
1.72424
1.72465
1.72522
1.72591
1.72668
1.72746
1.72824
1.72896
1.7296
1.73016
1.73062
1.731
1.73129
1.73152
1.73169
1.73181
1.73189
1.73195
1.73199
1.73201
1.73203
1.73204
1.73204
1.73204
1.73203
1.73202
1.732
1.73197
1.73193
1.73186
1.73176
1.73161
1.73141
1.73114
1.73079
1.73034
1.72978
1.72912
1.72834
1.72748
1.72656
1.72562
1.7247
1.72388
1.72319
1.7227
1.72245
1.72245
1.7227
1.72319
1.72388
1.7247
1.72562
1.72656
1.72748
1.72834
1.72912
1.72978
1.73034
1.73079
1.73114
1.73141
1.73161
1.73176
1.73186
1.73193
1.73197
1.732
1.73202
1.73203
1.73204
1.73204
1.73203
1.73202
1.732
1.73197
1.73193
1.73186
1.73176
1.73161
1.73141
1.73114
1.73079
1.73034
1.72978
1.72912
1.72834
1.72748
1.72656
1.72562
1.7247
1.72388
1.72319
1.7227
1.72245
1.72245
1.7227
1.72319
1.72388
1.7247
1.72562
1.72656
1.72748
1.72834
1.72912
1.72978
1.73034
1.73079
1.73114
1.73141
1.73161
1.73176
1.73186
1.73193
1.73197
1.732
1.73202
1.73203
1.73204
1.73204
1.73204
1.73203
1.73201
1.73199
1.73195
1.73189
1.73181
1.73169
1.73152
1.73129
1.731
1.73062
1.73016
1.7296
1.72896
1.72824
1.72746
1.72668
1.72591
1.72522
1.72465
1.72424
1.72402
1.72402
1.72424
1.72465
1.72522
1.72591
1.72668
1.72746
1.72824
1.72896
1.7296
1.73016
1.73062
1.731
1.73129
1.73152
1.73169
1.73181
1.73189
1.73195
1.73199
1.73201
1.73203
1.73204
1.73204
1.73205
1.73204
1.73204
1.73203
1.73201
1.73199
1.73195
1.7319
1.73182
1.73172
1.73158
1.73139
1.73115
1.73086
1.73051
1.73011
1.72965
1.72917
1.72867
1.72819
1.72775
1.72739
1.72713
1.727
1.727
1.72713
1.72739
1.72775
1.72819
1.72867
1.72917
1.72965
1.73011
1.73051
1.73086
1.73115
1.73139
1.73158
1.73172
1.73182
1.7319
1.73195
1.73199
1.73201
1.73203
1.73204
1.73204
1.73205
1.73205
1.73204
1.73204
1.73203
1.73201
1.73199
1.73195
1.7319
1.73183
1.73173
1.73159
1.73142
1.73119
1.73091
1.73057
1.73018
1.72974
1.72928
1.7288
1.72834
1.72791
1.72757
1.72732
1.72719
1.72719
1.72732
1.72757
1.72791
1.72834
1.7288
1.72928
1.72974
1.73018
1.73057
1.73091
1.73119
1.73142
1.73159
1.73173
1.73183
1.7319
1.73195
1.73199
1.73201
1.73203
1.73204
1.73204
1.73205
1.73205
1.73204
1.73204
1.73203
1.73201
1.73198
1.73195
1.73189
1.73182
1.73171
1.73156
1.73137
1.73113
1.73083
1.73048
1.73006
1.7296
1.7291
1.72859
1.7281
1.72765
1.72728
1.72702
1.72688
1.72688
1.72702
1.72728
1.72765
1.7281
1.72859
1.7291
1.7296
1.73006
1.73048
1.73083
1.73113
1.73137
1.73156
1.73171
1.73182
1.73189
1.73195
1.73198
1.73201
1.73203
1.73204
1.73204
1.73205
1.73205
1.73204
1.73203
1.73202
1.73201
1.73198
1.73194
1.73188
1.7318
1.73168
1.73153
1.73132
1.73106
1.73074
1.73036
1.72991
1.72941
1.72888
1.72833
1.7278
1.72732
1.72693
1.72664
1.7265
1.7265
1.72664
1.72693
1.72732
1.7278
1.72833
1.72888
1.72941
1.72991
1.73036
1.73074
1.73106
1.73132
1.73153
1.73168
1.7318
1.73188
1.73194
1.73198
1.73201
1.73202
1.73203
1.73204
1.73205
1.73205
1.73204
1.73203
1.73202
1.732
1.73198
1.73193
1.73187
1.73178
1.73166
1.73149
1.73128
1.731
1.73066
1.73025
1.72977
1.72924
1.72867
1.72809
1.72753
1.72702
1.72659
1.72629
1.72613
1.72613
1.72629
1.72659
1.72702
1.72753
1.72809
1.72867
1.72924
1.72977
1.73025
1.73066
1.731
1.73128
1.73149
1.73166
1.73178
1.73187
1.73193
1.73198
1.732
1.73202
1.73203
1.73204
1.73205
1.73204
1.73204
1.73203
1.73202
1.732
1.73197
1.73193
1.73186
1.73177
1.73164
1.73146
1.73124
1.73094
1.73058
1.73015
1.72965
1.72909
1.72849
1.72788
1.72729
1.72675
1.7263
1.72598
1.72582
1.72582
1.72598
1.7263
1.72675
1.72729
1.72788
1.72849
1.72909
1.72965
1.73015
1.73058
1.73094
1.73124
1.73146
1.73164
1.73177
1.73186
1.73193
1.73197
1.732
1.73202
1.73203
1.73204
1.73204
1.73204
1.73204
1.73203
1.73202
1.732
1.73197
1.73192
1.73185
1.73175
1.73162
1.73144
1.7312
1.73089
1.73052
1.73007
1.72954
1.72896
1.72833
1.72769
1.72707
1.72651
1.72605
1.72571
1.72554
1.72554
1.72571
1.72605
1.72651
1.72707
1.72769
1.72833
1.72896
1.72954
1.73007
1.73052
1.73089
1.7312
1.73144
1.73162
1.73175
1.73185
1.73192
1.73197
1.732
1.73202
1.73203
1.73204
1.73204
1.73204
1.73204
1.73203
1.73202
1.732
1.73196
1.73192
1.73184
1.73174
1.7316
1.73142
1.73117
1.73085
1.73046
1.72999
1.72945
1.72885
1.7282
1.72753
1.72689
1.72631
1.72583
1.72548
1.7253
1.7253
1.72548
1.72583
1.72631
1.72689
1.72753
1.7282
1.72885
1.72945
1.72999
1.73046
1.73085
1.73117
1.73142
1.7316
1.73174
1.73184
1.73192
1.73196
1.732
1.73202
1.73203
1.73204
1.73204
1.73204
1.73204
1.73203
1.73202
1.732
1.73196
1.73191
1.73184
1.73173
1.73159
1.7314
1.73114
1.73081
1.73041
1.72993
1.72937
1.72875
1.72808
1.7274
1.72673
1.72613
1.72564
1.72528
1.7251
1.7251
1.72528
1.72564
1.72613
1.72673
1.7274
1.72808
1.72875
1.72937
1.72993
1.73041
1.73081
1.73114
1.7314
1.73159
1.73173
1.73184
1.73191
1.73196
1.732
1.73202
1.73203
1.73204
1.73204
1.73204
1.73203
1.73202
1.732
1.73197
1.73193
1.73186
1.73176
1.73161
1.73141
1.73114
1.73079
1.73034
1.72978
1.72912
1.72834
1.72748
1.72656
1.72562
1.7247
1.72388
1.72319
1.7227
1.72245
1.72245
1.7227
1.72319
1.72388
1.7247
1.72562
1.72656
1.72748
1.72834
1.72912
1.72978
1.73034
1.73079
1.73114
1.73141
1.73161
1.73176
1.73186
1.73193
1.73197
1.732
1.73202
1.73203
1.73204
</DataArray>
<DataArray type="Float32" Name="helicity" format="ascii">
0.483648
0.483501
0.483341
0.483165
0.482973
0.482764
0.482535
0.482286
0.482017
0.481729
0.481422
0.481098
0.480761
0.480414
0.480064
0.479717
0.479379
0.479059
0.478766
0.478506
0.478288
0.478118
0.478002
0.477943
0.477943
0.478002
0.478118
0.478288
0.478506
0.478766
0.479059
0.479379
0.479717
0.480064
0.480414
0.480761
0.481098
0.481422
0.481729
0.482017
0.482286
0.482535
0.482764
0.482973
0.483165
0.483341
0.483501
0.483648
0.484992
0.484781
0.484557
0.484319
0.484066
0.483796
0.483508
0.4832
0.482873
0.482526
0.48216
0.481777
0.48138
0.480973
0.480562
0.480152
0.479751
0.479367
0.479009
0.478685
0.478404
0.478173
0.477997
0.477882
0.477829
0.477838
0.477908
0.478034
0.478212
0.478433
0.47869
0.478974
0.479277
0.479591
0.479908
0.480221
0.480525
0.480816
0.48109
0.481347
0.481583
0.4818
0.481998
0.482176
0.482338
0.482483
0.482614
0.482731
0.4852
0.484977
0.484741
0.484493
0.484228
0.483948
0.483649
0.483331
0.482994
0.482638
0.482263
0.481871
0.481466
0.48105
0.48063
0.480211
0.479802
0.47941
0.479043
0.478712
0.478423
0.478184
0.478001
0.477878
0.477819
0.477822
0.477886
0.478007
0.47818
0.478396
0.478649
0.478929
0.479229
0.479539
0.479852
0.480161
0.480462
0.48075
0.481022
0.481275
0.481509
0.481723
0.481918
0.482094
0.482253
0.482395
0.482523
0.482638
0.485485
0.485244
0.484992
0.484727
0.484447
0.484151
0.483838
0.483507
0.483157
0.482787
0.4824
0.481996
0.481578
0.481151
0.480719
0.480289
0.479869
0.479466
0.479088
0.478746
0.478447
0.478198
0.478006
0.477875
0.477807
0.477802
0.477859
0.477974
0.47814
0.478351
0.478598
0.478873
0.479168
0.479473
0.479782
0.480088
0.480384
0.480668
0.480936
0.481186
0.481416
0.481627
0.481819
0.481992
0.482148
0.482288
0.482413
0.482525
0.485897
0.485629
0.48535
0.485061
0.484758
0.48444
0.484105
0.483753
0.483383
0.482995
0.482589
0.482168
0.481733
0.481289
0.480842
0.480396
0.47996
0.479542
0.47915
0.478794
0.478481
0.478219
0.478014
0.477871
0.477792
0.477777
0.477825
0.47793
0.478089
0.478292
0.478532
0.478801
0.479089
0.479389
0.479692
0.479993
0.480285
0.480564
0.480827
0.481073
0.481299
0.481506
0.481694
0.481863
0.482016
0.482152
0.482274
0.482384
0.486547
0.486231
0.485908
0.485576
0.485234
0.484878
0.484509
0.484124
0.483722
0.483304
0.48287
0.482421
0.48196
0.481492
0.48102
0.480551
0.480092
0.479652
0.479239
0.478862
0.47853
0.47825
0.478028
0.477868
0.477774
0.477745
0.477779
0.477873
0.47802
0.478213
0.478444
0.478705
0.478985
0.479277
0.479573
0.479867
0.480153
0.480426
0.480684
0.480924
0.481145
0.481347
0.481531
0.481696
0.481844
0.481977
0.482096
0.482201
0.487722
0.487307
0.486893
0.486476
0.486056
0.485628
0.485192
0.484744
0.484285
0.483812
0.483327
0.482831
0.482325
0.481813
0.481301
0.480794
0.480299
0.479824
0.479378
0.47897
0.478608
0.4783
0.478052
0.477868
0.477751
0.477701
0.477716
0.477793
0.477924
0.478103
0.478321
0.478569
0.478838
0.47912
0.479407
0.479692
0.479969
0.480235
0.480486
0.480719
0.480935
0.481131
0.481309
0.481469
0.481613
0.481741
0.481855
0.481957
0.490471
0.489763
0.489088
0.488439
0.48781
0.487196
0.486592
0.485994
0.485398
0.484801
0.484203
0.483604
0.483004
0.482405
0.481813
0.481231
0.480667
0.480128
0.479623
0.479159
0.478746
0.47839
0.478098
0.477874
0.47772
0.477637
0.477622
0.477671
0.477778
0.477934
0.478132
0.478363
0.478616
0.478883
0.479157
0.479431
0.479697
0.479954
0.480195
0.480421
0.480629
0.480818
0.48099
0.481145
0.481283
0.481407
0.481517
0.481614
0.499968
0.499175
0.497451
0.495638
0.493946
0.492414
0.491031
0.489775
0.488622
0.487553
0.486551
0.485603
0.484703
0.483843
0.483021
0.482238
0.481496
0.4808
0.480154
0.479565
0.47904
0.478584
0.478203
0.4779
0.477676
0.47753
0.47746
0.477461
0.477525
0.477644
0.47781
0.478012
0.478241
0.478487
0.478742
0.479
0.479253
0.479497
0.479728
0.479944
0.480144
0.480327
0.480493
0.480642
0.480776
0.480895
0.481002
0.481097
0.46644
0.464592
0.462173
0.458863
0.454039
0.446332
0.432083
0.397712
0.242935
-2.1329e-05
0.492277
0.499522
0.495737
0.4921
0.489196
0.486877
0.484986
0.483412
0.482085
0.480959
0.480004
0.479202
0.478539
0.478005
0.477592
0.47729
0.477091
0.476986
0.476963
0.477011
0.477119
0.477274
0.477465
0.477681
0.477913
0.478152
0.478391
0.478625
0.47885
0.479062
0.479259
0.479441
0.479607
0.479758
0.479895
0.480018
0.480128
0.480228
0.477256
0.477052
0.476829
0.476585
0.476316
0.47602
0.475695
0.475339
0.474948
0.47452
0.474052
0.473542
0.472985
0.472375
0.4717
0.470937
0.470042
0.468918
0.467338
0.464614
0.457574
0.359882
0.488042
0.47956
0.476787
0.475484
0.474798
0.474447
0.474307
0.474311
0.474418
0.4746
0.474835
0.475105
0.475398
0.475702
0.476007
0.476307
0.476597
0.476873
0.477132
0.477373
0.477596
0.477801
0.47799
0.478162
0.47832
0.478464
0.477923
0.477755
0.477571
0.477371
0.477152
0.476913
0.476652
0.476369
0.476064
0.475736
0.475388
0.475021
0.47464
0.474249
0.473854
0.473463
0.473083
0.472724
0.472394
0.472103
0.471859
0.471669
0.471539
0.471473
0.471473
0.471539
0.471669
0.471859
0.472103
0.472394
0.472724
0.473083
0.473463
0.473854
0.474249
0.47464
0.475021
0.475388
0.475736
0.476064
0.476369
0.476652
0.476913
0.477152
0.477371
0.477571
0.477755
0.477923
0.477923
0.477755
0.477571
0.477371
0.477152
0.476913
0.476652
0.476369
0.476064
0.475736
0.475388
0.475021
0.47464
0.474249
0.473854
0.473463
0.473083
0.472724
0.472394
0.472103
0.471859
0.471669
0.471539
0.471473
0.471473
0.471539
0.471669
0.471859
0.472103
0.472394
0.472724
0.473083
0.473463
0.473854
0.474249
0.47464
0.475021
0.475388
0.475736
0.476064
0.476369
0.476652
0.476913
0.477152
0.477371
0.477571
0.477755
0.477923
0.478464
0.47832
0.478162
0.47799
0.477801
0.477596
0.477373
0.477132
0.476873
0.476597
0.476307
0.476007
0.475702
0.475398
0.475105
0.474834
0.4746
0.474418
0.474311
0.474307
0.474447
0.474798
0.475484
0.476787
0.47956
0.488042
0.359882
0.457574
0.464614
0.467338
0.468918
0.470042
0.470937
0.4717
0.472375
0.472985
0.473542
0.474052
0.47452
0.474948
0.475339
0.475695
0.47602
0.476316
0.476585
0.476829
0.477052
0.477256
0.480228
0.480128
0.480018
0.479895
0.479758
0.479607
0.479441
0.479259
0.479062
0.47885
0.478625
0.478391
0.478152
0.477913
0.477681
0.477465
0.477274
0.477119
0.477011
0.476963
0.476986
0.477091
0.47729
0.477592
0.478005
0.478539
0.479202
0.480004
0.480959
0.482085
0.483412
0.484986
0.486877
0.489196
0.4921
0.495737
0.499522
0.492277
-2.1329e-05
0.242935
0.397712
0.432083
0.446332
0.454039
0.458863
0.462173
0.464592
0.46644
0.481097
0.481002
0.480895
0.480776
0.480642
0.480493
0.480327
0.480144
0.479944
0.479728
0.479497
0.479253
0.479
0.478742
0.478487
0.478241
0.478012
0.47781
0.477644
0.477525
0.477461
0.47746
0.47753
0.477676
0.4779
0.478203
0.478584
0.47904
0.479565
0.480154
0.4808
0.481496
0.482238
0.483021
0.483843
0.484703
0.485603
0.486551
0.487553
0.488622
0.489775
0.491031
0.492414
0.493946
0.495638
0.497451
0.499175
0.499968
0.481614
0.481517
0.481407
0.481283
0.481145
0.48099
0.480818
0.480629
0.480421
0.480195
0.479954
0.479697
0.479431
0.479157
0.478883
0.478616
0.478363
0.478132
0.477934
0.477778
0.477671
0.477622
0.477637
0.47772
0.477874
0.478098
0.47839
0.478746
0.479159
0.479623
0.480128
0.480667
0.481231
0.481813
0.482405
0.483004
0.483604
0.484203
0.484801
0.485398
0.485994
0.486592
0.487196
0.48781
0.488439
0.489088
0.489763
0.490471
0.481957
0.481855
0.481741
0.481613
0.481469
0.481309
0.481131
0.480935
0.480719
0.480486
0.480235
0.479969
0.479692
0.479407
0.47912
0.478838
0.478569
0.478321
0.478103
0.477924
0.477793
0.477716
0.477701
0.477751
0.477868
0.478052
0.4783
0.478608
0.47897
0.479378
0.479824
0.480299
0.480794
0.481301
0.481813
0.482325
0.482831
0.483327
0.483812
0.484285
0.484744
0.485192
0.485628
0.486056
0.486476
0.486893
0.487307
0.487722
0.482201
0.482096
0.481977
0.481844
0.481696
0.481531
0.481347
0.481145
0.480924
0.480684
0.480426
0.480153
0.479867
0.479573
0.479277
0.478985
0.478705
0.478444
0.478213
0.47802
0.477873
0.477779
0.477745
0.477774
0.477868
0.478028
0.47825
0.47853
0.478862
0.479239
0.479652
0.480092
0.480551
0.48102
0.481492
0.48196
0.482421
0.48287
0.483304
0.483722
0.484124
0.484509
0.484878
0.485234
0.485576
0.485908
0.486231
0.486547
0.482384
0.482274
0.482152
0.482016
0.481863
0.481694
0.481506
0.481299
0.481073
0.480827
0.480564
0.480285
0.479993
0.479692
0.479389
0.479089
0.478801
0.478532
0.478292
0.478089
0.47793
0.477825
0.477777
0.477792
0.477871
0.478014
0.478219
0.478481
0.478794
0.47915
0.479542
0.47996
0.480396
0.480842
0.481289
0.481733
0.482168
0.482589
0.482995
0.483383
0.483753
0.484105
0.48444
0.484758
0.485061
0.48535
0.485629
0.485897
0.482525
0.482413
0.482288
0.482148
0.481992
0.481819
0.481627
0.481416
0.481186
0.480936
0.480668
0.480384
0.480088
0.479782
0.479473
0.479168
0.478873
0.478598
0.478351
0.47814
0.477974
0.477859
0.477802
0.477807
0.477875
0.478006
0.478198
0.478447
0.478746
0.479088
0.479466
0.479869
0.480289
0.480719
0.481151
0.481578
0.481996
0.4824
0.482787
0.483157
0.483507
0.483838
0.484151
0.484447
0.484727
0.484992
0.485244
0.485485
0.482638
0.482523
0.482395
0.482253
0.482094
0.481918
0.481723
0.481509
0.481275
0.481022
0.48075
0.480462
0.480161
0.479852
0.479539
0.479229
0.478929
0.478649
0.478396
0.47818
0.478007
0.477886
0.477822
0.477819
0.477878
0.478001
0.478184
0.478423
0.478712
0.479043
0.47941
0.479802
0.480211
0.48063
0.48105
0.481466
0.481871
0.482263
0.482638
0.482994
0.483331
0.483649
0.483948
0.484228
0.484493
0.484741
0.484977
0.4852
0.482731
0.482614
0.482483
0.482338
0.482176
0.481998
0.4818
0.481583
0.481347
0.48109
0.480816
0.480525
0.480221
0.479908
0.479591
0.479277
0.478974
0.47869
0.478433
0.478212
0.478034
0.477908
0.477838
0.477829
0.477882
0.477997
0.478173
0.478404
0.478685
0.479009
0.479367
0.479751
0.480152
0.480562
0.480973
0.48138
0.481777
0.48216
0.482526
0.482873
0.4832
0.483508
0.483796
0.484066
0.484319
0.484557
0.484781
0.484992
0.483648
0.483501
0.483341
0.483165
0.482973
0.482764
0.482535
0.482286
0.482017
0.481729
0.481422
0.481098
0.480761
0.480414
0.480064
0.479717
0.479379
0.479059
0.478766
0.478506
0.478288
0.478118
0.478002
0.477943
0.477943
0.478002
0.478118
0.478288
0.478506
0.478766
0.479059
0.479379
0.479717
0.480064
0.480414
0.480761
0.481098
0.481422
0.481729
0.482017
0.482286
0.482535
0.482764
0.482973
0.483165
0.483341
0.483501
0.483648
0.477923
0.477755
0.477571
0.477371
0.477152
0.476913
0.476652
0.476369
0.476064
0.475736
0.475388
0.475021
0.47464
0.474249
0.473854
0.473463
0.473083
0.472724
0.472394
0.472103
0.471859
0.471669
0.471539
0.471473
0.471473
0.471539
0.471669
0.471859
0.472103
0.472394
0.472724
0.473083
0.473463
0.473854
0.474249
0.47464
0.475021
0.475388
0.475736
0.476064
0.476369
0.476652
0.476913
0.477152
0.477371
0.477571
0.477755
0.477923
0.478912
0.478784
0.478643
0.478489
0.478321
0.478137
0.477937
0.477721
0.477488
0.477242
0.476984
0.476717
0.476448
0.476184
0.475933
0.475707
0.475519
0.475385
0.475325
0.47536
0.475521
0.475846
0.476392
0.477252
0.478596
0.480785
0.484754
0.493519
5.57665e-15
0.429855
0.4545
0.461613
0.465136
0.467343
0.468918
0.470139
0.471134
0.471972
0.472694
0.473324
0.47388
0.474372
0.47481
0.475202
0.475554
0.47587
0.476155
0.476414
0.47901
0.478885
0.478748
0.478597
0.478433
0.478253
0.478057
0.477845
0.477617
0.477376
0.477123
0.476862
0.476598
0.47634
0.476095
0.475874
0.475691
0.475562
0.475504
0.475539
0.475694
0.476003
0.476515
0.477305
0.4785
0.48035
0.483422
0.489275
0.5
0.316392
0.442046
0.456689
0.462365
0.465504
0.467578
0.469101
0.470296
0.471275
0.4721
0.472809
0.473426
0.473967
0.474446
0.474871
0.475251
0.475591
0.475897
0.476174
0.47913
0.479008
0.478875
0.478728
0.478568
0.478392
0.478201
0.477994
0.477772
0.477535
0.477288
0.477033
0.476775
0.476523
0.476283
0.476068
0.47589
0.475763
0.475706
0.475738
0.475884
0.476173
0.476645
0.477359
0.478406
0.479951
0.482326
0.486303
0.493905
0.46958
0.384384
0.444568
0.456857
0.462225
0.46534
0.467443
0.468999
0.470221
0.471219
0.472055
0.47277
0.473389
0.473929
0.474406
0.474828
0.475204
0.47554
0.475843
0.479279
0.479161
0.479032
0.47889
0.478734
0.478564
0.478378
0.478176
0.47796
0.47773
0.477488
0.477239
0.476988
0.476741
0.476507
0.476296
0.476121
0.475996
0.475936
0.475962
0.476093
0.476356
0.476781
0.477412
0.478312
0.479584
0.48141
0.484157
0.488647
0.49661
0.415996
0.376798
0.440915
0.454774
0.460861
0.464375
0.466724
0.468441
0.469773
0.470848
0.471739
0.472493
0.47314
0.473701
0.474193
0.474627
0.475013
0.475357
0.47947
0.479357
0.479233
0.479096
0.478946
0.478781
0.478601
0.478405
0.478195
0.477971
0.477736
0.477493
0.477247
0.477005
0.476775
0.476568
0.476394
0.476267
0.476202
0.476215
0.476326
0.476554
0.476924
0.477466
0.478219
0.479243
0.480631
0.482545
0.48529
0.489488
0.496244
0.487772
0.222879
0.422936
0.447593
0.456815
0.46171
0.464804
0.466974
0.468603
0.469882
0.47092
0.471782
0.472511
0.473137
0.47368
0.474156
0.474576
0.479724
0.479616
0.479498
0.479367
0.479223
0.479064
0.47889
0.478701
0.478496
0.478278
0.478049
0.477811
0.47757
0.477332
0.477105
0.476897
0.476721
0.476587
0.47651
0.476505
0.476586
0.47677
0.477074
0.477519
0.478127
0.478927
0.479962
0.481293
0.483023
0.485325
0.488512
0.493125
0.499187
0.455267
0.202722
0.412286
0.44212
0.453376
0.459305
0.463003
0.465559
0.467446
0.468906
0.470075
0.471035
0.471839
0.472523
0.473113
0.480077
0.479976
0.479863
0.479738
0.4796
0.479447
0.479279
0.479096
0.478897
0.478684
0.478459
0.478225
0.477986
0.477748
0.477518
0.477306
0.47712
0.476972
0.476874
0.476839
0.476879
0.477007
0.477234
0.477573
0.478035
0.478633
0.47938
0.480294
0.481401
0.482738
0.484365
0.486373
0.488914
0.492213
0.496467
0.499997
0.450341
-0.0801601
0.374905
0.427175
0.444883
0.45364
0.458863
0.462343
0.464839
0.466722
0.468199
0.46939
0.480603
0.480507
0.480399
0.480279
0.480145
0.479997
0.479833
0.479652
0.479456
0.479244
0.479018
0.478782
0.478539
0.478294
0.478053
0.477826
0.47762
0.477445
0.477312
0.477232
0.477215
0.477271
0.477407
0.477631
0.477948
0.478361
0.478871
0.47948
0.480187
0.480993
0.4819
0.482912
0.484039
0.485297
0.486709
0.488314
0.490162
0.492322
0.494853
0.497692
0.499936
0.494271
0.378462
-0.305058
0.306764
0.39815
0.427984
0.442176
0.481467
0.48137
0.481262
0.48114
0.481003
0.48085
0.480681
0.480493
0.480288
0.480066
0.479827
0.479575
0.479312
0.479044
0.478776
0.478514
0.478268
0.478046
0.477857
0.47771
0.477615
0.477579
0.477608
0.477707
0.477879
0.478123
0.478437
0.478817
0.479258
0.47975
0.480288
0.480862
0.481465
0.48209
0.48273
0.483382
0.484041
0.484706
0.485378
0.486058
0.486748
0.487455
0.488182
0.488937
0.489728
0.490563
0.491454
0.492411
0.48315
0.48302
0.482878
0.48272
0.482546
0.482354
0.482143
0.481913
0.481662
0.481392
0.481103
0.480797
0.480478
0.480149
0.479817
0.479487
0.479168
0.478866
0.478591
0.478351
0.478153
0.478005
0.477912
0.477878
0.477904
0.477991
0.478137
0.478338
0.478587
0.478878
0.479204
0.479555
0.479923
0.4803
0.480679
0.481054
0.481418
0.481769
0.482102
0.482416
0.48271
0.482984
0.483238
0.483473
0.483691
0.483891
0.484077
0.48425
0.483648
0.483501
0.483341
0.483165
0.482973
0.482764
0.482535
0.482286
0.482017
0.481729
0.481422
0.481098
0.480761
0.480414
0.480064
0.479717
0.479379
0.479059
0.478766
0.478506
0.478288
0.478118
0.478002
0.477943
0.477943
0.478002
0.478118
0.478288
0.478506
0.478766
0.479059
0.479379
0.479717
0.480064
0.480414
0.480761
0.481098
0.481422
0.481729
0.482017
0.482286
0.482535
0.482764
0.482973
0.483165
0.483341
0.483501
0.483648
0.483648
0.483501
0.483341
0.483165
0.482973
0.482764
0.482535
0.482286
0.482017
0.481729
0.481422
0.481098
0.480761
0.480414
0.480064
0.479717
0.479379
0.479059
0.478766
0.478506
0.478288
0.478118
0.478002
0.477943
0.477943
0.478002
0.478118
0.478288
0.478506
0.478766
0.479059
0.479379
0.479717
0.480064
0.480414
0.480761
0.481098
0.481422
0.481729
0.482017
0.482286
0.482535
0.482764
0.482973
0.483165
0.483341
0.483501
0.483648
0.48425
0.484077
0.483891
0.483691
0.483473
0.483238
0.482984
0.48271
0.482416
0.482102
0.481769
0.481418
0.481054
0.480679
0.4803
0.479923
0.479555
0.479204
0.478878
0.478587
0.478338
0.478137
0.477991
0.477904
0.477878
0.477912
0.478005
0.478153
0.478351
0.478591
0.478866
0.479168
0.479487
0.479817
0.480149
0.480478
0.480797
0.481103
0.481392
0.481662
0.481913
0.482143
0.482354
0.482546
0.48272
0.482878
0.48302
0.48315
0.492411
0.491454
0.490563
0.489728
0.488937
0.488182
0.487455
0.486748
0.486058
0.485378
0.484706
0.484041
0.483381
0.48273
0.48209
0.481465
0.480862
0.480288
0.47975
0.479258
0.478817
0.478437
0.478123
0.477879
0.477707
0.477608
0.477579
0.477615
0.47771
0.477857
0.478046
0.478268
0.478514
0.478776
0.479044
0.479312
0.479575
0.479827
0.480066
0.480288
0.480493
0.480681
0.48085
0.481003
0.48114
0.481262
0.48137
0.481467
0.442176
0.427984
0.39815
0.306764
-0.305058
0.378462
0.494271
0.499936
0.497692
0.494853
0.492322
0.490162
0.488314
0.486709
0.485297
0.484039
0.482912
0.4819
0.480993
0.480187
0.47948
0.478871
0.478361
0.477948
0.477631
0.477407
0.477271
0.477215
0.477232
0.477312
0.477445
0.47762
0.477826
0.478053
0.478294
0.478539
0.478782
0.479018
0.479244
0.479456
0.479652
0.479833
0.479997
0.480145
0.480279
0.480399
0.480507
0.480603
0.46939
0.468199
0.466722
0.464839
0.462343
0.458863
0.45364
0.444883
0.427175
0.374905
-0.0801601
0.450341
0.499997
0.496467
0.492213
0.488914
0.486373
0.484365
0.482738
0.481401
0.480294
0.47938
0.478633
0.478035
0.477573
0.477234
0.477007
0.476879
0.476839
0.476874
0.476972
0.47712
0.477306
0.477518
0.477748
0.477986
0.478225
0.478459
0.478684
0.478897
0.479096
0.479279
0.479447
0.4796
0.479738
0.479863
0.479976
0.480077
0.473113
0.472523
0.471839
0.471035
0.470075
0.468906
0.467446
0.465559
0.463003
0.459304
0.453376
0.44212
0.412286
0.202722
0.455267
0.499187
0.493125
0.488512
0.485325
0.483023
0.481293
0.479962
0.478927
0.478127
0.477519
0.477074
0.47677
0.476586
0.476505
0.47651
0.476587
0.476721
0.476897
0.477105
0.477332
0.47757
0.477811
0.478049
0.478278
0.478496
0.478701
0.47889
0.479064
0.479223
0.479367
0.479498
0.479616
0.479724
0.474576
0.474156
0.47368
0.473137
0.472511
0.471782
0.47092
0.469882
0.468603
0.466974
0.464804
0.46171
0.456815
0.447593
0.422936
0.222879
0.487772
0.496244
0.489488
0.48529
0.482545
0.480631
0.479243
0.478219
0.477466
0.476924
0.476554
0.476326
0.476215
0.476202
0.476267
0.476394
0.476568
0.476775
0.477005
0.477247
0.477493
0.477736
0.477971
0.478195
0.478405
0.478601
0.478781
0.478946
0.479096
0.479233
0.479357
0.47947
0.475357
0.475013
0.474627
0.474193
0.473701
0.47314
0.472493
0.471739
0.470848
0.469773
0.468441
0.466724
0.464375
0.460861
0.454774
0.440915
0.376798
0.415996
0.49661
0.488647
0.484157
0.48141
0.479584
0.478312
0.477412
0.476781
0.476356
0.476093
0.475962
0.475936
0.475996
0.476121
0.476296
0.476507
0.476741
0.476988
0.477239
0.477488
0.47773
0.47796
0.478176
0.478378
0.478564
0.478734
0.47889
0.479032
0.479161
0.479279
0.475843
0.47554
0.475204
0.474828
0.474406
0.473929
0.473389
0.47277
0.472055
0.471219
0.470221
0.468999
0.467443
0.46534
0.462225
0.456857
0.444568
0.384384
0.46958
0.493905
0.486303
0.482326
0.479951
0.478406
0.477359
0.476645
0.476173
0.475884
0.475738
0.475706
0.475763
0.47589
0.476068
0.476283
0.476523
0.476775
0.477033
0.477288
0.477535
0.477772
0.477994
0.478201
0.478392
0.478568
0.478728
0.478875
0.479008
0.47913
0.476174
0.475897
0.475591
0.475251
0.474871
0.474446
0.473967
0.473426
0.472809
0.4721
0.471275
0.470296
0.469101
0.467578
0.465504
0.462365
0.456689
0.442046
0.316392
0.5
0.489275
0.483422
0.48035
0.4785
0.477305
0.476515
0.476003
0.475694
0.475539
0.475504
0.475562
0.475691
0.475874
0.476095
0.47634
0.476598
0.476862
0.477123
0.477376
0.477617
0.477845
0.478057
0.478253
0.478433
0.478597
0.478748
0.478885
0.47901
0.476414
0.476156
0.47587
0.475554
0.475202
0.47481
0.474372
0.47388
0.473324
0.472694
0.471972
0.471134
0.470139
0.468918
0.467343
0.465136
0.461613
0.4545
0.429855
5.57665e-15
0.493519
0.484754
0.480785
0.478596
0.477252
0.476392
0.475846
0.475521
0.47536
0.475325
0.475385
0.475519
0.475707
0.475933
0.476184
0.476448
0.476717
0.476984
0.477242
0.477488
0.477721
0.477937
0.478137
0.478321
0.478489
0.478643
0.478784
0.478912
0.477923
0.477755
0.477571
0.477371
0.477152
0.476913
0.476652
0.476369
0.476064
0.475736
0.475388
0.475021
0.47464
0.474249
0.473854
0.473463
0.473083
0.472724
0.472394
0.472103
0.471859
0.471669
0.471539
0.471473
0.471473
0.471539
0.471669
0.471859
0.472103
0.472394
0.472724
0.473083
0.473463
0.473854
0.474249
0.47464
0.475021
0.475388
0.475736
0.476064
0.476369
0.476652
0.476913
0.477152
0.477371
0.477571
0.477755
0.477923
0.5
0.5
0.5
0.5
0.5
0.5
0.5
0.5
0.5
0.5
0.5
0.5
0.5
0.5
0.5
0.5
0.5
0.5
0.499999
0.499999
0.499999
0.499999
0.499999
0.499999
0.499999
0.499999
0.499999
0.499999
0.499999
0.499999
0.5
0.5
0.5
0.5
0.5
0.5
0.5
0.5
0.5
0.5
0.5
0.5
0.5
0.5
0.5
0.5
0.5
0.5
0.5
0.5
0.5
0.5
0.5
0.5
0.5
0.5
0.5
0.5
0.5
0.5
0.5
0.5
0.5
0.5
0.5
0.5
0.5
0.5
0.5
0.499999
0.499999
0.499999
0.499999
0.499999
0.499999
0.5
0.5
0.5
0.5
0.5
0.5
0.5
0.5
0.5
0.5
0.5
0.5
0.5
0.5
0.5
0.5
0.5
0.5
0.5
0.5
0.5
0.5
0.5
0.5
0.5
0.5
0.5
0.5
0.5
0.5
0.5
0.5
0.5
0.5
0.5
0.5
0.5
0.5
0.5
0.5
0.5
0.5
0.499999
0.499999
0.499999
0.499999
0.499999
0.499999
0.5
0.5
0.5
0.5
0.5
0.5
0.5
0.5
0.5
0.5
0.5
0.5
0.5
0.5
0.5
0.5
0.5
0.5
0.5
0.5
0.5
0.5
0.5
0.5
0.5
0.5
0.5
0.5
0.5
0.5
0.5
0.5
0.5
0.5
0.5
0.5
0.5
0.5
0.5
0.5
0.5
0.5
0.5
0.499999
0.499999
0.499999
0.499999
0.5
0.5
0.5
0.5
0.5
0.5
0.5
0.5
0.5
0.5
0.5
0.5
0.5
0.5
0.5
0.5
0.5
0.5
0.5
0.5
0.5
0.5
0.5
0.5
0.5
0.5
0.5
0.5
0.5
0.5
0.5
0.5
0.5
0.5
0.5
0.5
0.5
0.5
0.5
0.5
0.5
0.5
0.5
0.5
0.499999
0.499999
0.499999
0.499999
0.5
0.5
0.5
0.5
0.5
0.5
0.5
0.5
0.5
0.5
0.5
0.5
0.5
0.5
0.5
0.5
0.5
0.5
0.5
0.5
0.5
0.5
0.5
0.5
0.5
0.5
0.5
0.5
0.5
0.5
0.5
0.5
0.5
0.5
0.5
0.5
0.5
0.5
0.5
0.5
0.5
0.5
0.5
0.5
0.5
0.5
0.5
0.5
0.5
0.5
0.5
0.5
0.5
0.5
0.5
0.5
0.5
0.5
0.5
0.5
0.5
0.5
0.5
0.5
0.5
0.5
0.5
0.5
0.5
0.5
0.5
0.5
0.5
0.5
0.5
0.5
0.5
0.5
0.5
0.5
0.5
0.5
0.5
0.5
0.5
0.5
0.5
0.5
0.5
0.5
0.5
0.5
0.5
0.5
0.5
0.5
0.5
0.5
0.5
0.5
0.5
0.5
0.5
0.5
0.5
0.5
0.5
0.5
0.5
0.5
0.5
0.5
0.5
0.5
0.5
0.5
0.5
0.5
0.5
0.5
0.5
0.5
0.5
0.5
0.5
0.5
0.5
0.5
0.5
0.5
0.5
0.5
0.5
0.5
0.5
0.5
0.5
0.5
0.5
0.5
0.5
0.5
0.5
0.5
0.5
0.5
0.5
0.5
0.5
0.5
0.5
0.5
0.5
0.5
0.5
0.5
0.5
0.5
0.5
0.5
0.5
0.5
0.5
0.5
0.5
0.5
0.5
0.5
0.5
0.5
0.5
0.5
0.5
0.5
0.5
0.5
0.5
0.5
0.5
0.5
0.5
0.5
0.5
0.5
0.5
0.5
0.5
0.5
0.5
0.5
0.5
0.5
0.5
0.5
0.5
0.5
0.5
0.5
0.5
0.5
0.5
0.5
0.5
0.5
0.5
0.5
0.5
0.5
0.5
0.5
0.5
0.5
0.5
0.5
0.5
0.5
0.5
0.5
0.5
0.5
0.5
0.5
0.5
0.5
0.5
0.5
0.5
0.5
0.5
0.5
0.5
0.5
0.5
0.5
0.5
0.5
0.5
0.5
0.5
0.5
0.5
0.5
0.5
0.5
0.5
0.5
0.5
0.5
0.5
0.5
0.5
0.5
0.5
0.5
0.5
0.5
0.5
0.5
0.5
0.5
0.5
0.5
0.5
0.5
0.5
0.5
0.5
0.5
0.5
0.5
0.5
0.5
0.5
0.5
0.5
0.5
0.5
0.5
0.5
0.5
0.5
0.499999
0.499999
0.499999
0.499999
0.499999
0.499999
0.499999
0.499999
0.499999
0.499999
0.5
0.5
0.5
0.5
0.5
0.5
0.5
0.5
0.5
0.5
0.5
0.5
0.5
0.5
0.5
0.5
0.5
0.5
0.5
0.5
0.5
0.5
0.5
0.5
0.5
0.5
0.5
0.5
0.5
0.5
0.5
0.5
0.5
0.5
0.5
0.5
0.5
0.499999
0.499999
0.499999
0.499999
0.499999
0.499999
0.499999
0.499999
0.499999
0.499999
0.499999
0.499999
0.5
0.5
0.5
0.5
0.5
0.5
0.5
0.5
0.5
0.5
0.5
0.5
0.5
0.5
0.5
0.5
0.5
0.5
0.5
0.5
0.5
0.5
0.5
0.5
0.5
0.5
0.5
0.5
0.5
0.5
0.5
0.5
0.5
0.5
0.5
0.5
0.499999
0.499999
0.499999
0.499999
0.499999
0.499999
0.499999
0.499999
0.499999
0.499999
0.499999
0.499999
0.5
0.5
0.5
0.5
0.5
0.5
0.5
0.5
0.5
0.5
0.5
0.5
0.5
0.5
0.5
0.5
0.5
0.5
0.5
0.5
0.5
0.5
0.5
0.5
0.5
0.5
0.5
0.5
0.5
0.5
0.5
0.5
0.5
0.5
0.5
0.5
0.5
0.499999
0.499999
0.499999
0.499999
0.499999
0.499999
0.499999
0.499999
0.499999
0.499999
0.5
0.5
0.5
0.5
0.5
0.5
0.5
0.5
0.5
0.5
0.5
0.5
0.5
0.5
0.5
0.5
0.5
0.5
0.5
0.5
0.5
0.5
0.5
0.5
0.5
0.5
0.5
0.5
0.5
0.5
0.5
0.5
0.5
0.5
0.5
0.5
0.5
0.5
0.5
0.5
0.5
0.5
0.5
0.5
0.5
0.5
0.5
0.5
0.5
0.5
0.5
0.5
0.5
0.5
0.5
0.5
0.5
0.5
0.5
0.5
0.5
0.5
0.5
0.5
0.5
0.5
0.5
0.5
0.5
0.5
0.5
0.5
0.5
0.5
0.5
0.5
0.5
0.5
0.5
0.5
0.5
0.5
0.5
0.5
0.5
0.5
0.5
0.5
0.5
0.5
0.5
0.5
0.5
0.5
0.5
0.5
0.5
0.5
0.5
0.5
0.5
0.5
0.5
0.5
0.5
0.5
0.5
0.5
0.5
0.5
0.5
0.5
0.5
0.5
0.5
0.5
0.5
0.5
0.5
0.5
0.5
0.5
0.5
0.5
0.5
0.5
0.5
0.5
0.5
0.5
0.5
0.5
0.5
0.5
0.5
0.5
0.5
0.5
0.5
0.5
0.5
0.5
0.5
0.5
0.5
0.5
0.5
0.5
0.5
0.5
0.5
0.5
0.5
0.5
0.5
0.5
0.5
0.5
0.5
0.5
0.5
0.5
0.5
0.5
0.5
0.5
0.5
0.5
0.5
0.5
0.5
0.5
0.5
0.5
0.5
0.5
0.5
0.5
0.5
0.5
0.5
0.5
0.5
0.5
0.5
0.5
0.5
0.5
0.5
0.5
0.5
0.5
0.5
0.5
0.5
0.5
0.5
0.5
0.5
0.5
0.5
0.5
0.5
0.5
0.5
0.5
0.5
0.5
0.5
0.5
0.5
0.5
0.5
0.5
0.5
0.5
0.5
0.5
0.5
0.5
0.5
0.5
0.5
0.5
0.5
0.5
0.5
0.5
0.5
0.5
0.5
0.5
0.5
0.5
0.5
0.5
0.5
0.5
0.5
0.5
0.5
0.5
0.5
0.5
0.5
0.5
0.5
0.5
0.5
0.5
0.5
0.5
0.5
0.5
0.5
0.5
0.5
0.5
0.5
0.5
0.5
0.5
0.5
0.5
0.5
0.5
0.5
0.5
0.5
0.5
0.5
0.5
0.5
0.5
0.5
0.5
0.5
0.5
0.5
0.5
0.5
0.499999
0.499999
0.499999
0.499999
0.5
0.5
0.5
0.5
0.5
0.5
0.5
0.5
0.5
0.5
0.5
0.5
0.5
0.5
0.5
0.5
0.5
0.5
0.5
0.5
0.5
0.5
0.5
0.5
0.5
0.5
0.5
0.5
0.5
0.5
0.5
0.5
0.5
0.5
0.5
0.5
0.5
0.5
0.5
0.5
0.5
0.5
0.5
0.5
0.499999
0.499999
0.499999
0.499999
0.5
0.5
0.5
0.5
0.5
0.5
0.5
0.5
0.5
0.5
0.5
0.5
0.5
0.5
0.5
0.5
0.5
0.5
0.5
0.5
0.5
0.5
0.5
0.5
0.5
0.5
0.5
0.5
0.5
0.5
0.5
0.5
0.5
0.5
0.5
0.5
0.5
0.5
0.5
0.5
0.5
0.5
0.5
0.499999
0.499999
0.499999
0.499999
0.499999
0.499999
0.5
0.5
0.5
0.5
0.5
0.5
0.5
0.5
0.5
0.5
0.5
0.5
0.5
0.5
0.5
0.5
0.5
0.5
0.5
0.5
0.5
0.5
0.5
0.5
0.5
0.5
0.5
0.5
0.5
0.5
0.5
0.5
0.5
0.5
0.5
0.5
0.5
0.5
0.5
0.5
0.5
0.5
0.499999
0.499999
0.499999
0.499999
0.499999
0.499999
0.5
0.5
0.5
0.5
0.5
0.5
0.5
0.5
0.5
0.5
0.5
0.5
0.5
0.5
0.5
0.5
0.5
0.5
0.5
0.5
0.5
0.5
0.5
0.5
0.5
0.5
0.5
0.5
0.5
0.5
0.5
0.5
0.5
0.5
0.5
0.5
0.5
0.5
0.5
0.499999
0.499999
0.499999
0.499999
0.499999
0.499999
0.499999
0.499999
0.499999
0.499999
0.499999
0.499999
0.5
0.5
0.5
0.5
0.5
0.5
0.5
0.5
0.5
0.5
0.5
0.5
0.5
0.5
0.5
0.5
0.5
0.5
</DataArray>
<DataArray type="Float32" Name="layer_id" format="ascii">
1
1
1
1
1
1
1
1
1
1
1
1
1
1
1
1
1
1
1
1
1
1
1
1
1
1
1
1
1
1
1
1
1
1
1
1
1
1
1
1
1
1
1
1
1
1
1
1
1
1
1
1
1
1
1
1
1
1
1
1
1
1
1
1
1
1
1
1
1
1
1
1
1
1
1
1
1
1
1
1
1
1
1
1
1
1
1
1
1
1
1
1
1
1
1
1
1
1
1
1
1
1
1
1
1
1
1
1
1
1
1
1
1
1
1
1
1
1
1
1
1
1
1
1
1
1
1
1
1
1
1
1
1
1
1
1
1
1
1
1
1
1
1
1
1
1
1
1
1
1
1
1
1
1
1
1
1
1
1
1
1
1
1
1
1
1
1
1
1
1
1
1
1
1
1
1
1
1
1
1
1
1
1
1
1
1
1
1
1
1
1
1
1
1
1
1
1
1
1
1
1
1
1
1
1
1
1
1
1
1
1
1
1
1
1
1
1
1
1
1
1
1
1
1
1
1
1
1
1
1
1
1
1
1
1
1
1
1
1
1
1
1
1
1
1
1
1
1
1
1
1
1
1
1
1
1
1
1
1
1
1
1
1
1
1
1
1
1
1
1
1
1
1
1
1
1
1
1
1
1
1
1
1
1
1
1
1
1
1
1
1
1
1
1
1
1
1
1
1
1
1
1
1
1
1
1
1
1
1
1
1
1
1
1
1
1
1
1
1
1
1
1
1
1
1
1
1
1
1
1
1
1
1
1
1
1
1
1
1
1
1
1
1
1
1
1
1
1
1
1
1
1
1
1
1
1
1
1
1
1
1
1
1
1
1
1
1
1
1
1
1
1
1
1
1
1
1
1
1
1
1
1
1
1
1
1
1
1
1
1
1
1
1
1
1
1
1
1
1
1
1
1
1
1
1
1
1
1
1
1
1
1
1
1
1
1
1
1
1
1
1
1
1
1
1
1
1
1
1
1
1
1
1
1
1
1
1
1
1
1
1
1
1
1
1
1
1
1
1
1
1
1
1
1
1
1
1
1
1
1
1
1
1
1
1
1
1
1
1
1
1
1
1
1
1
1
1
1
1
1
1
1
1
1
1
1
1
1
1
1
1
1
1
1
1
1
1
1
1
1
1
1
1
1
1
1
1
1
1
1
1
1
1
1
1
1
1
1
1
1
1
1
1
1
1
1
1
1
1
1
1
1
1
1
1
1
1
1
1
1
1
1
1
1
1
1
1
1
1
1
1
1
1
1
1
1
1
1
1
1
1
1
1
1
1
1
1
1
1
1
1
1
1
1
1
1
1
1
1
1
1
1
1
1
1
1
1
1
1
1
1
1
1
1
1
1
1
1
1
1
1
1
1
1
1
1
1
1
1
1
1
1
1
1
1
1
1
1
1
1
1
1
1
1
1
1
1
1
1
1
1
1
1
1
1
1
1
1
1
1
1
1
1
1
1
1
1
1
1
1
1
1
1
1
1
1
1
1
1
1
1
1
1
1
1
1
1
1
1
1
1
1
1
1
1
1
1
1
1
1
1
1
1
1
1
1
1
1
1
1
1
1
1
1
1
1
1
1
1
1
1
1
1
1
1
1
1
1
1
1
1
1
1
1
1
1
1
1
1
1
1
1
1
1
1
1
1
1
1
1
1
1
1
1
1
1
1
1
1
1
1
1
1
1
1
1
1
1
1
1
1
1
1
1
1
1
1
1
1
1
1
1
1
1
1
1
1
1
1
1
1
1
1
1
1
1
1
1
1
1
1
1
1
1
1
1
1
1
1
1
1
1
1
1
1
1
1
1
1
1
1
1
1
1
1
1
1
1
1
1
1
1
1
1
1
1
1
1
1
1
1
1
1
1
1
1
1
1
1
1
1
1
1
1
1
1
1
1
1
1
1
1
1
1
1
1
1
1
1
1
1
1
1
1
1
1
1
1
1
1
1
1
1
1
1
1
1
1
1
1
1
1
1
1
1
1
1
1
1
1
1
1
1
1
1
1
1
1
1
1
1
1
1
1
1
1
1
1
1
1
1
1
1
1
1
1
1
1
1
1
1
1
1
1
1
1
1
1
1
1
1
1
1
1
1
1
1
1
1
1
1
1
1
1
1
1
1
1
1
1
1
1
1
1
1
1
1
1
1
1
1
1
1
1
1
1
1
1
1
1
1
1
1
1
1
1
1
1
1
1
1
1
1
1
1
1
1
1
1
1
1
1
1
1
1
1
1
1
1
1
1
1
1
1
1
1
1
1
1
1
1
1
1
1
1
1
1
1
1
1
1
1
1
1
1
1
1
1
1
1
1
1
1
1
1
1
1
1
1
1
1
1
1
1
1
1
1
1
1
1
1
1
1
1
1
1
1
1
1
1
1
1
1
1
1
1
1
1
1
1
1
1
1
1
1
1
1
1
1
1
1
1
1
1
1
1
1
1
1
1
1
1
1
1
1
1
1
1
1
1
1
1
1
1
1
1
1
1
1
1
1
1
1
1
1
1
1
1
1
1
1
1
1
1
1
1
1
1
1
1
1
1
1
1
1
1
1
1
1
1
1
1
1
1
1
1
1
1
1
1
1
1
1
1
1
1
1
1
1
1
1
1
1
1
1
1
1
1
1
1
1
1
1
1
1
1
1
1
1
1
1
1
1
1
1
1
1
1
1
1
1
1
1
1
1
1
1
1
1
1
1
1
1
1
1
1
1
1
1
1
1
1
1
1
1
1
1
1
1
1
1
1
1
1
1
1
1
1
1
1
1
1
1
1
1
1
1
1
1
1
1
1
1
1
1
1
1
1
1
1
1
1
1
1
1
1
1
1
1
1
1
1
1
1
1
1
1
1
1
1
1
1
1
1
1
1
1
1
1
1
1
1
1
1
1
1
1
1
1
1
1
1
1
1
1
1
1
1
1
1
1
1
1
1
1
1
1
1
1
1
1
1
1
1
1
1
1
1
1
1
1
1
1
1
1
1
1
1
1
1
1
1
1
1
1
1
1
1
1
1
1
1
1
1
1
1
1
1
1
1
1
1
1
1
1
1
1
1
1
1
1
1
1
1
1
1
1
1
1
1
1
1
1
1
1
1
1
1
1
1
1
1
1
1
1
1
1
1
1
1
1
1
1
1
1
1
1
1
1
1
1
1
1
1
1
1
1
1
1
1
1
1
1
1
1
1
1
1
1
1
1
1
1
1
1
1
1
1
1
1
1
1
1
1
1
1
1
1
1
1
1
1
1
1
1
1
1
1
1
1
1
1
1
1
1
1
1
1
1
1
1
1
1
1
1
1
1
1
1
1
1
1
1
1
1
1
1
1
1
1
1
1
1
1
1
1
1
1
1
1
1
1
1
1
1
1
1
1
1
1
1
1
1
1
1
1
1
1
1
1
1
1
1
1
1
1
1
1
1
1
1
1
1
1
1
1
1
1
1
1
1
1
1
1
1
1
1
1
1
1
1
1
1
1
1
1
1
1
1
1
1
1
1
1
1
1
1
1
1
1
1
1
1
1
1
1
1
1
1
1
1
1
1
1
1
1
1
1
1
1
1
1
1
1
1
1
1
1
1
1
1
1
1
1
1
1
1
1
1
1
1
1
1
1
1
1
1
1
1
1
1
1
1
1
1
1
1
1
1
1
1
1
1
1
1
1
1
1
1
1
1
1
1
1
1
1
1
1
1
1
1
1
1
1
1
1
1
1
1
1
1
1
1
1
1
1
1
1
1
1
1
1
1
1
1
1
1
1
1
1
1
1
1
1
1
1
1
1
1
1
1
1
1
1
1
1
1
1
1
1
1
1
1
1
1
1
1
1
1
1
1
1
1
1
1
1
1
1
1
1
1
1
1
1
1
1
1
1
1
1
1
1
1
1
1
1
1
1
1
1
1
1
1
1
1
1
1
1
1
1
1
1
1
1
1
1
1
1
1
1
1
1
1
1
1
1
1
1
1
1
1
1
1
1
1
1
1
1
1
1
1
1
1
1
1
1
1
1
1
1
1
1
1
1
1
1
1
1
1
1
1
1
1
1
1
1
1
1
1
1
1
1
1
1
1
1
1
1
1
1
1
1
1
1
1
1
1
1
1
1
1
1
1
1
1
1
1
1
1
1
1
1
1
1
1
1
1
1
1
1
1
1
1
1
1
1
1
1
1
1
1
1
1
1
1
1
1
1
1
1
1
1
1
1
1
1
1
1
1
1
1
1
1
1
1
1
1
1
1
1
1
1
1
1
1
1
1
1
1
1
1
1
1
1
1
1
1
1
1
1
1
1
1
1
1
1
1
1
1
1
1
1
1
1
1
1
1
1
1
1
1
1
1
1
1
1
1
1
1
1
1
1
1
1
1
1
1
1
1
1
1
1
1
1
1
1
1
1
1
1
1
1
1
1
1
1
1
1
1
1
1
1
1
1
1
1
1
1
1
1
1
1
1
1
1
1
1
1
1
1
1
1
1
1
1
1
1
1
1
1
1
1
1
1
1
1
1
1
1
1
1
1
1
1
1
1
1
1
1
1
1
1
1
1
1
1
1
1
1
1
1
1
1
1
1
1
1
1
1
1
1
1
1
1
1
1
1
1
1
1
1
1
1
1
1
1
1
1
1
1
1
1
1
1
1
1
1
1
1
1
1
1
1
1
1
1
1
1
1
1
1
1
1
1
1
1
1
1
1
1
1
1
1
1
1
1
1
1
1
1
1
1
1
1
1
1
1
1
1
1
1
1
1
1
1
1
1
1
1
1
1
1
1
1
1
1
1
1
1
1
1
1
1
1
1
1
1
1
1
1
1
1
1
1
1
1
1
1
1
1
1
1
1
1
1
1
1
1
1
1
1
1
1
1
1
1
1
1
1
1
1
1
1
1
1
1
1
1
1
1
1
1
1
1
1
1
1
1
1
1
1
1
1
1
1
1
1
1
1
1
1
1
1
1
1
1
1
1
1
1
1
1
1
1
1
1
1
1
1
1
1
1
1
1
1
1
1
1
1
1
1
1
1
1
1
1
1
1
1
1
1
1
1
1
1
1
1
1
1
1
1
1
1
1
1
1
1
1
1
1
1
1
1
1
1
1
1
1
1
1
1
1
1
1
1
1
1
1
1
1
1
1
1
1
1
1
1
1
1
1
1
1
1
1
1
1
1
1
1
1
1
1
1
1
1
1
1
1
1
1
1
1
1
1
1
1
1
1
1
1
1
1
1
1
2
2
2
2
2
2
2
2
2
2
2
2
2
2
2
2
2
2
2
2
2
2
2
2
2
2
2
2
2
2
2
2
2
2
2
2
2
2
2
2
2
2
2
2
2
2
2
2
2
2
2
2
2
2
2
2
2
2
2
2
2
2
2
2
2
2
2
2
2
2
2
2
2
2
2
2
2
2
2
2
2
2
2
2
2
2
2
2
2
2
2
2
2
2
2
2
2
2
2
2
2
2
2
2
2
2
2
2
2
2
2
2
2
2
2
2
2
2
2
2
2
2
2
2
2
2
2
2
2
2
2
2
2
2
2
2
2
2
2
2
2
2
2
2
2
2
2
2
2
2
2
2
2
2
2
2
2
2
2
2
2
2
2
2
2
2
2
2
2
2
2
2
2
2
2
2
2
2
2
2
2
2
2
2
2
2
2
2
2
2
2
2
2
2
2
2
2
2
2
2
2
2
2
2
2
2
2
2
2
2
2
2
2
2
2
2
2
2
2
2
2
2
2
2
2
2
2
2
2
2
2
2
2
2
2
2
2
2
2
2
2
2
2
2
2
2
2
2
2
2
2
2
2
2
2
2
2
2
2
2
2
2
2
2
2
2
2
2
2
2
2
2
2
2
2
2
2
2
2
2
2
2
2
2
2
2
2
2
2
2
2
2
2
2
2
2
2
2
2
2
2
2
2
2
2
2
2
2
2
2
2
2
2
2
2
2
2
2
2
2
2
2
2
2
2
2
2
2
2
2
2
2
2
2
2
2
2
2
2
2
2
2
2
2
2
2
2
2
2
2
2
2
2
2
2
2
2
2
2
2
2
2
2
2
2
2
2
2
2
2
2
2
2
2
2
2
2
2
2
2
2
2
2
2
2
2
2
2
2
2
2
2
2
2
2
2
2
2
2
2
2
2
2
2
2
2
2
2
2
2
2
2
2
2
2
2
2
2
2
2
2
2
2
2
2
2
2
2
2
2
2
2
2
2
2
2
2
2
2
2
2
2
2
2
2
2
2
2
2
2
2
2
2
2
2
2
2
2
2
2
2
2
2
2
2
2
2
2
2
2
2
2
2
2
2
2
2
2
2
2
2
2
2
2
2
2
2
2
2
2
2
2
2
2
2
2
2
2
2
2
2
2
2
2
2
2
2
2
2
2
2
2
2
2
2
2
2
2
2
2
2
2
2
2
2
2
2
2
2
2
2
2
2
2
2
2
2
2
2
2
2
2
2
2
2
2
2
2
2
2
2
2
2
2
2
2
2
2
2
2
2
2
2
2
2
2
2
2
2
2
2
2
2
2
2
2
2
2
2
2
2
2
2
2
2
2
2
2
2
2
2
2
2
2
2
2
2
2
2
2
2
2
2
2
2
2
2
2
2
2
2
2
2
2
2
2
2
2
2
2
2
2
2
2
2
2
2
2
2
2
2
2
2
2
2
2
2
2
2
2
2
2
2
2
2
2
2
2
2
2
2
2
2
2
2
2
2
2
2
2
2
2
2
2
2
2
2
2
2
2
2
2
2
2
2
2
2
2
2
2
2
2
2
2
2
2
2
2
2
2
2
2
2
2
2
2
2
2
2
2
2
2
2
2
2
2
2
2
2
2
2
2
2
2
2
2
2
2
2
2
2
2
2
2
2
2
2
2
2
2
2
2
2
2
2
2
2
2
2
2
2
2
2
2
2
2
2
2
2
2
2
2
2
2
2
2
2
2
2
2
2
2
2
2
2
2
2
2
2
2
2
2
2
2
2
2
2
2
2
2
2
2
2
2
2
2
2
2
2
2
2
2
2
2
2
2
2
2
2
2
2
2
2
2
2
2
2
2
2
2
2
2
2
2
2
2
2
2
2
2
2
2
2
2
2
2
2
2
2
2
2
2
2
2
2
2
2
2
2
2
2
2
2
2
2
2
2
2
2
2
2
2
2
2
2
2
2
2
2
2
2
2
2
2
2
2
2
2
2
2
2
2
2
2
2
2
2
2
2
2
2
2
2
2
2
2
2
2
2
2
2
2
2
2
2
2
2
2
2
2
2
2
2
2
2
2
2
2
2
2
2
2
2
2
2
2
2
2
2
2
2
2
2
2
2
2
2
2
2
2
2
2
2
2
2
2
2
2
2
2
2
2
2
2
2
2
2
2
2
2
2
2
2
2
2
2
2
2
2
2
2
2
2
2
2
2
2
2
2
2
2
2
2
2
2
2
2
2
2
2
2
2
2
2
2
2
2
2
2
2
2
2
2
2
2
2
2
2
2
2
2
2
2
2
2
2
2
2
2
2
2
2
2
2
2
2
2
2
2
2
2
2
2
2
2
2
2
2
2
2
2
2
2
2
2
2
2
2
2
2
2
2
2
2
2
2
2
2
2
2
2
2
2
2
2
2
2
2
2
2
2
2
2
2
2
2
2
2
2
2
2
2
2
2
2
2
2
2
2
2
2
2
2
2
2
2
2
2
2
2
2
2
2
2
2
2
2
2
2
2
2
2
2
2
2
2
2
2
2
2
2
2
2
2
2
2
2
2
2
2
2
2
2
2
2
2
2
2
2
2
2
2
2
2
2
2
2
2
2
2
2
2
2
2
2
2
2
2
2
2
2
2
</DataArray>
<DataArray type="Float32" Name="theta_sin" format="ascii">
-0.791723
-0.792076
-0.792459
-0.792876
-0.793329
-0.79382
-0.794353
-0.794927
-0.795542
-0.796197
-0.796888
-0.797608
-0.798351
-0.799106
-0.799862
-0.800604
-0.801318
-0.801989
-0.802599
-0.803134
-0.80358
-0.803926
-0.804162
-0.804281
-0.804281
-0.804162
-0.803926
-0.80358
-0.803134
-0.802599
-0.801989
-0.801318
-0.800604
-0.799862
-0.799106
-0.798351
-0.797608
-0.796888
-0.796197
-0.795542
-0.794927
-0.794353
-0.79382
-0.793329
-0.792876
-0.792459
-0.792076
-0.791723
-0.788406
-0.788938
-0.789497
-0.790086
-0.790708
-0.791365
-0.79206
-0.792793
-0.793565
-0.794374
-0.795217
-0.796088
-0.796981
-0.797884
-0.798786
-0.799674
-0.800532
-0.801344
-0.802093
-0.802764
-0.803343
-0.803815
-0.804171
-0.804405
-0.804512
-0.804494
-0.804353
-0.804097
-0.803736
-0.803284
-0.802755
-0.802166
-0.801532
-0.800871
-0.800198
-0.799525
-0.798867
-0.798231
-0.797625
-0.797056
-0.796526
-0.796036
-0.795588
-0.795179
-0.794808
-0.794473
-0.79417
-0.793897
-0.787877
-0.788444
-0.789037
-0.789658
-0.79031
-0.790997
-0.79172
-0.792481
-0.793279
-0.794113
-0.79498
-0.795875
-0.79679
-0.797714
-0.798638
-0.799546
-0.800423
-0.801254
-0.802022
-0.80271
-0.803305
-0.803793
-0.804165
-0.804412
-0.804533
-0.804526
-0.804397
-0.804152
-0.803801
-0.803359
-0.802839
-0.802259
-0.801634
-0.800982
-0.800317
-0.799653
-0.799003
-0.798375
-0.797777
-0.797216
-0.796693
-0.796211
-0.79577
-0.795368
-0.795004
-0.794676
-0.794379
-0.794112
-0.787147
-0.787766
-0.788407
-0.789074
-0.789771
-0.7905
-0.791263
-0.792062
-0.792896
-0.793765
-0.794666
-0.795592
-0.796537
-0.797491
-0.798442
-0.799377
-0.800281
-0.801136
-0.801928
-0.802639
-0.803255
-0.803764
-0.804154
-0.80442
-0.804557
-0.804566
-0.804451
-0.80422
-0.803882
-0.803452
-0.802945
-0.802375
-0.801762
-0.80112
-0.800466
-0.799812
-0.799172
-0.798554
-0.797966
-0.797414
-0.7969
-0.796427
-0.795994
-0.795601
-0.795245
-0.794924
-0.794635
-0.794375
-0.786076
-0.786775
-0.787493
-0.788232
-0.788997
-0.789789
-0.790613
-0.791469
-0.792357
-0.793278
-0.794226
-0.795199
-0.796187
-0.797183
-0.798174
-0.799146
-0.800086
-0.800975
-0.801799
-0.802541
-0.803186
-0.803722
-0.804138
-0.804427
-0.804587
-0.804616
-0.804521
-0.804307
-0.803987
-0.803572
-0.80308
-0.802525
-0.801926
-0.801297
-0.800656
-0.800015
-0.799387
-0.798781
-0.798205
-0.797664
-0.797162
-0.796699
-0.796277
-0.795893
-0.795546
-0.795234
-0.794954
-0.794702
-0.784349
-0.785194
-0.786047
-0.786911
-0.787792
-0.788693
-0.789617
-0.790567
-0.791544
-0.792546
-0.793572
-0.794616
-0.795672
-0.796731
-0.797782
-0.798811
-0.799803
-0.800742
-0.801613
-0.802398
-0.803085
-0.803658
-0.80411
-0.804433
-0.804623
-0.804681
-0.804612
-0.804423
-0.804125
-0.803733
-0.80326
-0.802725
-0.802144
-0.801533
-0.800909
-0.800284
-0.799672
-0.799081
-0.79852
-0.797993
-0.797504
-0.797054
-0.796644
-0.796272
-0.795936
-0.795635
-0.795364
-0.795122
-0.781102
-0.782269
-0.783412
-0.784539
-0.785659
-0.786777
-0.787899
-0.78903
-0.790172
-0.791326
-0.792491
-0.793664
-0.794838
-0.796006
-0.797157
-0.798279
-0.799357
-0.800376
-0.801321
-0.802175
-0.802924
-0.803556
-0.804062
-0.804434
-0.804669
-0.804769
-0.804739
-0.804585
-0.80432
-0.803958
-0.803514
-0.803005
-0.802449
-0.801862
-0.801261
-0.800658
-0.800066
-0.799494
-0.798951
-0.798442
-0.797969
-0.797535
-0.79714
-0.796781
-0.796459
-0.79617
-0.795911
-0.795679
-0.772751
-0.77502
-0.777103
-0.779037
-0.780853
-0.782577
-0.784228
-0.785822
-0.787372
-0.788887
-0.790372
-0.791829
-0.793257
-0.794653
-0.796008
-0.797313
-0.798557
-0.799725
-0.800804
-0.80178
-0.80264
-0.803372
-0.803968
-0.804422
-0.804731
-0.804898
-0.804928
-0.80483
-0.804615
-0.804299
-0.803897
-0.803428
-0.802908
-0.802355
-0.801784
-0.80121
-0.800645
-0.800099
-0.79958
-0.799092
-0.79864
-0.798225
-0.797847
-0.797505
-0.797197
-0.796921
-0.796675
-0.796455
-0.703927
-0.727072
-0.741896
-0.752262
-0.75998
-0.766007
-0.770894
-0.774985
-0.778498
-0.781582
-0.78434
-0.786841
-0.789134
-0.791252
-0.793216
-0.795037
-0.796721
-0.798266
-0.799669
-0.800926
-0.802029
-0.802973
-0.803754
-0.804369
-0.804821
-0.805112
-0.805252
-0.805251
-0.805123
-0.804883
-0.80455
-0.804142
-0.803677
-0.803173
-0.802647
-0.802113
-0.801584
-0.801071
-0.800581
-0.800119
-0.799691
-0.799296
-0.798937
-0.798611
-0.798318
-0.798055
-0.79782
-0.79761
0.824676
0.82753
0.831128
0.835826
0.842259
0.851681
0.86695
0.896117
0.967993
2.13291e-05
-0.642234
-0.722388
-0.751767
-0.767156
-0.776774
-0.783454
-0.788422
-0.792289
-0.795389
-0.797916
-0.799991
-0.80169
-0.803065
-0.804155
-0.804989
-0.805591
-0.805986
-0.806194
-0.806239
-0.806144
-0.805932
-0.805624
-0.805243
-0.80481
-0.804343
-0.803858
-0.803369
-0.802888
-0.802424
-0.801984
-0.801571
-0.801188
-0.800836
-0.800516
-0.800225
-0.799962
-0.799724
-0.79951
0.805659
0.806063
0.806502
0.806981
0.807504
0.808075
0.808698
0.809377
0.810114
0.810913
0.811776
0.812707
0.813711
0.814798
0.815983
0.817303
0.818824
0.820694
0.823257
0.827498
0.837592
0.920385
-0.780189
-0.800936
-0.806584
-0.809101
-0.810393
-0.811046
-0.811306
-0.811299
-0.811101
-0.810764
-0.810326
-0.809817
-0.809264
-0.808686
-0.808101
-0.807521
-0.806957
-0.806417
-0.805905
-0.805426
-0.80498
-0.804567
-0.804187
-0.803837
-0.803516
-0.80322
0.804323
0.804661
0.80503
0.80543
0.805865
0.806338
0.80685
0.807401
0.807992
0.808621
0.809284
0.809976
0.810689
0.811414
0.812139
0.812851
0.813536
0.814179
0.814764
0.815277
0.815705
0.816037
0.816263
0.816378
-0.816378
-0.816263
-0.816037
-0.815705
-0.815277
-0.814764
-0.814179
-0.813536
-0.812851
-0.812139
-0.811414
-0.810689
-0.809976
-0.809284
-0.808621
-0.807992
-0.807401
-0.80685
-0.806338
-0.805865
-0.80543
-0.80503
-0.804661
-0.804323
0.804323
0.804661
0.80503
0.80543
0.805865
0.806338
0.80685
0.807401
0.807992
0.808621
0.809284
0.809976
0.810689
0.811414
0.812139
0.812851
0.813536
0.814179
0.814764
0.815277
0.815705
0.816037
0.816263
0.816378
-0.816378
-0.816263
-0.816037
-0.815705
-0.815277
-0.814764
-0.814179
-0.813536
-0.812851
-0.812139
-0.811414
-0.810689
-0.809976
-0.809284
-0.808621
-0.807992
-0.807401
-0.80685
-0.806338
-0.805865
-0.80543
-0.80503
-0.804661
-0.804323
0.80322
0.803516
0.803837
0.804187
0.804567
0.80498
0.805426
0.805905
0.806417
0.806957
0.807521
0.808101
0.808686
0.809264
0.809817
0.810326
0.810764
0.811101
0.811299
0.811306
0.811046
0.810393
0.809101
0.806584
0.800936
0.780189
-0.920385
-0.837592
-0.827498
-0.823257
-0.820694
-0.818824
-0.817303
-0.815983
-0.814798
-0.813711
-0.812707
-0.811776
-0.810913
-0.810114
-0.809377
-0.808698
-0.808075
-0.807504
-0.806981
-0.806502
-0.806063
-0.805659
0.79951
0.799724
0.799962
0.800225
0.800516
0.800836
0.801188
0.801571
0.801984
0.802424
0.802888
0.803369
0.803858
0.804343
0.80481
0.805243
0.805624
0.805932
0.806144
0.806239
0.806194
0.805986
0.805591
0.804989
0.804155
0.803065
0.80169
0.799991
0.797916
0.795389
0.792289
0.788422
0.783454
0.776774
0.767156
0.751767
0.722388
0.642234
-2.13291e-05
-0.967993
-0.896117
-0.86695
-0.851681
-0.842259
-0.835826
-0.831128
-0.82753
-0.824676
0.79761
0.79782
0.798055
0.798318
0.798611
0.798937
0.799296
0.799691
0.800119
0.800581
0.801071
0.801584
0.802113
0.802647
0.803173
0.803677
0.804142
0.80455
0.804883
0.805123
0.805251
0.805252
0.805112
0.804821
0.804369
0.803754
0.802973
0.802029
0.800926
0.799669
0.798266
0.796721
0.795037
0.793216
0.791252
0.789134
0.786841
0.78434
0.781582
0.778498
0.774984
0.770894
0.766007
0.75998
0.752262
0.741896
0.727072
0.703927
0.796455
0.796675
0.796921
0.797197
0.797505
0.797847
0.798225
0.79864
0.799092
0.79958
0.800099
0.800645
0.80121
0.801784
0.802355
0.802908
0.803428
0.803897
0.804299
0.804615
0.80483
0.804928
0.804898
0.804731
0.804422
0.803968
0.803372
0.80264
0.80178
0.800804
0.799725
0.798557
0.797313
0.796008
0.794653
0.793257
0.791829
0.790372
0.788887
0.787372
0.785822
0.784228
0.782577
0.780853
0.779037
0.777103
0.77502
0.772751
0.795679
0.795911
0.79617
0.796459
0.796781
0.79714
0.797535
0.797969
0.798442
0.798951
0.799494
0.800066
0.800658
0.801261
0.801862
0.802449
0.803005
0.803514
0.803958
0.80432
0.804585
0.804739
0.804769
0.804669
0.804434
0.804062
0.803556
0.802924
0.802175
0.801321
0.800376
0.799357
0.798279
0.797157
0.796006
0.794838
0.793664
0.792491
0.791326
0.790172
0.78903
0.787899
0.786777
0.785659
0.784539
0.783412
0.782269
0.781102
0.795122
0.795364
0.795635
0.795936
0.796272
0.796644
0.797054
0.797504
0.797993
0.79852
0.799081
0.799672
0.800284
0.800909
0.801533
0.802144
0.802725
0.80326
0.803733
0.804125
0.804423
0.804612
0.804681
0.804623
0.804433
0.80411
0.803658
0.803084
0.802398
0.801613
0.800742
0.799803
0.798811
0.797782
0.796731
0.795672
0.794616
0.793572
0.792546
0.791544
0.790567
0.789617
0.788693
0.787792
0.786911
0.786047
0.785194
0.784349
0.794702
0.794954
0.795234
0.795546
0.795893
0.796277
0.796699
0.797162
0.797664
0.798205
0.798781
0.799387
0.800015
0.800656
0.801297
0.801926
0.802525
0.80308
0.803572
0.803987
0.804307
0.804521
0.804616
0.804587
0.804427
0.804138
0.803722
0.803186
0.802541
0.801799
0.800975
0.800086
0.799146
0.798174
0.797183
0.796187
0.795199
0.794226
0.793278
0.792357
0.791469
0.790613
0.789789
0.788997
0.788232
0.787493
0.786775
0.786076
0.794375
0.794635
0.794924
0.795245
0.795601
0.795994
0.796427
0.7969
0.797414
0.797966
0.798554
0.799172
0.799812
0.800466
0.80112
0.801762
0.802375
0.802945
0.803452
0.803882
0.80422
0.804451
0.804566
0.804557
0.80442
0.804154
0.803764
0.803255
0.802639
0.801928
0.801136
0.800281
0.799377
0.798442
0.797491
0.796537
0.795592
0.794666
0.793765
0.792896
0.792062
0.791263
0.7905
0.789771
0.789074
0.788407
0.787766
0.787147
0.794112
0.794379
0.794676
0.795004
0.795368
0.79577
0.796211
0.796693
0.797216
0.797777
0.798375
0.799003
0.799653
0.800317
0.800982
0.801634
0.802259
0.802839
0.803359
0.803801
0.804152
0.804397
0.804526
0.804533
0.804412
0.804165
0.803793
0.803305
0.80271
0.802022
0.801254
0.800423
0.799546
0.798638
0.797714
0.79679
0.795875
0.79498
0.794113
0.793279
0.792481
0.79172
0.790997
0.79031
0.789658
0.789037
0.788444
0.787877
0.793897
0.79417
0.794473
0.794808
0.795179
0.795588
0.796036
0.796526
0.797056
0.797625
0.798231
0.798867
0.799525
0.800198
0.800871
0.801532
0.802166
0.802755
0.803284
0.803736
0.804097
0.804353
0.804494
0.804512
0.804405
0.804171
0.803815
0.803343
0.802764
0.802093
0.801344
0.800532
0.799674
0.798786
0.797884
0.796981
0.796089
0.795217
0.794374
0.793565
0.792793
0.79206
0.791365
0.790708
0.790086
0.789497
0.788938
0.788406
0.791723
0.792076
0.792459
0.792876
0.793329
0.79382
0.794353
0.794927
0.795542
0.796197
0.796888
0.797608
0.798351
0.799106
0.799862
0.800604
0.801319
0.801988
0.802599
0.803134
0.80358
0.803926
0.804162
0.804281
0.804281
0.804162
0.803926
0.80358
0.803134
0.802599
0.801988
0.801319
0.800604
0.799862
0.799106
0.798351
0.797608
0.796888
0.796197
0.795542
0.794927
0.794353
0.79382
0.793329
0.792876
0.792459
0.792076
0.791723
-0.804323
-0.804661
-0.80503
-0.80543
-0.805865
-0.806338
-0.80685
-0.807401
-0.807992
-0.808621
-0.809284
-0.809976
-0.810689
-0.811414
-0.812139
-0.812851
-0.813536
-0.814179
-0.814764
-0.815277
-0.815705
-0.816037
-0.816263
-0.816378
0.816378
0.816263
0.816037
0.815705
0.815277
0.814764
0.814179
0.813536
0.812851
0.812139
0.811414
0.810689
0.809976
0.809284
0.808621
0.807992
0.807401
0.80685
0.806338
0.805865
0.80543
0.80503
0.804661
0.804323
-0.802295
-0.802561
-0.802851
-0.803168
-0.803513
-0.803888
-0.804294
-0.80473
-0.805196
-0.805687
-0.806198
-0.806722
-0.807247
-0.80776
-0.808243
-0.808676
-0.809034
-0.809289
-0.809404
-0.809336
-0.809031
-0.808411
-0.807357
-0.805667
-0.802949
-0.798297
-0.789006
-0.761735
-5.57667e-15
0.869133
0.841664
0.831942
0.826701
0.823249
0.820694
0.81866
0.816964
0.815507
0.814231
0.813101
0.812092
0.811186
0.810371
0.809635
0.808969
0.808364
0.807814
0.807313
-0.802091
-0.802352
-0.802636
-0.802946
-0.803285
-0.803653
-0.804051
-0.80448
-0.804938
-0.805421
-0.805923
-0.806438
-0.806954
-0.807458
-0.807932
-0.808356
-0.808706
-0.808953
-0.809064
-0.808997
-0.808702
-0.808108
-0.807116
-0.805561
-0.803146
-0.799246
-0.792265
-0.776535
-0.707223
0.941893
0.856537
0.838783
0.83085
0.826136
0.822871
0.820392
0.818394
0.81672
0.815282
0.814027
0.812918
0.811931
0.811049
0.810256
0.809542
0.808897
0.808311
0.807779
-0.801842
-0.802095
-0.802373
-0.802676
-0.803007
-0.803368
-0.803758
-0.804179
-0.804628
-0.805102
-0.805595
-0.806101
-0.806608
-0.807102
-0.807567
-0.807983
-0.808326
-0.808569
-0.808678
-0.808617
-0.808338
-0.807782
-0.806863
-0.805455
-0.803339
-0.800104
-0.794835
-0.785003
-0.760154
-0.57294
0.905408
0.85371
0.838557
0.831054
0.826388
0.823088
0.820561
0.818521
0.816818
0.815361
0.814096
0.812985
0.812001
0.811124
0.810338
0.809632
0.808994
0.808416
-0.801529
-0.801776
-0.802045
-0.80234
-0.802663
-0.803015
-0.803397
-0.803808
-0.804248
-0.804712
-0.805196
-0.805692
-0.80619
-0.806676
-0.807133
-0.807543
-0.807882
-0.808123
-0.808237
-0.808188
-0.807935
-0.807427
-0.806597
-0.805348
-0.803531
-0.800887
-0.796914
-0.790487
-0.778424
-0.747077
-0.471812
0.910312
0.857779
0.841308
0.833022
0.827861
0.824231
0.821475
0.819274
0.817455
0.815915
0.81459
0.813434
0.812418
0.811516
0.810712
0.809991
0.809341
-0.801127
-0.801365
-0.801625
-0.801911
-0.802225
-0.802567
-0.802939
-0.803341
-0.80377
-0.804225
-0.8047
-0.805187
-0.805677
-0.806156
-0.806608
-0.807014
-0.807353
-0.8076
-0.807725
-0.807699
-0.807485
-0.807041
-0.806316
-0.805241
-0.803721
-0.801604
-0.798634
-0.794329
-0.787649
-0.775879
-0.749114
-0.62458
0.973435
0.87561
0.850204
0.838614
0.831803
0.827209
0.823834
0.821212
0.819093
0.817332
0.81584
0.814556
0.813438
0.812455
0.811584
0.810807
-0.800589
-0.800817
-0.801068
-0.801344
-0.801647
-0.801979
-0.802341
-0.802733
-0.803154
-0.8036
-0.804067
-0.804547
-0.805032
-0.805507
-0.805959
-0.806368
-0.806715
-0.806977
-0.807126
-0.807137
-0.806979
-0.806619
-0.806019
-0.805135
-0.803909
-0.802264
-0.800082
-0.797174
-0.793212
-0.787559
-0.778824
-0.763301
-0.726984
-0.541557
0.978294
0.884804
0.856456
0.843108
0.835215
0.829912
0.826051
0.823084
0.820714
0.818767
0.817134
0.81574
0.814535
0.813482
-0.799834
-0.800052
-0.800293
-0.800559
-0.800852
-0.801175
-0.801528
-0.801913
-0.802326
-0.802767
-0.80323
-0.803709
-0.804195
-0.804675
-0.805136
-0.80556
-0.805929
-0.806221
-0.806413
-0.806483
-0.806404
-0.806153
-0.805702
-0.805026
-0.804095
-0.802873
-0.801317
-0.799367
-0.796934
-0.79388
-0.789975
-0.784815
-0.777627
-0.766746
-0.747884
-0.705911
-0.531753
0.996758
0.911496
0.871693
0.853351
0.842771
0.835827
0.830881
0.827155
0.824232
0.821869
0.819912
-0.798697
-0.798906
-0.79914
-0.799399
-0.799688
-0.800007
-0.800358
-0.800742
-0.801157
-0.801603
-0.802074
-0.802565
-0.803066
-0.803569
-0.804058
-0.804518
-0.804933
-0.805283
-0.805547
-0.805706
-0.80574
-0.80563
-0.805358
-0.80491
-0.804272
-0.803432
-0.80238
-0.801105
-0.799597
-0.797839
-0.795809
-0.793472
-0.790774
-0.787631
-0.783911
-0.779403
-0.773754
-0.766347
-0.756012
-0.740257
-0.712733
-0.651564
-0.416238
0.946595
0.945944
0.895787
0.870918
0.856382
-0.796786
-0.797003
-0.797245
-0.797516
-0.797818
-0.798155
-0.798527
-0.798935
-0.79938
-0.799859
-0.800369
-0.800905
-0.801459
-0.802021
-0.802578
-0.803117
-0.803621
-0.804074
-0.804456
-0.804752
-0.804943
-0.805015
-0.804956
-0.804757
-0.804411
-0.803917
-0.803275
-0.802492
-0.801574
-0.800533
-0.79938
-0.798128
-0.79679
-0.795377
-0.793898
-0.792362
-0.790771
-0.789126
-0.787423
-0.785654
-0.783805
-0.781858
-0.779787
-0.777559
-0.775132
-0.772451
-0.769443
-0.766012
-0.792913
-0.793218
-0.793554
-0.793922
-0.794327
-0.794771
-0.795255
-0.795781
-0.796348
-0.796955
-0.797598
-0.798272
-0.798969
-0.799679
-0.800391
-0.801091
-0.801762
-0.802391
-0.802959
-0.803452
-0.803856
-0.804156
-0.804345
-0.804414
-0.80436
-0.804184
-0.803887
-0.803479
-0.802967
-0.802365
-0.801687
-0.800948
-0.800165
-0.799354
-0.79853
-0.797707
-0.796896
-0.796108
-0.79535
-0.794628
-0.793945
-0.793303
-0.792703
-0.792142
-0.79162
-0.791134
-0.790681
-0.790258
-0.791723
-0.792076
-0.792459
-0.792876
-0.793329
-0.79382
-0.794353
-0.794927
-0.795542
-0.796197
-0.796888
-0.797608
-0.798351
-0.799106
-0.799862
-0.800604
-0.801318
-0.801989
-0.802599
-0.803134
-0.80358
-0.803926
-0.804162
-0.804281
-0.804281
-0.804162
-0.803926
-0.80358
-0.803134
-0.802599
-0.801989
-0.801318
-0.800604
-0.799862
-0.799106
-0.798351
-0.797608
-0.796888
-0.796197
-0.795542
-0.794927
-0.794353
-0.79382
-0.793329
-0.792876
-0.792459
-0.792076
-0.791723
-0.791723
-0.792076
-0.792459
-0.792876
-0.793329
-0.79382
-0.794353
-0.794927
-0.795542
-0.796197
-0.796888
-0.797608
-0.798351
-0.799106
-0.799862
-0.800604
-0.801318
-0.801989
-0.802599
-0.803134
-0.80358
-0.803926
-0.804162
-0.804281
-0.804281
-0.804162
-0.803926
-0.80358
-0.803134
-0.802599
-0.801989
-0.801318
-0.800604
-0.799862
-0.799106
-0.798351
-0.797608
-0.796888
-0.796197
-0.795542
-0.794927
-0.794353
-0.79382
-0.793329
-0.792876
-0.792459
-0.792076
-0.791723
-0.790258
-0.790681
-0.791134
-0.79162
-0.792142
-0.792703
-0.793303
-0.793945
-0.794628
-0.79535
-0.796108
-0.796896
-0.797707
-0.79853
-0.799354
-0.800165
-0.800948
-0.801687
-0.802365
-0.802967
-0.803479
-0.803888
-0.804184
-0.80436
-0.804414
-0.804345
-0.804156
-0.803856
-0.803452
-0.802959
-0.802391
-0.801762
-0.801091
-0.800391
-0.799679
-0.798969
-0.798272
-0.797598
-0.796955
-0.796348
-0.795781
-0.795255
-0.794771
-0.794327
-0.793922
-0.793554
-0.793218
-0.792913
-0.766012
-0.769443
-0.772451
-0.775132
-0.777559
-0.779787
-0.781858
-0.783805
-0.785654
-0.787423
-0.789126
-0.790771
-0.792362
-0.793898
-0.795377
-0.79679
-0.798128
-0.79938
-0.800533
-0.801574
-0.802492
-0.803275
-0.803917
-0.804411
-0.804757
-0.804956
-0.805015
-0.804943
-0.804751
-0.804456
-0.804074
-0.803621
-0.803117
-0.802578
-0.802021
-0.801459
-0.800905
-0.800369
-0.799859
-0.79938
-0.798935
-0.798527
-0.798155
-0.797818
-0.797516
-0.797245
-0.797003
-0.796786
0.856382
0.870918
0.895787
0.945944
0.946595
-0.416238
-0.651564
-0.712733
-0.740257
-0.756012
-0.766347
-0.773754
-0.779403
-0.783911
-0.787631
-0.790774
-0.793472
-0.795809
-0.797839
-0.799597
-0.801105
-0.80238
-0.803432
-0.804272
-0.80491
-0.805358
-0.80563
-0.80574
-0.805706
-0.805547
-0.805283
-0.804933
-0.804518
-0.804058
-0.803569
-0.803066
-0.802565
-0.802074
-0.801603
-0.801157
-0.800742
-0.800358
-0.800007
-0.799688
-0.799399
-0.79914
-0.798906
-0.798697
0.819912
0.821869
0.824232
0.827155
0.830881
0.835827
0.842771
0.853351
0.871693
0.911496
0.996758
-0.531753
-0.705911
-0.747884
-0.766746
-0.777627
-0.784815
-0.789975
-0.79388
-0.796934
-0.799367
-0.801317
-0.802873
-0.804095
-0.805026
-0.805702
-0.806153
-0.806404
-0.806483
-0.806413
-0.806221
-0.805929
-0.80556
-0.805136
-0.804675
-0.804195
-0.803709
-0.80323
-0.802767
-0.802326
-0.801913
-0.801528
-0.801175
-0.800852
-0.800559
-0.800293
-0.800052
-0.799834
0.813482
0.814535
0.81574
0.817134
0.818767
0.820714
0.823084
0.826051
0.829912
0.835215
0.843108
0.856456
0.884804
0.978294
-0.541557
-0.726984
-0.763301
-0.778824
-0.787559
-0.793212
-0.797174
-0.800082
-0.802264
-0.803909
-0.805135
-0.806019
-0.806619
-0.806979
-0.807137
-0.807126
-0.806977
-0.806715
-0.806368
-0.805959
-0.805507
-0.805032
-0.804547
-0.804067
-0.8036
-0.803154
-0.802733
-0.802341
-0.801979
-0.801647
-0.801344
-0.801068
-0.800817
-0.800589
0.810807
0.811584
0.812455
0.813438
0.814556
0.81584
0.817332
0.819093
0.821212
0.823834
0.827209
0.831803
0.838614
0.850204
0.87561
0.973435
-0.62458
-0.749114
-0.775879
-0.787649
-0.794329
-0.798634
-0.801604
-0.803721
-0.805241
-0.806316
-0.807041
-0.807485
-0.807699
-0.807725
-0.8076
-0.807353
-0.807014
-0.806608
-0.806156
-0.805677
-0.805187
-0.8047
-0.804225
-0.80377
-0.803341
-0.802939
-0.802567
-0.802225
-0.801911
-0.801625
-0.801365
-0.801127
0.809341
0.809991
0.810712
0.811516
0.812418
0.813434
0.81459
0.815915
0.817455
0.819274
0.821475
0.824231
0.827861
0.833022
0.841308
0.857779
0.910312
-0.471812
-0.747077
-0.778424
-0.790487
-0.796914
-0.800887
-0.803531
-0.805348
-0.806597
-0.807427
-0.807935
-0.808188
-0.808237
-0.808123
-0.807882
-0.807543
-0.807133
-0.806676
-0.80619
-0.805692
-0.805196
-0.804712
-0.804248
-0.803808
-0.803397
-0.803015
-0.802663
-0.80234
-0.802045
-0.801776
-0.801529
0.808416
0.808994
0.809632
0.810338
0.811124
0.812001
0.812985
0.814096
0.815361
0.816818
0.818521
0.820561
0.823088
0.826388
0.831054
0.838557
0.85371
0.905408
-0.57294
-0.760154
-0.785003
-0.794835
-0.800104
-0.803339
-0.805455
-0.806863
-0.807782
-0.808338
-0.808617
-0.808678
-0.808569
-0.808326
-0.807983
-0.807567
-0.807102
-0.806608
-0.806101
-0.805595
-0.805102
-0.804628
-0.804179
-0.803758
-0.803368
-0.803007
-0.802676
-0.802373
-0.802095
-0.801842
0.807779
0.808311
0.808897
0.809542
0.810256
0.811049
0.811931
0.812918
0.814027
0.815282
0.81672
0.818394
0.820392
0.822871
0.826136
0.83085
0.838783
0.856537
0.941893
-0.707223
-0.776535
-0.792265
-0.799246
-0.803146
-0.805561
-0.807116
-0.808108
-0.808702
-0.808997
-0.809064
-0.808953
-0.808706
-0.808356
-0.807932
-0.807458
-0.806954
-0.806438
-0.805923
-0.805421
-0.804938
-0.80448
-0.804051
-0.803653
-0.803285
-0.802946
-0.802636
-0.802352
-0.802091
0.807313
0.807814
0.808364
0.808969
0.809635
0.810371
0.811186
0.812092
0.813101
0.814231
0.815507
0.816964
0.81866
0.820694
0.823249
0.826701
0.831942
0.841664
0.869133
-5.57667e-15
-0.761735
-0.789006
-0.798297
-0.802949
-0.805667
-0.807357
-0.808411
-0.809031
-0.809336
-0.809404
-0.809289
-0.809034
-0.808676
-0.808243
-0.807759
-0.807247
-0.806722
-0.806198
-0.805687
-0.805196
-0.80473
-0.804294
-0.803888
-0.803513
-0.803168
-0.802851
-0.802561
-0.802295
0.804323
0.804661
0.80503
0.80543
0.805865
0.806338
0.80685
0.807401
0.807992
0.808621
0.809284
0.809976
0.810689
0.811414
0.812139
0.812851
0.813536
0.814179
0.814764
0.815277
0.815705
0.816037
0.816263
0.816378
-0.816378
-0.816263
-0.816037
-0.815705
-0.815277
-0.814764
-0.814179
-0.813536
-0.812851
-0.812139
-0.811414
-0.810689
-0.809976
-0.809284
-0.808621
-0.807992
-0.807401
-0.80685
-0.806338
-0.805865
-0.80543
-0.80503
-0.804661
-0.804323
-0.707106
-0.707105
-0.707105
-0.707103
-0.707101
-0.707097
-0.707091
-0.707083
-0.707071
-0.707055
-0.707033
-0.707004
-0.706967
-0.706921
-0.706866
-0.706802
-0.70673
-0.706653
-0.706574
-0.706497
-0.706427
-0.706369
-0.706328
-0.706306
-0.706306
-0.706328
-0.706369
-0.706427
-0.706497
-0.706574
-0.706653
-0.70673
-0.706802
-0.706866
-0.706921
-0.706967
-0.707004
-0.707033
-0.707055
-0.707071
-0.707083
-0.707091
-0.707097
-0.707101
-0.707103
-0.707105
-0.707105
-0.707106
-0.707106
-0.707106
-0.707105
-0.707104
-0.707102
-0.7071
-0.707096
-0.70709
-0.707081
-0.707069
-0.707054
-0.707033
-0.707006
-0.706973
-0.706933
-0.706887
-0.706835
-0.706779
-0.706721
-0.706666
-0.706615
-0.706573
-0.706543
-0.706527
-0.706527
-0.706543
-0.706573
-0.706615
-0.706666
-0.706721
-0.706779
-0.706835
-0.706887
-0.706933
-0.706973
-0.707006
-0.707033
-0.707054
-0.707069
-0.707081
-0.70709
-0.707096
-0.7071
-0.707102
-0.707104
-0.707105
-0.707106
-0.707106
-0.707106
-0.707106
-0.707105
-0.707104
-0.707102
-0.7071
-0.707096
-0.70709
-0.707082
-0.707071
-0.707055
-0.707035
-0.707009
-0.706977
-0.706938
-0.706893
-0.706843
-0.706789
-0.706733
-0.706679
-0.70663
-0.706589
-0.70656
-0.706545
-0.706545
-0.70656
-0.706589
-0.70663
-0.706679
-0.706733
-0.706789
-0.706843
-0.706893
-0.706938
-0.706977
-0.707009
-0.707035
-0.707055
-0.707071
-0.707082
-0.70709
-0.707096
-0.7071
-0.707102
-0.707104
-0.707105
-0.707106
-0.707106
-0.707106
-0.707106
-0.707105
-0.707104
-0.707103
-0.7071
-0.707096
-0.707091
-0.707083
-0.707072
-0.707057
-0.707037
-0.707012
-0.706981
-0.706944
-0.706901
-0.706852
-0.7068
-0.706746
-0.706694
-0.706647
-0.706607
-0.706579
-0.706565
-0.706565
-0.706579
-0.706607
-0.706647
-0.706694
-0.706746
-0.7068
-0.706852
-0.706901
-0.706944
-0.706981
-0.707012
-0.707037
-0.707057
-0.707072
-0.707083
-0.707091
-0.707096
-0.7071
-0.707103
-0.707104
-0.707105
-0.707106
-0.707106
-0.707106
-0.707106
-0.707105
-0.707104
-0.707103
-0.7071
-0.707097
-0.707091
-0.707084
-0.707073
-0.707059
-0.70704
-0.707016
-0.706987
-0.706951
-0.70691
-0.706863
-0.706813
-0.706762
-0.706712
-0.706666
-0.706629
-0.706602
-0.706588
-0.706588
-0.706602
-0.706629
-0.706666
-0.706712
-0.706762
-0.706813
-0.706863
-0.70691
-0.706951
-0.706987
-0.707016
-0.70704
-0.707059
-0.707073
-0.707084
-0.707091
-0.707097
-0.7071
-0.707103
-0.707104
-0.707105
-0.707106
-0.707106
-0.707106
-0.707106
-0.707105
-0.707104
-0.707103
-0.707101
-0.707097
-0.707092
-0.707085
-0.707075
-0.707062
-0.707044
-0.707021
-0.706993
-0.706959
-0.70692
-0.706876
-0.706828
-0.706779
-0.706732
-0.706689
-0.706653
-0.706627
-0.706614
-0.706614
-0.706627
-0.706653
-0.706689
-0.706732
-0.706779
-0.706828
-0.706876
-0.70692
-0.706959
-0.706993
-0.707021
-0.707044
-0.707062
-0.707075
-0.707085
-0.707092
-0.707097
-0.707101
-0.707103
-0.707104
-0.707105
-0.707106
-0.707106
-0.707106
-0.707106
-0.707105
-0.707105
-0.707103
-0.707101
-0.707098
-0.707093
-0.707086
-0.707077
-0.707064
-0.707048
-0.707026
-0.707
-0.706968
-0.706931
-0.70689
-0.706845
-0.706799
-0.706755
-0.706714
-0.706681
-0.706657
-0.706644
-0.706644
-0.706657
-0.706681
-0.706714
-0.706755
-0.706799
-0.706845
-0.70689
-0.706931
-0.706968
-0.707
-0.707026
-0.707048
-0.707064
-0.707077
-0.707086
-0.707093
-0.707098
-0.707101
-0.707103
-0.707105
-0.707105
-0.707106
-0.707106
-0.707106
-0.707106
-0.707106
-0.707105
-0.707103
-0.707101
-0.707098
-0.707094
-0.707088
-0.707079
-0.707067
-0.707052
-0.707032
-0.707007
-0.706978
-0.706943
-0.706905
-0.706863
-0.706821
-0.706779
-0.706741
-0.70671
-0.706688
-0.706676
-0.706676
-0.706688
-0.70671
-0.706741
-0.706779
-0.706821
-0.706863
-0.706905
-0.706943
-0.706978
-0.707007
-0.707032
-0.707052
-0.707067
-0.707079
-0.707088
-0.707094
-0.707098
-0.707101
-0.707103
-0.707105
-0.707106
-0.707106
-0.707106
-0.707106
-0.707106
-0.707106
-0.707105
-0.707104
-0.707102
-0.707099
-0.707095
-0.707089
-0.707081
-0.70707
-0.707055
-0.707036
-0.707013
-0.706985
-0.706953
-0.706917
-0.706878
-0.706838
-0.706799
-0.706763
-0.706734
-0.706713
-0.706702
-0.706702
-0.706713
-0.706734
-0.706763
-0.706799
-0.706838
-0.706878
-0.706917
-0.706953
-0.706985
-0.707013
-0.707036
-0.707055
-0.70707
-0.707081
-0.707089
-0.707095
-0.707099
-0.707102
-0.707104
-0.707105
-0.707106
-0.707106
-0.707106
-0.707106
-0.707106
-0.707106
-0.707105
-0.707104
-0.707102
-0.707099
-0.707094
-0.707088
-0.70708
-0.707068
-0.707053
-0.707034
-0.70701
-0.706981
-0.706947
-0.706909
-0.706869
-0.706827
-0.706787
-0.70675
-0.70672
-0.706698
-0.706686
-0.706686
-0.706698
-0.70672
-0.70675
-0.706787
-0.706827
-0.706869
-0.706909
-0.706947
-0.706981
-0.70701
-0.707034
-0.707053
-0.707068
-0.70708
-0.707088
-0.707094
-0.707099
-0.707102
-0.707104
-0.707105
-0.707106
-0.707106
-0.707106
-0.707106
-0.707106
-0.707105
-0.707104
-0.707102
-0.707099
-0.707094
-0.707087
-0.707077
-0.707064
-0.707045
-0.707021
-0.70699
-0.706952
-0.706906
-0.706852
-0.706792
-0.706728
-0.706662
-0.706597
-0.706539
-0.70649
-0.706456
-0.706438
-0.706438
-0.706456
-0.70649
-0.706539
-0.706597
-0.706662
-0.706728
-0.706792
-0.706852
-0.706906
-0.706952
-0.70699
-0.707021
-0.707045
-0.707064
-0.707077
-0.707087
-0.707094
-0.707099
-0.707102
-0.707104
-0.707105
-0.707106
-0.707106
-0.707106
-0.707105
-0.707105
-0.707103
-0.707101
-0.707097
-0.707091
-0.707083
-0.707071
-0.707055
-0.707033
-0.707004
-0.706967
-0.706921
-0.706866
-0.706802
-0.70673
-0.706653
-0.706574
-0.706497
-0.706427
-0.706369
-0.706328
-0.706306
-0.706306
-0.706328
-0.706369
-0.706427
-0.706497
-0.706574
-0.706653
-0.70673
-0.706802
-0.706866
-0.706921
-0.706967
-0.707004
-0.707033
-0.707055
-0.707071
-0.707083
-0.707091
-0.707097
-0.707101
-0.707103
-0.707105
-0.707105
-0.707106
-0.707106
-0.707105
-0.707105
-0.707103
-0.707101
-0.707097
-0.707091
-0.707083
-0.707071
-0.707055
-0.707033
-0.707004
-0.706967
-0.706921
-0.706866
-0.706802
-0.70673
-0.706653
-0.706574
-0.706497
-0.706427
-0.706369
-0.706328
-0.706306
-0.706306
-0.706328
-0.706369
-0.706427
-0.706497
-0.706574
-0.706653
-0.70673
-0.706802
-0.706866
-0.706921
-0.706967
-0.707004
-0.707033
-0.707055
-0.707071
-0.707083
-0.707091
-0.707097
-0.707101
-0.707103
-0.707105
-0.707105
-0.707106
-0.707106
-0.707106
-0.707105
-0.707104
-0.707102
-0.707098
-0.707094
-0.707087
-0.707077
-0.707064
-0.707045
-0.707021
-0.70699
-0.706952
-0.706906
-0.706852
-0.706792
-0.706728
-0.706662
-0.706597
-0.706539
-0.70649
-0.706456
-0.706438
-0.706438
-0.706456
-0.70649
-0.706539
-0.706597
-0.706662
-0.706728
-0.706792
-0.706852
-0.706906
-0.706952
-0.70699
-0.707021
-0.707045
-0.707064
-0.707077
-0.707087
-0.707094
-0.707098
-0.707102
-0.707104
-0.707105
-0.707106
-0.707106
-0.707106
-0.707106
-0.707106
-0.707105
-0.707104
-0.707102
-0.707099
-0.707094
-0.707088
-0.70708
-0.707068
-0.707053
-0.707034
-0.70701
-0.706981
-0.706947
-0.70691
-0.706869
-0.706827
-0.706787
-0.70675
-0.70672
-0.706698
-0.706686
-0.706686
-0.706698
-0.70672
-0.70675
-0.706787
-0.706827
-0.706869
-0.70691
-0.706947
-0.706981
-0.70701
-0.707034
-0.707053
-0.707068
-0.70708
-0.707088
-0.707094
-0.707099
-0.707102
-0.707104
-0.707105
-0.707106
-0.707106
-0.707106
-0.707106
-0.707106
-0.707106
-0.707105
-0.707104
-0.707102
-0.707099
-0.707095
-0.707089
-0.707081
-0.70707
-0.707055
-0.707036
-0.707013
-0.706985
-0.706953
-0.706917
-0.706878
-0.706838
-0.706799
-0.706763
-0.706734
-0.706713
-0.706702
-0.706702
-0.706713
-0.706734
-0.706763
-0.706799
-0.706838
-0.706878
-0.706917
-0.706953
-0.706985
-0.707013
-0.707036
-0.707055
-0.70707
-0.707081
-0.707089
-0.707095
-0.707099
-0.707102
-0.707104
-0.707105
-0.707106
-0.707106
-0.707106
-0.707106
-0.707106
-0.707106
-0.707105
-0.707103
-0.707101
-0.707098
-0.707094
-0.707088
-0.707079
-0.707067
-0.707052
-0.707032
-0.707007
-0.706978
-0.706943
-0.706905
-0.706863
-0.706821
-0.706779
-0.706741
-0.70671
-0.706688
-0.706676
-0.706676
-0.706688
-0.70671
-0.706741
-0.706779
-0.706821
-0.706863
-0.706905
-0.706943
-0.706978
-0.707007
-0.707032
-0.707052
-0.707067
-0.707079
-0.707088
-0.707094
-0.707098
-0.707101
-0.707103
-0.707105
-0.707106
-0.707106
-0.707106
-0.707106
-0.707106
-0.707106
-0.707105
-0.707103
-0.707101
-0.707098
-0.707093
-0.707086
-0.707077
-0.707064
-0.707048
-0.707026
-0.707
-0.706968
-0.706931
-0.70689
-0.706845
-0.706799
-0.706755
-0.706714
-0.706681
-0.706657
-0.706644
-0.706644
-0.706657
-0.706681
-0.706714
-0.706755
-0.706799
-0.706845
-0.70689
-0.706931
-0.706968
-0.707
-0.707026
-0.707048
-0.707064
-0.707077
-0.707086
-0.707093
-0.707098
-0.707101
-0.707103
-0.707105
-0.707106
-0.707106
-0.707106
-0.707106
-0.707106
-0.707105
-0.707104
-0.707103
-0.707101
-0.707097
-0.707092
-0.707085
-0.707075
-0.707062
-0.707044
-0.707021
-0.706993
-0.706959
-0.70692
-0.706876
-0.706828
-0.706779
-0.706732
-0.706689
-0.706653
-0.706627
-0.706614
-0.706614
-0.706627
-0.706653
-0.706689
-0.706732
-0.706779
-0.706828
-0.706876
-0.70692
-0.706959
-0.706993
-0.707021
-0.707044
-0.707062
-0.707075
-0.707085
-0.707092
-0.707097
-0.707101
-0.707103
-0.707104
-0.707105
-0.707106
-0.707106
-0.707106
-0.707106
-0.707105
-0.707104
-0.707103
-0.7071
-0.707097
-0.707091
-0.707084
-0.707073
-0.707059
-0.70704
-0.707016
-0.706987
-0.706951
-0.70691
-0.706863
-0.706813
-0.706762
-0.706712
-0.706666
-0.706629
-0.706602
-0.706588
-0.706588
-0.706602
-0.706629
-0.706666
-0.706712
-0.706762
-0.706813
-0.706863
-0.70691
-0.706951
-0.706987
-0.707016
-0.70704
-0.707059
-0.707073
-0.707084
-0.707091
-0.707097
-0.7071
-0.707103
-0.707104
-0.707105
-0.707106
-0.707106
-0.707106
-0.707106
-0.707105
-0.707104
-0.707103
-0.7071
-0.707096
-0.707091
-0.707083
-0.707072
-0.707057
-0.707037
-0.707012
-0.706981
-0.706944
-0.706901
-0.706852
-0.7068
-0.706746
-0.706694
-0.706647
-0.706607
-0.706579
-0.706564
-0.706564
-0.706579
-0.706607
-0.706647
-0.706694
-0.706746
-0.7068
-0.706852
-0.706901
-0.706944
-0.706981
-0.707012
-0.707037
-0.707057
-0.707072
-0.707083
-0.707091
-0.707096
-0.7071
-0.707103
-0.707104
-0.707105
-0.707106
-0.707106
-0.707106
-0.707106
-0.707105
-0.707104
-0.707102
-0.7071
-0.707096
-0.70709
-0.707082
-0.707071
-0.707055
-0.707035
-0.707009
-0.706977
-0.706938
-0.706893
-0.706843
-0.706789
-0.706733
-0.706679
-0.70663
-0.706589
-0.70656
-0.706545
-0.706545
-0.70656
-0.706589
-0.70663
-0.706679
-0.706733
-0.706789
-0.706843
-0.706893
-0.706938
-0.706977
-0.707009
-0.707035
-0.707055
-0.707071
-0.707082
-0.70709
-0.707096
-0.7071
-0.707102
-0.707104
-0.707105
-0.707106
-0.707106
-0.707106
-0.707106
-0.707105
-0.707104
-0.707102
-0.7071
-0.707096
-0.70709
-0.707081
-0.707069
-0.707054
-0.707033
-0.707006
-0.706973
-0.706933
-0.706887
-0.706835
-0.706779
-0.706721
-0.706666
-0.706615
-0.706573
-0.706543
-0.706527
-0.706527
-0.706543
-0.706573
-0.706615
-0.706666
-0.706721
-0.706779
-0.706835
-0.706887
-0.706933
-0.706973
-0.707006
-0.707033
-0.707054
-0.707069
-0.707081
-0.70709
-0.707096
-0.7071
-0.707102
-0.707104
-0.707105
-0.707106
-0.707106
-0.707106
-0.707105
-0.707104
-0.707103
-0.707101
-0.707097
-0.707091
-0.707083
-0.707071
-0.707055
-0.707033
-0.707004
-0.706967
-0.706921
-0.706866
-0.706802
-0.70673
-0.706653
-0.706574
-0.706497
-0.706427
-0.706369
-0.706328
-0.706306
-0.706306
-0.706328
-0.706369
-0.706427
-0.706497
-0.706574
-0.706653
-0.70673
-0.706802
-0.706866
-0.706921
-0.706967
-0.707004
-0.707033
-0.707055
-0.707071
-0.707083
-0.707091
-0.707097
-0.707101
-0.707103
-0.707104
-0.707105
-0.707106
</DataArray>
<DataArray type="Float32" Name="theta_cos" format="ascii">
-0.61088
-0.610423
-0.609925
-0.609384
-0.608794
-0.608152
-0.607457
-0.606705
-0.605898
-0.605037
-0.604128
-0.603176
-0.602192
-0.60119
-0.600184
-0.599193
-0.598238
-0.597339
-0.596519
-0.595799
-0.595196
-0.594729
-0.59441
-0.594249
-0.594249
-0.59441
-0.594729
-0.595196
-0.595799
-0.596519
-0.597339
-0.598238
-0.599193
-0.600184
-0.60119
-0.602192
-0.603176
-0.604128
-0.605037
-0.605898
-0.606705
-0.607457
-0.608152
-0.608794
-0.609384
-0.609925
-0.610423
-0.61088
-0.615155
-0.614472
-0.613754
-0.612996
-0.612194
-0.611344
-0.610443
-0.609491
-0.608485
-0.607428
-0.606325
-0.60518
-0.604005
-0.602812
-0.601615
-0.600435
-0.59929
-0.598204
-0.597199
-0.596296
-0.595517
-0.594879
-0.594397
-0.594081
-0.593936
-0.593961
-0.594152
-0.594499
-0.594986
-0.595596
-0.596309
-0.597102
-0.597952
-0.598837
-0.599736
-0.600632
-0.601508
-0.602352
-0.603153
-0.603906
-0.604605
-0.605249
-0.605839
-0.606375
-0.606861
-0.6073
-0.607695
-0.608052
-0.615832
-0.615106
-0.614346
-0.613547
-0.612707
-0.61182
-0.610884
-0.609897
-0.608858
-0.60777
-0.606635
-0.605461
-0.604257
-0.603036
-0.601812
-0.600605
-0.599435
-0.598324
-0.597295
-0.596369
-0.595568
-0.594909
-0.594407
-0.594071
-0.593908
-0.593917
-0.594092
-0.594424
-0.594898
-0.595495
-0.596196
-0.596976
-0.597815
-0.598689
-0.599577
-0.600462
-0.601328
-0.602161
-0.602952
-0.603694
-0.604384
-0.605019
-0.605599
-0.606126
-0.606604
-0.607034
-0.607422
-0.607771
-0.616765
-0.615975
-0.615154
-0.614298
-0.613402
-0.612462
-0.611476
-0.610441
-0.609357
-0.608224
-0.607048
-0.605833
-0.60459
-0.603331
-0.602071
-0.600829
-0.599625
-0.598482
-0.597421
-0.596465
-0.595635
-0.594949
-0.594421
-0.594061
-0.593875
-0.593863
-0.594019
-0.594332
-0.594788
-0.595369
-0.596054
-0.59682
-0.597644
-0.598504
-0.599379
-0.60025
-0.601103
-0.601924
-0.602703
-0.603433
-0.604111
-0.604735
-0.605304
-0.605821
-0.606288
-0.606709
-0.607088
-0.607428
-0.61813
-0.617239
-0.616324
-0.615378
-0.614397
-0.613378
-0.612316
-0.611209
-0.610057
-0.60886
-0.607622
-0.606349
-0.60505
-0.603738
-0.602427
-0.601136
-0.599886
-0.598697
-0.597594
-0.596597
-0.595728
-0.595005
-0.594443
-0.594051
-0.593835
-0.593795
-0.593925
-0.594214
-0.594647
-0.595207
-0.595872
-0.596618
-0.597424
-0.598266
-0.599124
-0.59998
-0.600816
-0.601621
-0.602385
-0.603102
-0.603766
-0.604376
-0.604933
-0.605437
-0.605893
-0.606302
-0.60667
-0.606999
-0.620319
-0.619249
-0.618167
-0.617067
-0.615942
-0.614788
-0.6136
-0.612375
-0.611113
-0.609812
-0.608477
-0.607112
-0.605727
-0.604334
-0.602946
-0.601582
-0.600263
-0.599009
-0.597844
-0.596789
-0.595865
-0.595091
-0.59448
-0.594044
-0.593786
-0.593707
-0.593801
-0.594057
-0.59446
-0.594991
-0.595628
-0.596349
-0.597131
-0.59795
-0.598786
-0.599621
-0.600437
-0.601223
-0.601968
-0.602667
-0.603314
-0.603908
-0.604449
-0.604939
-0.605381
-0.605777
-0.606132
-0.60645
-0.624402
-0.622941
-0.621503
-0.620079
-0.61866
-0.617238
-0.615804
-0.614354
-0.612885
-0.611394
-0.609883
-0.608357
-0.606822
-0.605289
-0.603772
-0.602288
-0.600856
-0.599498
-0.598235
-0.59709
-0.596081
-0.595229
-0.594546
-0.594042
-0.593723
-0.593587
-0.593629
-0.593837
-0.594196
-0.594686
-0.595286
-0.595972
-0.596721
-0.597509
-0.598316
-0.599122
-0.599912
-0.600673
-0.601396
-0.602072
-0.602698
-0.603273
-0.603795
-0.604268
-0.604693
-0.605074
-0.605414
-0.605718
-0.634708
-0.631936
-0.629373
-0.626978
-0.624714
-0.622554
-0.620473
-0.618452
-0.616478
-0.614538
-0.612627
-0.610743
-0.608886
-0.607064
-0.605286
-0.603566
-0.60192
-0.600366
-0.598926
-0.597619
-0.596464
-0.595477
-0.594673
-0.594059
-0.593639
-0.593413
-0.593372
-0.593506
-0.593797
-0.594225
-0.594768
-0.595402
-0.596103
-0.596848
-0.597614
-0.598383
-0.599139
-0.599867
-0.60056
-0.601208
-0.601809
-0.60236
-0.602861
-0.603313
-0.603719
-0.604083
-0.604408
-0.604697
-0.710255
-0.686556
-0.670513
-0.658863
-0.649946
-0.642833
-0.636963
-0.63198
-0.627647
-0.623802
-0.620331
-0.617156
-0.614221
-0.61149
-0.60894
-0.606561
-0.604348
-0.602305
-0.60044
-0.598763
-0.597285
-0.596015
-0.594962
-0.59413
-0.593518
-0.593122
-0.592932
-0.592934
-0.593108
-0.593433
-0.593885
-0.594438
-0.595066
-0.595746
-0.596455
-0.597172
-0.597882
-0.59857
-0.599225
-0.599841
-0.600412
-0.600937
-0.601415
-0.601847
-0.602236
-0.602584
-0.602895
-0.603174
0.565604
0.561419
0.556079
0.548994
0.539073
0.52406
0.498395
0.443817
0.250968
-0.999993
-0.766509
-0.691488
-0.659429
-0.641461
-0.62978
-0.62145
-0.615135
-0.610146
-0.6061
-0.602769
-0.600013
-0.597741
-0.595891
-0.594419
-0.59329
-0.592472
-0.591935
-0.591651
-0.59159
-0.591719
-0.592009
-0.592427
-0.592944
-0.593532
-0.594166
-0.594822
-0.595481
-0.59613
-0.596754
-0.597346
-0.5979
-0.598413
-0.598883
-0.599312
-0.5997
-0.600051
-0.600367
-0.600653
0.592379
0.59183
0.591232
0.590577
0.589862
0.589079
0.588224
0.58729
0.586273
0.585167
0.583969
0.582672
0.581269
0.579745
0.578075
0.576209
0.574045
0.571369
0.567669
0.561469
0.546297
0.391012
-0.625544
-0.598749
-0.591119
-0.587669
-0.585886
-0.584982
-0.584621
-0.584631
-0.584906
-0.585374
-0.58598
-0.586682
-0.587445
-0.58824
-0.589045
-0.589839
-0.59061
-0.591348
-0.592044
-0.592696
-0.593302
-0.593861
-0.594376
-0.594849
-0.595284
-0.595682
0.594193
0.593734
0.593235
0.592691
0.592099
0.591455
0.590757
0.590003
0.589193
0.58833
0.587418
0.586464
0.585477
0.584472
0.583464
0.582471
0.581514
0.580614
0.579793
0.579071
0.578468
0.578
0.57768
0.577518
-0.577518
-0.57768
-0.578
-0.578468
-0.579071
-0.579793
-0.580614
-0.581514
-0.582471
-0.583464
-0.584472
-0.585477
-0.586464
-0.587418
-0.58833
-0.589193
-0.590003
-0.590757
-0.591455
-0.592099
-0.592691
-0.593235
-0.593734
-0.594193
0.594193
0.593734
0.593235
0.592691
0.592099
0.591455
0.590757
0.590003
0.589193
0.58833
0.587418
0.586464
0.585477
0.584472
0.583464
0.582471
0.581514
0.580614
0.579793
0.579071
0.578468
0.578
0.57768
0.577518
-0.577518
-0.57768
-0.578
-0.578468
-0.579071
-0.579793
-0.580614
-0.581514
-0.582471
-0.583464
-0.584472
-0.585477
-0.586464
-0.587418
-0.58833
-0.589193
-0.590003
-0.590757
-0.591455
-0.592099
-0.592691
-0.593235
-0.593734
-0.594193
0.595682
0.595284
0.594849
0.594376
0.593861
0.593302
0.592696
0.592044
0.591348
0.59061
0.589839
0.589045
0.58824
0.587445
0.586682
0.58598
0.585374
0.584906
0.584631
0.584621
0.584982
0.585886
0.587669
0.591119
0.598749
0.625544
-0.391012
-0.546297
-0.561469
-0.567669
-0.571369
-0.574045
-0.576209
-0.578075
-0.579745
-0.581269
-0.582672
-0.583969
-0.585167
-0.586273
-0.58729
-0.588224
-0.589079
-0.589862
-0.590577
-0.591232
-0.59183
-0.592379
0.600653
0.600367
0.600051
0.5997
0.599312
0.598883
0.598413
0.5979
0.597346
0.596754
0.59613
0.595481
0.594822
0.594166
0.593532
0.592944
0.592427
0.592009
0.591719
0.59159
0.591651
0.591935
0.592472
0.59329
0.594419
0.595891
0.597741
0.600013
0.602769
0.6061
0.610146
0.615135
0.62145
0.62978
0.641461
0.659429
0.691488
0.766509
0.999993
-0.250968
-0.443817
-0.498395
-0.52406
-0.539073
-0.548994
-0.556079
-0.561419
-0.565604
0.603174
0.602895
0.602584
0.602236
0.601847
0.601415
0.600937
0.600412
0.599841
0.599225
0.59857
0.597882
0.597172
0.596455
0.595746
0.595066
0.594438
0.593885
0.593433
0.593108
0.592934
0.592932
0.593122
0.593518
0.59413
0.594962
0.596015
0.597285
0.598763
0.60044
0.602305
0.604348
0.606561
0.60894
0.61149
0.614221
0.617156
0.620331
0.623802
0.627647
0.63198
0.636963
0.642833
0.649946
0.658863
0.670513
0.686556
0.710255
0.604697
0.604408
0.604083
0.603719
0.603313
0.602861
0.60236
0.601809
0.601208
0.60056
0.599867
0.599139
0.598383
0.597614
0.596848
0.596103
0.595402
0.594768
0.594225
0.593797
0.593506
0.593372
0.593413
0.593639
0.594059
0.594673
0.595477
0.596464
0.597619
0.598926
0.600366
0.60192
0.603566
0.605286
0.607064
0.608886
0.610743
0.612627
0.614538
0.616478
0.618453
0.620473
0.622554
0.624714
0.626978
0.629373
0.631936
0.634708
0.605718
0.605414
0.605073
0.604693
0.604268
0.603795
0.603273
0.602698
0.602072
0.601396
0.600673
0.599912
0.599122
0.598316
0.597509
0.596721
0.595972
0.595286
0.594686
0.594196
0.593837
0.593629
0.593587
0.593723
0.594042
0.594546
0.595229
0.596081
0.59709
0.598235
0.599498
0.600856
0.602288
0.603772
0.605289
0.606822
0.608357
0.609883
0.611394
0.612885
0.614354
0.615804
0.617238
0.61866
0.620079
0.621503
0.622941
0.624402
0.60645
0.606132
0.605777
0.605381
0.604939
0.604449
0.603908
0.603314
0.602667
0.601968
0.601223
0.600437
0.599621
0.598786
0.59795
0.597131
0.596349
0.595628
0.594991
0.59446
0.594057
0.593801
0.593707
0.593786
0.594044
0.59448
0.595091
0.595865
0.596789
0.597844
0.599009
0.600263
0.601583
0.602946
0.604334
0.605727
0.607113
0.608477
0.609812
0.611113
0.612375
0.6136
0.614788
0.615942
0.617067
0.618167
0.619249
0.620319
0.606999
0.60667
0.606302
0.605893
0.605437
0.604933
0.604376
0.603766
0.603102
0.602385
0.601621
0.600816
0.59998
0.599124
0.598266
0.597424
0.596618
0.595872
0.595207
0.594647
0.594214
0.593925
0.593795
0.593835
0.594051
0.594443
0.595005
0.595728
0.596597
0.597594
0.598697
0.599886
0.601136
0.602427
0.603738
0.60505
0.606349
0.607622
0.60886
0.610057
0.611209
0.612316
0.613378
0.614397
0.615378
0.616323
0.617239
0.61813
0.607428
0.607088
0.606709
0.606288
0.605821
0.605304
0.604735
0.604111
0.603433
0.602703
0.601924
0.601103
0.60025
0.599379
0.598504
0.597644
0.59682
0.596054
0.595369
0.594788
0.594332
0.594019
0.593863
0.593875
0.594061
0.594421
0.594949
0.595635
0.596465
0.597421
0.598482
0.599625
0.600829
0.602071
0.603331
0.60459
0.605833
0.607048
0.608224
0.609357
0.610441
0.611476
0.612462
0.613402
0.614298
0.615154
0.615975
0.616765
0.607771
0.607422
0.607034
0.606604
0.606126
0.605599
0.605019
0.604384
0.603694
0.602952
0.602161
0.601328
0.600462
0.599577
0.598688
0.597815
0.596976
0.596196
0.595495
0.594898
0.594424
0.594092
0.593917
0.593908
0.594071
0.594407
0.594909
0.595568
0.596369
0.597295
0.598324
0.599435
0.600605
0.601812
0.603036
0.604257
0.605461
0.606635
0.60777
0.608858
0.609897
0.610884
0.61182
0.612707
0.613547
0.614346
0.615106
0.615832
0.608052
0.607695
0.6073
0.606861
0.606375
0.605839
0.605249
0.604605
0.603906
0.603153
0.602352
0.601508
0.600632
0.599736
0.598837
0.597952
0.597102
0.596309
0.595596
0.594986
0.594499
0.594152
0.593961
0.593936
0.594081
0.594397
0.594879
0.595517
0.596296
0.597199
0.598204
0.59929
0.600435
0.601615
0.602812
0.604005
0.60518
0.606325
0.607428
0.608485
0.609491
0.610443
0.611344
0.612194
0.612996
0.613754
0.614472
0.615155
0.61088
0.610423
0.609925
0.609384
0.608794
0.608152
0.607457
0.606705
0.605898
0.605037
0.604128
0.603176
0.602192
0.60119
0.600184
0.599193
0.598238
0.597339
0.596519
0.595799
0.595196
0.594729
0.59441
0.594249
0.594249
0.59441
0.594729
0.595196
0.595799
0.596519
0.597339
0.598238
0.599193
0.600184
0.60119
0.602192
0.603176
0.604128
0.605037
0.605898
0.606705
0.607457
0.608152
0.608794
0.609384
0.609925
0.610423
0.61088
-0.594193
-0.593734
-0.593235
-0.592691
-0.592099
-0.591455
-0.590757
-0.590003
-0.589193
-0.58833
-0.587418
-0.586464
-0.585477
-0.584472
-0.583464
-0.582471
-0.581514
-0.580614
-0.579793
-0.579071
-0.578468
-0.578
-0.57768
-0.577518
0.577518
0.57768
0.578
0.578468
0.579071
0.579793
0.580614
0.581514
0.582471
0.583464
0.584472
0.585477
0.586464
0.587418
0.58833
0.589193
0.590003
0.590757
0.591455
0.592099
0.592691
0.593235
0.593734
0.594193
-0.596928
-0.59657
-0.596179
-0.595753
-0.595287
-0.594781
-0.594232
-0.593641
-0.593009
-0.592342
-0.591646
-0.590932
-0.590214
-0.589512
-0.588849
-0.588254
-0.587761
-0.587411
-0.587253
-0.587345
-0.587766
-0.588619
-0.590064
-0.592369
-0.596047
-0.602264
-0.614385
-0.647889
-0.999998
0.494579
0.540001
0.554862
0.562642
0.567681
0.571368
0.574279
0.576689
0.578747
0.580541
0.582122
0.58353
0.584788
0.585917
0.586934
0.587852
0.588683
0.589437
0.590123
-0.597202
-0.596852
-0.596469
-0.596052
-0.595595
-0.595098
-0.59456
-0.593979
-0.593359
-0.592703
-0.59202
-0.591318
-0.590614
-0.589925
-0.589276
-0.588694
-0.588213
-0.587873
-0.587721
-0.587812
-0.588219
-0.589034
-0.590393
-0.592513
-0.595783
-0.601005
-0.610177
-0.630074
-0.70699
0.335911
0.516086
0.544466
0.556496
0.563471
0.568228
0.571801
0.574658
0.577034
0.579064
0.580828
0.582379
0.583753
0.584978
0.586076
0.587061
0.587951
0.588755
0.589486
-0.597537
-0.597196
-0.596823
-0.596415
-0.595969
-0.595483
-0.594956
-0.594387
-0.59378
-0.593137
-0.592466
-0.591778
-0.591087
-0.590412
-0.589775
-0.589205
-0.588735
-0.588402
-0.588251
-0.588335
-0.588718
-0.589482
-0.590738
-0.592657
-0.595521
-0.599861
-0.606826
-0.619492
-0.649743
-0.819597
0.424543
0.520749
0.544814
0.556192
0.563102
0.567914
0.571559
0.574476
0.576896
0.578952
0.58073
0.582285
0.583657
0.584875
0.585962
0.586938
0.587817
0.588612
-0.597955
-0.597625
-0.597263
-0.596867
-0.596433
-0.595959
-0.595444
-0.594889
-0.594294
-0.593665
-0.593008
-0.592334
-0.591657
-0.590994
-0.590369
-0.589809
-0.589345
-0.589014
-0.588858
-0.588925
-0.589271
-0.589967
-0.591102
-0.592802
-0.595263
-0.598816
-0.604092
-0.612479
-0.627738
-0.664737
-0.881699
0.413922
0.514019
0.540556
0.553239
0.560933
0.566253
0.570244
0.573402
0.575992
0.578171
0.580037
0.581657
0.583076
0.58433
0.585445
0.586442
0.587339
-0.598494
-0.598176
-0.597827
-0.597443
-0.597022
-0.596562
-0.596061
-0.59552
-0.59494
-0.594325
-0.593681
-0.59302
-0.592355
-0.591704
-0.591087
-0.590532
-0.590068
-0.589731
-0.589559
-0.589595
-0.589888
-0.590495
-0.591485
-0.592947
-0.595007
-0.597856
-0.601817
-0.607487
-0.616124
-0.630881
-0.662441
-0.780961
0.228962
0.483019
0.526454
0.544727
0.555071
0.561895
0.56683
0.570624
0.573661
0.576167
0.578277
0.580084
0.581651
0.583023
0.584235
0.585314
-0.599213
-0.598909
-0.598573
-0.598204
-0.597797
-0.597352
-0.596865
-0.596338
-0.595772
-0.59517
-0.594539
-0.593889
-0.593232
-0.592586
-0.591972
-0.591414
-0.59094
-0.590583
-0.590379
-0.590364
-0.59058
-0.591072
-0.59189
-0.593092
-0.594752
-0.59697
-0.599891
-0.603749
-0.608946
-0.61624
-0.627243
-0.646043
-0.686655
-0.840663
0.20722
0.465963
0.516221
0.537744
0.549924
0.557895
0.563596
0.56792
0.57134
0.574126
0.576448
0.578418
0.580113
0.58159
-0.600221
-0.59993
-0.59961
-0.599254
-0.598862
-0.59843
-0.597957
-0.597441
-0.596886
-0.596293
-0.595668
-0.595022
-0.594366
-0.593715
-0.59309
-0.592514
-0.592012
-0.591615
-0.591352
-0.591258
-0.591365
-0.591708
-0.592321
-0.593239
-0.594501
-0.59615
-0.59824
-0.600843
-0.604066
-0.608075
-0.613139
-0.61973
-0.628726
-0.641951
-0.66383
-0.7083
-0.846899
-0.0804208
0.411307
0.490052
0.521337
0.538273
0.548992
0.556449
0.561973
0.566251
0.569676
0.572488
-0.601734
-0.601455
-0.601145
-0.6008
-0.600416
-0.599991
-0.599523
-0.59901
-0.598454
-0.597857
-0.597225
-0.596565
-0.595889
-0.595212
-0.594551
-0.593928
-0.593366
-0.592891
-0.592532
-0.592316
-0.592269
-0.592419
-0.592788
-0.593397
-0.594262
-0.595397
-0.596814
-0.598523
-0.600537
-0.60287
-0.605547
-0.608607
-0.612108
-0.616147
-0.620873
-0.626523
-0.633486
-0.642427
-0.654557
-0.672324
-0.701435
-0.758591
-0.909244
-0.322269
0.324294
0.444469
0.491417
0.516331
-0.604261
-0.603976
-0.603656
-0.603298
-0.602898
-0.602453
-0.60196
-0.601417
-0.600826
-0.600188
-0.599508
-0.598792
-0.59805
-0.597296
-0.596547
-0.595821
-0.595141
-0.59453
-0.594012
-0.593612
-0.593352
-0.593254
-0.593334
-0.593604
-0.594073
-0.594742
-0.595608
-0.596663
-0.597896
-0.599289
-0.600826
-0.602488
-0.604257
-0.606115
-0.608051
-0.610052
-0.612112
-0.614232
-0.616413
-0.618666
-0.621007
-0.623457
-0.626045
-0.62881
-0.631799
-0.635074
-0.638714
-0.642824
-0.609335
-0.608938
-0.6085
-0.608019
-0.60749
-0.606909
-0.606275
-0.605584
-0.604838
-0.604039
-0.603189
-0.602297
-0.601372
-0.600427
-0.599478
-0.598543
-0.597643
-0.596799
-0.596034
-0.595369
-0.594825
-0.594418
-0.594163
-0.594069
-0.594142
-0.594381
-0.594781
-0.595334
-0.596023
-0.596834
-0.597744
-0.598734
-0.59978
-0.60086
-0.601955
-0.603046
-0.604117
-0.605155
-0.606151
-0.607097
-0.607989
-0.608827
-0.609608
-0.610336
-0.611013
-0.611643
-0.612228
-0.612774
-0.61088
-0.610423
-0.609925
-0.609384
-0.608794
-0.608152
-0.607457
-0.606705
-0.605898
-0.605037
-0.604128
-0.603176
-0.602192
-0.60119
-0.600184
-0.599193
-0.598238
-0.597339
-0.596519
-0.595799
-0.595196
-0.594729
-0.59441
-0.594249
-0.594249
-0.59441
-0.594729
-0.595196
-0.595799
-0.596519
-0.597339
-0.598238
-0.599193
-0.600184
-0.60119
-0.602192
-0.603176
-0.604128
-0.605037
-0.605898
-0.606705
-0.607457
-0.608152
-0.608794
-0.609384
-0.609925
-0.610423
-0.61088
-0.61088
-0.610423
-0.609925
-0.609384
-0.608794
-0.608152
-0.607457
-0.606705
-0.605898
-0.605037
-0.604128
-0.603176
-0.602192
-0.60119
-0.600184
-0.599193
-0.598238
-0.597339
-0.596519
-0.595799
-0.595196
-0.594729
-0.59441
-0.594249
-0.594249
-0.59441
-0.594729
-0.595196
-0.595799
-0.596519
-0.597339
-0.598238
-0.599193
-0.600184
-0.60119
-0.602192
-0.603176
-0.604128
-0.605037
-0.605898
-0.606705
-0.607457
-0.608152
-0.608794
-0.609384
-0.609925
-0.610423
-0.61088
-0.612774
-0.612228
-0.611643
-0.611013
-0.610336
-0.609608
-0.608827
-0.607989
-0.607097
-0.606151
-0.605155
-0.604117
-0.603046
-0.601955
-0.60086
-0.59978
-0.598734
-0.597744
-0.596834
-0.596023
-0.595333
-0.594781
-0.594381
-0.594142
-0.594069
-0.594163
-0.594418
-0.594824
-0.595369
-0.596034
-0.596799
-0.597643
-0.598543
-0.599478
-0.600427
-0.601372
-0.602297
-0.603189
-0.604039
-0.604838
-0.605584
-0.606275
-0.606909
-0.60749
-0.608019
-0.6085
-0.608938
-0.609335
-0.642824
-0.638714
-0.635074
-0.631799
-0.62881
-0.626045
-0.623457
-0.621007
-0.618666
-0.616413
-0.614232
-0.612112
-0.610052
-0.608051
-0.606115
-0.604257
-0.602488
-0.600826
-0.599289
-0.597896
-0.596663
-0.595608
-0.594742
-0.594073
-0.593604
-0.593334
-0.593254
-0.593352
-0.593612
-0.594012
-0.59453
-0.595141
-0.595821
-0.596547
-0.597296
-0.59805
-0.598792
-0.599508
-0.600188
-0.600826
-0.601417
-0.60196
-0.602453
-0.602898
-0.603298
-0.603656
-0.603976
-0.604261
0.516331
0.491417
0.444469
0.324294
-0.322269
-0.909244
-0.758591
-0.701435
-0.672324
-0.654557
-0.642427
-0.633486
-0.626523
-0.620873
-0.616147
-0.612108
-0.608607
-0.605547
-0.60287
-0.600537
-0.598523
-0.596814
-0.595397
-0.594262
-0.593397
-0.592788
-0.592419
-0.592269
-0.592316
-0.592532
-0.592891
-0.593366
-0.593928
-0.594551
-0.595212
-0.595889
-0.596565
-0.597225
-0.597857
-0.598454
-0.59901
-0.599523
-0.599991
-0.600416
-0.6008
-0.601145
-0.601455
-0.601734
0.572488
0.569676
0.566251
0.561973
0.556449
0.548992
0.538273
0.521337
0.490052
0.411307
-0.0804208
-0.846899
-0.7083
-0.66383
-0.641951
-0.628726
-0.61973
-0.613139
-0.608075
-0.604066
-0.600843
-0.59824
-0.59615
-0.594501
-0.593239
-0.592321
-0.591708
-0.591365
-0.591258
-0.591352
-0.591615
-0.592012
-0.592514
-0.59309
-0.593715
-0.594366
-0.595022
-0.595668
-0.596293
-0.596886
-0.597441
-0.597957
-0.59843
-0.598862
-0.599254
-0.59961
-0.59993
-0.600221
0.58159
0.580113
0.578418
0.576448
0.574126
0.57134
0.56792
0.563596
0.557895
0.549924
0.537744
0.516221
0.465963
0.20722
-0.840663
-0.686655
-0.646043
-0.627243
-0.61624
-0.608946
-0.603749
-0.599891
-0.59697
-0.594752
-0.593092
-0.59189
-0.591072
-0.59058
-0.590364
-0.590379
-0.590583
-0.59094
-0.591414
-0.591972
-0.592586
-0.593232
-0.593889
-0.594539
-0.59517
-0.595772
-0.596338
-0.596865
-0.597352
-0.597797
-0.598204
-0.598573
-0.598909
-0.599213
0.585314
0.584235
0.583023
0.581651
0.580084
0.578277
0.576167
0.573661
0.570623
0.56683
0.561894
0.555071
0.544727
0.526454
0.483019
0.228962
-0.780961
-0.662441
-0.630881
-0.616124
-0.607488
-0.601817
-0.597856
-0.595007
-0.592947
-0.591485
-0.590495
-0.589888
-0.589595
-0.589559
-0.589731
-0.590068
-0.590532
-0.591087
-0.591704
-0.592355
-0.593021
-0.593681
-0.594325
-0.59494
-0.59552
-0.596061
-0.596562
-0.597022
-0.597443
-0.597827
-0.598176
-0.598494
0.587339
0.586442
0.585445
0.58433
0.583076
0.581657
0.580037
0.578171
0.575992
0.573402
0.570244
0.566253
0.560933
0.553239
0.540556
0.514019
0.413922
-0.881699
-0.664737
-0.627738
-0.612479
-0.604092
-0.598816
-0.595263
-0.592802
-0.591102
-0.589967
-0.589272
-0.588925
-0.588858
-0.589014
-0.589345
-0.589809
-0.590369
-0.590994
-0.591657
-0.592334
-0.593008
-0.593665
-0.594294
-0.594889
-0.595444
-0.595959
-0.596433
-0.596867
-0.597263
-0.597625
-0.597955
0.588612
0.587817
0.586938
0.585962
0.584875
0.583657
0.582285
0.58073
0.578952
0.576896
0.574476
0.571559
0.567914
0.563102
0.556192
0.544814
0.520749
0.424543
-0.819597
-0.649743
-0.619492
-0.606826
-0.599861
-0.595522
-0.592657
-0.590738
-0.589482
-0.588718
-0.588335
-0.588251
-0.588402
-0.588735
-0.589205
-0.589775
-0.590412
-0.591087
-0.591778
-0.592466
-0.593137
-0.59378
-0.594387
-0.594956
-0.595483
-0.595969
-0.596415
-0.596823
-0.597196
-0.597537
0.589486
0.588755
0.587951
0.587061
0.586076
0.584978
0.583753
0.582379
0.580828
0.579064
0.577034
0.574658
0.571801
0.568228
0.563471
0.556496
0.544466
0.516086
0.335911
-0.70699
-0.630074
-0.610177
-0.601005
-0.595783
-0.592513
-0.590393
-0.589034
-0.588219
-0.587812
-0.58772
-0.587873
-0.588213
-0.588694
-0.589276
-0.589925
-0.590614
-0.591318
-0.59202
-0.592703
-0.593359
-0.593979
-0.59456
-0.595098
-0.595595
-0.596052
-0.596469
-0.596852
-0.597202
0.590123
0.589437
0.588683
0.587852
0.586934
0.585917
0.584788
0.58353
0.582122
0.580541
0.578747
0.576689
0.574279
0.571368
0.567681
0.562642
0.554862
0.540001
0.494579
-0.999998
-0.647889
-0.614385
-0.602264
-0.596047
-0.592369
-0.590064
-0.588619
-0.587766
-0.587345
-0.587253
-0.587411
-0.587761
-0.588254
-0.588849
-0.589512
-0.590214
-0.590932
-0.591646
-0.592342
-0.593009
-0.593641
-0.594232
-0.594781
-0.595287
-0.595753
-0.596179
-0.59657
-0.596928
0.594192
0.593734
0.593235
0.592691
0.592099
0.591455
0.590757
0.590003
0.589193
0.58833
0.587418
0.586464
0.585477
0.584472
0.583464
0.582471
0.581514
0.580614
0.579793
0.579071
0.578468
0.578
0.57768
0.577518
-0.577518
-0.57768
-0.578
-0.578468
-0.579071
-0.579793
-0.580614
-0.581514
-0.582471
-0.583464
-0.584472
-0.585477
-0.586464
-0.587418
-0.58833
-0.589193
-0.590003
-0.590757
-0.591455
-0.592099
-0.592691
-0.593235
-0.593734
-0.594192
-0.707108
-0.707108
-0.707109
-0.707111
-0.707113
-0.707117
-0.707122
-0.707131
-0.707142
-0.707158
-0.70718
-0.707209
-0.707246
-0.707292
-0.707347
-0.707411
-0.707483
-0.70756
-0.707639
-0.707716
-0.707786
-0.707844
-0.707885
-0.707907
-0.707907
-0.707885
-0.707844
-0.707786
-0.707716
-0.707639
-0.70756
-0.707483
-0.707411
-0.707347
-0.707292
-0.707246
-0.707209
-0.70718
-0.707158
-0.707142
-0.707131
-0.707122
-0.707117
-0.707113
-0.707111
-0.707109
-0.707108
-0.707108
-0.707107
-0.707108
-0.707108
-0.70711
-0.707111
-0.707114
-0.707118
-0.707124
-0.707132
-0.707144
-0.70716
-0.707181
-0.707208
-0.707241
-0.707281
-0.707327
-0.707379
-0.707435
-0.707492
-0.707548
-0.707598
-0.70764
-0.70767
-0.707686
-0.707686
-0.70767
-0.70764
-0.707598
-0.707548
-0.707492
-0.707435
-0.707379
-0.707327
-0.707281
-0.707241
-0.707208
-0.707181
-0.70716
-0.707144
-0.707132
-0.707124
-0.707118
-0.707114
-0.707111
-0.70711
-0.707108
-0.707108
-0.707107
-0.707107
-0.707108
-0.707108
-0.707109
-0.707111
-0.707114
-0.707118
-0.707123
-0.707132
-0.707143
-0.707158
-0.707179
-0.707205
-0.707237
-0.707275
-0.70732
-0.707371
-0.707425
-0.70748
-0.707534
-0.707583
-0.707624
-0.707653
-0.707669
-0.707669
-0.707653
-0.707624
-0.707583
-0.707534
-0.70748
-0.707425
-0.707371
-0.70732
-0.707275
-0.707237
-0.707205
-0.707179
-0.707158
-0.707143
-0.707132
-0.707123
-0.707118
-0.707114
-0.707111
-0.707109
-0.707108
-0.707108
-0.707107
-0.707107
-0.707108
-0.707108
-0.707109
-0.707111
-0.707113
-0.707117
-0.707123
-0.707131
-0.707142
-0.707157
-0.707176
-0.707201
-0.707232
-0.707269
-0.707313
-0.707361
-0.707413
-0.707467
-0.707519
-0.707567
-0.707606
-0.707634
-0.707649
-0.707649
-0.707634
-0.707606
-0.707567
-0.707519
-0.707467
-0.707413
-0.707361
-0.707313
-0.707269
-0.707232
-0.707201
-0.707176
-0.707157
-0.707142
-0.707131
-0.707123
-0.707117
-0.707113
-0.707111
-0.707109
-0.707108
-0.707108
-0.707107
-0.707107
-0.707108
-0.707108
-0.707109
-0.707111
-0.707113
-0.707117
-0.707122
-0.70713
-0.70714
-0.707154
-0.707173
-0.707197
-0.707227
-0.707262
-0.707304
-0.70735
-0.7074
-0.707452
-0.707502
-0.707547
-0.707585
-0.707612
-0.707626
-0.707626
-0.707612
-0.707585
-0.707547
-0.707502
-0.707452
-0.7074
-0.70735
-0.707304
-0.707262
-0.707227
-0.707197
-0.707173
-0.707154
-0.70714
-0.70713
-0.707122
-0.707117
-0.707113
-0.707111
-0.707109
-0.707108
-0.707108
-0.707107
-0.707107
-0.707108
-0.707108
-0.707109
-0.707111
-0.707113
-0.707116
-0.707121
-0.707129
-0.707139
-0.707152
-0.70717
-0.707192
-0.707221
-0.707255
-0.707294
-0.707338
-0.707385
-0.707434
-0.707482
-0.707525
-0.70756
-0.707586
-0.707599
-0.707599
-0.707586
-0.70756
-0.707525
-0.707482
-0.707434
-0.707385
-0.707338
-0.707294
-0.707255
-0.707221
-0.707192
-0.70717
-0.707152
-0.707139
-0.707129
-0.707121
-0.707116
-0.707113
-0.707111
-0.707109
-0.707108
-0.707108
-0.707107
-0.707107
-0.707108
-0.707108
-0.707109
-0.70711
-0.707113
-0.707116
-0.70712
-0.707127
-0.707137
-0.707149
-0.707166
-0.707187
-0.707214
-0.707245
-0.707282
-0.707324
-0.707368
-0.707414
-0.707459
-0.707499
-0.707533
-0.707557
-0.707569
-0.707569
-0.707557
-0.707533
-0.707499
-0.707459
-0.707414
-0.707368
-0.707324
-0.707282
-0.707245
-0.707214
-0.707187
-0.707166
-0.707149
-0.707137
-0.707127
-0.70712
-0.707116
-0.707113
-0.70711
-0.707109
-0.707108
-0.707108
-0.707107
-0.707107
-0.707108
-0.707108
-0.707109
-0.70711
-0.707112
-0.707115
-0.707119
-0.707126
-0.707134
-0.707146
-0.707162
-0.707182
-0.707206
-0.707236
-0.70727
-0.707309
-0.70735
-0.707393
-0.707434
-0.707472
-0.707503
-0.707525
-0.707537
-0.707537
-0.707525
-0.707503
-0.707472
-0.707434
-0.707393
-0.70735
-0.707309
-0.70727
-0.707236
-0.707206
-0.707182
-0.707162
-0.707146
-0.707134
-0.707126
-0.707119
-0.707115
-0.707112
-0.70711
-0.707109
-0.707108
-0.707108
-0.707107
-0.707107
-0.707107
-0.707108
-0.707109
-0.70711
-0.707112
-0.707115
-0.707119
-0.707125
-0.707133
-0.707144
-0.707158
-0.707177
-0.7072
-0.707228
-0.70726
-0.707297
-0.707336
-0.707376
-0.707415
-0.70745
-0.707479
-0.7075
-0.707511
-0.707511
-0.7075
-0.707479
-0.70745
-0.707415
-0.707376
-0.707336
-0.707297
-0.70726
-0.707228
-0.7072
-0.707177
-0.707158
-0.707144
-0.707133
-0.707125
-0.707119
-0.707115
-0.707112
-0.70711
-0.707109
-0.707108
-0.707107
-0.707107
-0.707107
-0.707107
-0.707108
-0.707109
-0.70711
-0.707112
-0.707115
-0.707119
-0.707125
-0.707134
-0.707145
-0.70716
-0.70718
-0.707204
-0.707233
-0.707266
-0.707304
-0.707345
-0.707386
-0.707427
-0.707463
-0.707494
-0.707516
-0.707527
-0.707527
-0.707516
-0.707494
-0.707463
-0.707427
-0.707386
-0.707345
-0.707304
-0.707266
-0.707233
-0.707204
-0.70718
-0.70716
-0.707145
-0.707134
-0.707125
-0.707119
-0.707115
-0.707112
-0.70711
-0.707109
-0.707108
-0.707107
-0.707107
-0.707107
-0.707108
-0.707109
-0.70711
-0.707112
-0.707115
-0.70712
-0.707127
-0.707136
-0.70715
-0.707168
-0.707192
-0.707223
-0.707262
-0.707308
-0.707361
-0.707421
-0.707485
-0.707552
-0.707616
-0.707674
-0.707723
-0.707757
-0.707775
-0.707775
-0.707757
-0.707723
-0.707674
-0.707616
-0.707552
-0.707485
-0.707421
-0.707361
-0.707308
-0.707262
-0.707223
-0.707192
-0.707168
-0.70715
-0.707136
-0.707127
-0.70712
-0.707115
-0.707112
-0.70711
-0.707109
-0.707108
-0.707107
-0.707108
-0.707108
-0.707109
-0.707111
-0.707113
-0.707117
-0.707122
-0.707131
-0.707142
-0.707158
-0.70718
-0.707209
-0.707246
-0.707292
-0.707347
-0.707411
-0.707483
-0.70756
-0.707639
-0.707716
-0.707786
-0.707844
-0.707885
-0.707907
-0.707907
-0.707885
-0.707844
-0.707786
-0.707716
-0.707639
-0.70756
-0.707483
-0.707411
-0.707347
-0.707292
-0.707246
-0.707209
-0.70718
-0.707158
-0.707142
-0.707131
-0.707122
-0.707117
-0.707113
-0.707111
-0.707109
-0.707108
-0.707108
-0.707108
-0.707108
-0.707109
-0.707111
-0.707113
-0.707117
-0.707122
-0.707131
-0.707142
-0.707158
-0.70718
-0.707209
-0.707246
-0.707292
-0.707347
-0.707411
-0.707483
-0.70756
-0.707639
-0.707716
-0.707786
-0.707844
-0.707885
-0.707907
-0.707907
-0.707885
-0.707844
-0.707786
-0.707716
-0.707639
-0.70756
-0.707483
-0.707411
-0.707347
-0.707292
-0.707246
-0.707209
-0.70718
-0.707158
-0.707142
-0.707131
-0.707122
-0.707117
-0.707113
-0.707111
-0.707109
-0.707108
-0.707108
-0.707107
-0.707108
-0.707109
-0.70711
-0.707112
-0.707115
-0.70712
-0.707127
-0.707136
-0.70715
-0.707168
-0.707192
-0.707223
-0.707262
-0.707308
-0.707361
-0.707421
-0.707485
-0.707552
-0.707616
-0.707674
-0.707723
-0.707757
-0.707775
-0.707775
-0.707757
-0.707723
-0.707674
-0.707616
-0.707552
-0.707485
-0.707421
-0.707361
-0.707308
-0.707262
-0.707223
-0.707192
-0.707168
-0.70715
-0.707136
-0.707127
-0.70712
-0.707115
-0.707112
-0.70711
-0.707109
-0.707108
-0.707107
-0.707107
-0.707107
-0.707108
-0.707109
-0.70711
-0.707112
-0.707115
-0.707119
-0.707125
-0.707134
-0.707145
-0.70716
-0.70718
-0.707204
-0.707233
-0.707266
-0.707304
-0.707345
-0.707386
-0.707427
-0.707463
-0.707494
-0.707516
-0.707527
-0.707527
-0.707516
-0.707494
-0.707463
-0.707427
-0.707386
-0.707345
-0.707304
-0.707266
-0.707233
-0.707204
-0.70718
-0.70716
-0.707145
-0.707134
-0.707125
-0.707119
-0.707115
-0.707112
-0.70711
-0.707109
-0.707108
-0.707107
-0.707107
-0.707107
-0.707107
-0.707108
-0.707109
-0.70711
-0.707112
-0.707115
-0.707119
-0.707125
-0.707133
-0.707144
-0.707158
-0.707177
-0.7072
-0.707228
-0.70726
-0.707297
-0.707336
-0.707376
-0.707415
-0.70745
-0.707479
-0.7075
-0.707511
-0.707511
-0.7075
-0.707479
-0.70745
-0.707415
-0.707376
-0.707336
-0.707297
-0.70726
-0.707228
-0.7072
-0.707177
-0.707158
-0.707144
-0.707133
-0.707125
-0.707119
-0.707115
-0.707112
-0.70711
-0.707109
-0.707108
-0.707107
-0.707107
-0.707107
-0.707108
-0.707108
-0.707109
-0.70711
-0.707112
-0.707115
-0.70712
-0.707126
-0.707134
-0.707146
-0.707162
-0.707182
-0.707206
-0.707236
-0.70727
-0.707309
-0.70735
-0.707393
-0.707434
-0.707472
-0.707503
-0.707525
-0.707537
-0.707537
-0.707525
-0.707503
-0.707472
-0.707434
-0.707393
-0.70735
-0.707309
-0.70727
-0.707236
-0.707206
-0.707182
-0.707162
-0.707146
-0.707134
-0.707126
-0.70712
-0.707115
-0.707112
-0.70711
-0.707109
-0.707108
-0.707108
-0.707107
-0.707107
-0.707108
-0.707108
-0.707109
-0.70711
-0.707113
-0.707116
-0.70712
-0.707127
-0.707137
-0.707149
-0.707166
-0.707187
-0.707214
-0.707245
-0.707282
-0.707324
-0.707368
-0.707414
-0.707459
-0.707499
-0.707533
-0.707557
-0.707569
-0.707569
-0.707557
-0.707533
-0.707499
-0.707459
-0.707414
-0.707368
-0.707324
-0.707282
-0.707245
-0.707214
-0.707187
-0.707166
-0.707149
-0.707137
-0.707127
-0.70712
-0.707116
-0.707113
-0.70711
-0.707109
-0.707108
-0.707108
-0.707107
-0.707107
-0.707108
-0.707108
-0.707109
-0.707111
-0.707113
-0.707116
-0.707121
-0.707128
-0.707139
-0.707152
-0.70717
-0.707192
-0.707221
-0.707255
-0.707294
-0.707338
-0.707385
-0.707434
-0.707482
-0.707525
-0.70756
-0.707586
-0.707599
-0.707599
-0.707586
-0.70756
-0.707525
-0.707482
-0.707434
-0.707385
-0.707338
-0.707294
-0.707255
-0.707221
-0.707192
-0.70717
-0.707152
-0.707139
-0.707128
-0.707121
-0.707116
-0.707113
-0.707111
-0.707109
-0.707108
-0.707108
-0.707107
-0.707107
-0.707108
-0.707108
-0.707109
-0.707111
-0.707113
-0.707117
-0.707122
-0.70713
-0.70714
-0.707154
-0.707173
-0.707197
-0.707227
-0.707262
-0.707304
-0.70735
-0.7074
-0.707452
-0.707502
-0.707547
-0.707585
-0.707612
-0.707626
-0.707626
-0.707612
-0.707585
-0.707547
-0.707502
-0.707452
-0.7074
-0.70735
-0.707304
-0.707262
-0.707227
-0.707197
-0.707173
-0.707154
-0.70714
-0.70713
-0.707122
-0.707117
-0.707113
-0.707111
-0.707109
-0.707108
-0.707108
-0.707107
-0.707107
-0.707108
-0.707108
-0.707109
-0.707111
-0.707113
-0.707117
-0.707123
-0.707131
-0.707142
-0.707157
-0.707176
-0.707201
-0.707232
-0.707269
-0.707313
-0.707361
-0.707413
-0.707467
-0.707519
-0.707567
-0.707606
-0.707634
-0.707649
-0.707649
-0.707634
-0.707606
-0.707567
-0.707519
-0.707467
-0.707413
-0.707361
-0.707313
-0.707269
-0.707232
-0.707201
-0.707176
-0.707157
-0.707142
-0.707131
-0.707123
-0.707117
-0.707113
-0.707111
-0.707109
-0.707108
-0.707108
-0.707107
-0.707107
-0.707108
-0.707108
-0.707109
-0.707111
-0.707114
-0.707118
-0.707123
-0.707132
-0.707143
-0.707158
-0.707179
-0.707205
-0.707237
-0.707275
-0.70732
-0.707371
-0.707425
-0.70748
-0.707534
-0.707583
-0.707624
-0.707653
-0.707669
-0.707669
-0.707653
-0.707624
-0.707583
-0.707534
-0.70748
-0.707425
-0.707371
-0.70732
-0.707275
-0.707237
-0.707205
-0.707179
-0.707158
-0.707143
-0.707132
-0.707123
-0.707118
-0.707114
-0.707111
-0.707109
-0.707108
-0.707108
-0.707107
-0.707107
-0.707108
-0.707108
-0.70711
-0.707111
-0.707114
-0.707118
-0.707124
-0.707132
-0.707144
-0.70716
-0.707181
-0.707208
-0.707241
-0.707281
-0.707327
-0.707379
-0.707435
-0.707492
-0.707548
-0.707598
-0.70764
-0.70767
-0.707686
-0.707686
-0.70767
-0.70764
-0.707598
-0.707548
-0.707492
-0.707435
-0.707379
-0.707327
-0.707281
-0.707241
-0.707208
-0.707181
-0.70716
-0.707144
-0.707132
-0.707124
-0.707118
-0.707114
-0.707111
-0.70711
-0.707108
-0.707108
-0.707107
-0.707108
-0.707108
-0.707109
-0.707111
-0.707113
-0.707117
-0.707122
-0.707131
-0.707142
-0.707158
-0.70718
-0.707209
-0.707246
-0.707292
-0.707347
-0.707411
-0.707483
-0.70756
-0.707639
-0.707716
-0.707786
-0.707844
-0.707885
-0.707907
-0.707907
-0.707885
-0.707844
-0.707786
-0.707716
-0.707639
-0.70756
-0.707483
-0.707411
-0.707347
-0.707292
-0.707246
-0.707209
-0.70718
-0.707158
-0.707142
-0.707131
-0.707122
-0.707117
-0.707113
-0.707111
-0.707109
-0.707108
-0.707108
</DataArray>
</PointData>
</Piece>
</StructuredGrid>
</VTKFile>
